;FLAVOR:Marlin
;TIME:288
;Filament used: 0.0855558m
;Layer height: 0.2
;MINX:104.7
;MINY:107.2
;MINZ:0.2
;MAXX:128.599
;MAXY:127.8
;MAXZ:5
;Generated with Cura_SteamEngine 4.7.1
M140 S50
M105
M190 S50
M104 S200
M105
M109 S200
M82 ;absolute extrusion mode
; Ender 3 Custom Start G-code
G92 E0 ; Reset Extruder
G28 ; Home all axes
G1 Z2.0 F3000 ; Move Z Axis up little to prevent scratching of Heat Bed
G1 X0.1 Y20 Z0.3 F5000.0 ; Move to start position
G1 X0.1 Y200.0 Z0.3 F1500.0 E15 ; Draw the first line
G1 X0.4 Y200.0 Z0.3 F5000.0 ; Move to side a little
G1 X0.4 Y20 Z0.3 F1500.0 E30 ; Draw the second line
G92 E0 ; Reset Extruder
G1 Z2.0 F3000 ; Move Z Axis up little to prevent scratching of Heat Bed
G1 X5 Y20 Z0.3 F5000.0 ; Move over to prevent blob squish
G92 E0
G92 E0
G1 F2700 E-5
;LAYER_COUNT:25
;LAYER:0
M107
G0 F6000 X107.123 Y110.014 Z0.2
;TYPE:SKIRT
G1 F2700 E0
G1 F1200 X107.722 Y109.499 E0.02627
G1 X108.37 Y109.048 E0.05253
G1 X109.061 Y108.664 E0.07883
G1 X109.786 Y108.352 E0.10508
G1 X110.539 Y108.115 E0.13133
G1 X111.313 Y107.956 E0.15761
G1 X111.771 Y107.909 E0.17293
G1 X112.286 Y107.687 E0.19158
G1 X113.039 Y107.45 E0.21784
G1 X113.813 Y107.291 E0.24412
G1 X114.598 Y107.21 E0.27037
G1 X115 Y107.2 E0.28374
G1 X118.191 Y107.2 E0.38987
G1 X118.98 Y107.24 E0.41615
G1 X119.76 Y107.359 E0.44239
G1 X120.525 Y107.557 E0.46867
G1 X121.265 Y107.831 E0.49492
G1 X121.396 Y107.895 E0.49977
G1 X121.587 Y107.905 E0.50613
G1 X122.367 Y108.024 E0.53237
G1 X123.132 Y108.222 E0.55866
G1 X123.872 Y108.496 E0.5849
G1 X124.581 Y108.844 E0.61117
G1 X125.252 Y109.262 E0.63746
G1 X125.876 Y109.745 E0.66371
G1 X126.449 Y110.288 E0.68997
G1 X126.964 Y110.887 E0.71624
G1 X127.415 Y111.535 E0.7425
G1 X127.799 Y112.226 E0.76879
G1 X128.111 Y112.951 E0.79504
G1 X128.348 Y113.704 E0.8213
G1 X128.507 Y114.478 E0.84758
G1 X128.588 Y115.263 E0.87383
G1 X128.598 Y115.663 E0.88714
G1 X128.599 Y119.766 E1.0236
G1 X128.559 Y120.555 E1.04988
G1 X128.44 Y121.335 E1.07612
G1 X128.242 Y122.1 E1.1024
G1 X127.968 Y122.841 E1.12868
G1 X127.621 Y123.55 E1.15493
G1 X127.039 Y124.448 E1.19053
G1 X126.865 Y124.68 E1.20017
G1 X126.36 Y125.287 E1.22643
G1 X125.796 Y125.84 E1.25271
G1 X125.179 Y126.333 E1.27897
G1 X124.515 Y126.761 E1.30525
G1 X123.812 Y127.119 E1.33149
G1 X123.076 Y127.405 E1.35775
G1 X122.314 Y127.615 E1.38404
G1 X121.536 Y127.747 E1.41029
G1 X120.625 Y127.8 E1.44064
G1 X119.002 Y127.8 E1.49462
G1 X118.213 Y127.76 E1.52089
G1 X117.481 Y127.648 E1.54552
G1 X117.182 Y127.71 E1.55568
G1 X116.397 Y127.79 E1.58192
G1 X115.998 Y127.8 E1.5952
G1 X114.375 Y127.8 E1.64918
G1 X113.586 Y127.76 E1.67546
G1 X112.806 Y127.641 E1.7017
G1 X112.041 Y127.443 E1.72798
G1 X111.301 Y127.169 E1.75423
G1 X110.592 Y126.821 E1.7805
G1 X109.921 Y126.403 E1.80679
G1 X109.297 Y125.92 E1.83304
G1 X108.724 Y125.377 E1.85929
G1 X108.135 Y124.68 E1.88964
G1 X106.26 Y122.18 E1.99358
G1 X105.819 Y121.525 E2.01984
G1 X105.446 Y120.829 E2.04611
G1 X105.146 Y120.099 E2.07236
G1 X104.921 Y119.342 E2.09862
G1 X104.773 Y118.566 E2.1249
G1 X104.7 Y117.5 E2.16044
G1 X104.7 Y115.665 E2.22147
G1 X104.74 Y114.876 E2.24775
G1 X104.859 Y114.096 E2.27399
G1 X105.057 Y113.331 E2.30027
G1 X105.331 Y112.591 E2.32652
G1 X105.679 Y111.882 E2.35279
G1 X106.097 Y111.211 E2.37908
G1 X106.58 Y110.587 E2.40533
G1 X107.123 Y110.014 E2.43158
G0 F6000 X107.516 Y110.195
G1 F1200 X108.111 Y109.707 E2.45718
G1 X108.753 Y109.284 E2.48275
G1 X109.436 Y108.929 E2.50835
G1 X110.151 Y108.648 E2.5339
G1 X110.893 Y108.442 E2.55951
G1 X111.651 Y108.314 E2.58508
G1 X111.863 Y108.302 E2.59214
G1 X111.936 Y108.264 E2.59488
G1 X112.651 Y107.983 E2.62043
G1 X113.393 Y107.777 E2.64605
G1 X114.151 Y107.649 E2.67161
G1 X115 Y107.6 E2.6999
G1 X118.191 Y107.6 E2.80603
G1 X118.959 Y107.64 E2.83161
G1 X119.719 Y107.759 E2.8572
G1 X120.462 Y107.957 E2.88277
G1 X121.181 Y108.231 E2.90836
G1 X121.3 Y108.291 E2.91279
G1 X121.566 Y108.305 E2.92165
G1 X122.326 Y108.424 E2.94724
G1 X123.069 Y108.622 E2.97281
G1 X123.788 Y108.896 E2.99841
G1 X124.474 Y109.243 E3.02398
G1 X125.121 Y109.659 E3.04956
G1 X125.721 Y110.14 E3.07514
G1 X126.268 Y110.681 E3.10072
G1 X126.756 Y111.276 E3.12632
G1 X127.179 Y111.918 E3.15189
G1 X127.534 Y112.601 E3.17749
G1 X127.815 Y113.316 E3.20304
G1 X128.021 Y114.058 E3.22866
G1 X128.149 Y114.816 E3.25422
G1 X128.198 Y115.663 E3.28244
G1 X128.199 Y119.766 E3.41891
G1 X128.159 Y120.534 E3.44449
G1 X128.04 Y121.294 E3.47007
G1 X127.842 Y122.038 E3.49568
G1 X127.569 Y122.756 E3.52123
G1 X127.222 Y123.443 E3.54683
G1 X126.719 Y124.208 E3.57728
G1 X126.545 Y124.44 E3.58692
G1 X126.052 Y125.031 E3.61252
G1 X125.501 Y125.567 E3.63809
G1 X124.897 Y126.043 E3.66367
G1 X124.246 Y126.453 E3.68926
G1 X123.557 Y126.794 E3.71483
G1 X122.836 Y127.062 E3.74041
G1 X122.091 Y127.253 E3.76599
G1 X121.33 Y127.366 E3.79158
G1 X120.625 Y127.4 E3.81505
G1 X119.002 Y127.4 E3.86903
G1 X118.234 Y127.36 E3.89461
G1 X117.488 Y127.243 E3.91973
G1 X116.844 Y127.351 E3.94145
G1 X115.998 Y127.4 E3.96963
G1 X114.375 Y127.4 E4.02361
G1 X113.607 Y127.36 E4.04919
G1 X112.847 Y127.241 E4.07478
G1 X112.104 Y127.043 E4.10035
G1 X111.385 Y126.769 E4.12594
G1 X110.699 Y126.422 E4.15151
G1 X110.052 Y126.006 E4.1771
G1 X109.452 Y125.525 E4.20267
G1 X108.905 Y124.984 E4.22826
G1 X108.455 Y124.44 E4.25174
G1 X106.58 Y121.94 E4.35568
G1 X106.151 Y121.302 E4.38125
G1 X105.791 Y120.622 E4.40684
G1 X105.503 Y119.909 E4.43242
G1 X105.291 Y119.169 E4.45802
G1 X105.156 Y118.412 E4.4836
G1 X105.1 Y117.5 E4.51399
G1 X105.1 Y115.665 E4.57502
G1 X105.14 Y114.897 E4.6006
G1 X105.259 Y114.137 E4.62618
G1 X105.457 Y113.394 E4.65176
G1 X105.731 Y112.675 E4.67735
G1 X106.078 Y111.989 E4.70292
G1 X106.494 Y111.342 E4.7285
G1 X106.975 Y110.742 E4.75408
G1 X107.516 Y110.195 E4.77967
G0 F6000 X107.908 Y110.381
G1 F1200 X108.498 Y109.922 E4.80453
G1 X109.134 Y109.527 E4.82943
G1 X109.808 Y109.203 E4.85431
G1 X110.513 Y108.953 E4.87918
G1 X111.241 Y108.779 E4.90408
G1 X111.983 Y108.684 E4.92896
G1 X112.006 Y108.683 E4.92973
G1 X112.308 Y108.538 E4.94087
G1 X113.013 Y108.288 E4.96575
G1 X113.741 Y108.114 E4.99064
G1 X114.483 Y108.019 E5.01552
G1 X115 Y108 E5.03273
G1 X118.191 Y108 E5.13886
G1 X118.938 Y108.04 E5.16374
G1 X119.676 Y108.159 E5.18861
G1 X120.398 Y108.357 E5.21351
G1 X121.094 Y108.63 E5.23837
G1 X121.202 Y108.687 E5.24244
G1 X121.545 Y108.705 E5.25386
G1 X122.283 Y108.824 E5.27872
G1 X123.005 Y109.022 E5.30362
G1 X123.701 Y109.295 E5.32849
G1 X124.364 Y109.642 E5.35338
G1 X124.987 Y110.057 E5.37828
G1 X125.561 Y110.536 E5.40314
G1 X126.082 Y111.073 E5.42803
G1 X126.541 Y111.663 E5.45289
G1 X126.936 Y112.299 E5.47779
G1 X127.26 Y112.973 E5.50266
G1 X127.51 Y113.678 E5.52754
G1 X127.684 Y114.406 E5.55244
G1 X127.779 Y115.148 E5.57732
G1 X127.798 Y115.663 E5.59446
G1 X127.799 Y119.766 E5.73093
G1 X127.759 Y120.513 E5.75581
G1 X127.64 Y121.252 E5.7807
G1 X127.443 Y121.973 E5.80556
G1 X127.169 Y122.67 E5.83047
G1 X126.823 Y123.333 E5.85534
G1 X126.399 Y123.968 E5.88074
G1 X126.225 Y124.2 E5.89039
G1 X125.745 Y124.774 E5.91527
G1 X125.206 Y125.293 E5.94016
G1 X124.615 Y125.751 E5.96503
G1 X123.979 Y126.144 E5.98989
G1 X123.304 Y126.467 E6.01478
G1 X122.598 Y126.716 E6.03968
G1 X121.87 Y126.888 E6.06456
G1 X121.128 Y126.982 E6.08944
G1 X120.625 Y127 E6.10618
G1 X119.002 Y127 E6.16016
G1 X118.255 Y126.96 E6.18504
G1 X117.517 Y126.841 E6.2099
G1 X117.483 Y126.832 E6.21107
G1 X117.254 Y126.886 E6.2189
G1 X116.512 Y126.981 E6.24378
G1 X115.998 Y127 E6.26089
G1 X114.375 Y127 E6.31487
G1 X113.628 Y126.96 E6.33975
G1 X112.89 Y126.841 E6.36461
G1 X112.168 Y126.643 E6.38951
G1 X111.472 Y126.37 E6.41438
G1 X110.809 Y126.023 E6.43927
G1 X110.186 Y125.608 E6.46417
G1 X109.612 Y125.129 E6.48903
G1 X109.091 Y124.592 E6.51392
G1 X108.775 Y124.2 E6.53066
G1 X106.9 Y121.7 E6.6346
G1 X106.484 Y121.078 E6.65949
G1 X106.136 Y120.416 E6.68436
G1 X105.861 Y119.72 E6.70926
G1 X105.662 Y118.999 E6.73413
G1 X105.541 Y118.261 E6.75901
G1 X105.5 Y117.5 E6.78435
G1 X105.5 Y115.665 E6.84539
G1 X105.54 Y114.918 E6.87027
G1 X105.659 Y114.18 E6.89513
G1 X105.857 Y113.458 E6.92003
G1 X106.13 Y112.762 E6.9449
G1 X106.477 Y112.099 E6.96979
G1 X106.892 Y111.476 E6.99468
G1 X107.371 Y110.902 E7.01955
G1 X107.908 Y110.381 E7.04443
G0 F6000 X107.765 Y111.067
G1 F1200 X108.299 Y110.574 E7.06861
G1 X108.884 Y110.144 E7.09275
G1 X109.513 Y109.78 E7.11693
G1 X110.178 Y109.487 E7.1411
G1 X110.871 Y109.269 E7.16526
G1 X111.583 Y109.129 E7.18939
G1 X112.056 Y109.096 E7.20516
G1 X112.678 Y108.822 E7.22777
G1 X113.371 Y108.604 E7.25193
G1 X114.083 Y108.464 E7.27607
G1 X115 Y108.4 E7.30664
G1 X118.191 Y108.4 E7.41277
G1 X118.916 Y108.44 E7.43692
G1 X119.633 Y108.559 E7.4611
G1 X120.332 Y108.757 E7.48526
G1 X121.005 Y109.03 E7.50942
G1 X121.101 Y109.082 E7.51305
G1 X121.523 Y109.105 E7.5271
G1 X122.24 Y109.224 E7.55128
G1 X122.939 Y109.422 E7.57544
G1 X123.612 Y109.695 E7.5996
G1 X124.251 Y110.04 E7.62375
G1 X124.848 Y110.454 E7.64791
G1 X125.396 Y110.93 E7.67206
G1 X125.889 Y111.464 E7.69623
G1 X126.319 Y112.049 E7.72038
G1 X126.683 Y112.678 E7.74455
G1 X126.976 Y113.343 E7.76872
G1 X127.194 Y114.036 E7.79288
G1 X127.334 Y114.748 E7.81702
G1 X127.398 Y115.663 E7.84752
G1 X127.399 Y119.766 E7.98399
G1 X127.359 Y120.492 E8.00817
G1 X127.24 Y121.208 E8.03231
G1 X127.043 Y121.907 E8.05647
G1 X126.77 Y122.58 E8.08062
G1 X126.425 Y123.219 E8.10478
G1 X126.079 Y123.728 E8.12525
G1 X125.905 Y123.96 E8.13489
G1 X125.438 Y124.516 E8.15904
G1 X124.912 Y125.018 E8.18323
G1 X124.335 Y125.459 E8.20738
G1 X123.713 Y125.833 E8.23152
G1 X123.053 Y126.137 E8.25569
G1 X122.364 Y126.367 E8.27985
G1 X121.654 Y126.519 E8.304
G1 X120.625 Y126.6 E8.33833
G1 X119.002 Y126.6 E8.39231
G1 X118.277 Y126.56 E8.41646
G1 X117.56 Y126.441 E8.44063
G1 X117.493 Y126.422 E8.44295
G1 X116.912 Y126.536 E8.46264
G1 X115.998 Y126.6 E8.49312
G1 X114.375 Y126.6 E8.5471
G1 X113.65 Y126.56 E8.57125
G1 X112.933 Y126.441 E8.59542
G1 X112.234 Y126.243 E8.61959
G1 X111.561 Y125.97 E8.64374
G1 X110.922 Y125.625 E8.66789
G1 X110.325 Y125.211 E8.69206
G1 X109.777 Y124.735 E8.7162
G1 X109.095 Y123.96 E8.75054
G1 X107.22 Y121.46 E8.85447
G1 X106.817 Y120.856 E8.87862
G1 X106.482 Y120.211 E8.9028
G1 X106.221 Y119.533 E8.92696
G1 X106.036 Y118.831 E8.95111
G1 X105.928 Y118.113 E8.97526
G1 X105.9 Y117.5 E8.99567
G1 X105.9 Y115.665 E9.0567
G1 X105.94 Y114.94 E9.08085
G1 X106.059 Y114.223 E9.10502
G1 X106.257 Y113.524 E9.12919
G1 X106.53 Y112.851 E9.15334
G1 X106.875 Y112.212 E9.1775
G1 X107.289 Y111.615 E9.20166
G1 X107.765 Y111.067 E9.2258
G0 F6000 X108.159 Y111.238
G1 F1200 X108.689 Y110.774 E9.24923
G1 X109.268 Y110.374 E9.27264
G1 X109.889 Y110.042 E9.29606
G1 X110.543 Y109.782 E9.31947
G1 X111.223 Y109.598 E9.3429
G1 X111.919 Y109.492 E9.36631
G1 X112.198 Y109.479 E9.3756
G1 X112.389 Y109.377 E9.3828
G1 X113.043 Y109.117 E9.40621
G1 X113.723 Y108.933 E9.42964
G1 X114.419 Y108.827 E9.45306
G1 X115 Y108.8 E9.4724
G1 X118.191 Y108.8 E9.57854
G1 X118.894 Y108.84 E9.60196
G1 X119.588 Y108.959 E9.62537
G1 X120.263 Y109.157 E9.64877
G1 X120.912 Y109.429 E9.67218
G1 X120.996 Y109.476 E9.67538
G1 X121.501 Y109.505 E9.6922
G1 X122.195 Y109.624 E9.71562
G1 X122.87 Y109.822 E9.73902
G1 X123.519 Y110.094 E9.76242
G1 X124.133 Y110.439 E9.78585
G1 X124.704 Y110.85 E9.80925
G1 X125.225 Y111.324 E9.83267
G1 X125.689 Y111.854 E9.8561
G1 X126.089 Y112.433 E9.87951
G1 X126.421 Y113.054 E9.90293
G1 X126.681 Y113.708 E9.92634
G1 X126.865 Y114.388 E9.94977
G1 X126.971 Y115.084 E9.97318
G1 X126.998 Y115.663 E9.99246
G1 X126.999 Y119.766 E10.12893
G1 X126.959 Y120.469 E10.15235
G1 X126.84 Y121.163 E10.17577
G1 X126.643 Y121.839 E10.19919
G1 X126.37 Y122.488 E10.22261
G1 X126.026 Y123.102 E10.24601
G1 X125.759 Y123.488 E10.26162
G1 X125.585 Y123.72 E10.27127
G1 X125.131 Y124.258 E10.29468
G1 X124.62 Y124.742 E10.31809
G1 X124.056 Y125.164 E10.34152
G1 X123.449 Y125.52 E10.36493
G1 X122.805 Y125.804 E10.38834
G1 X122.133 Y126.014 E10.41175
G1 X121.441 Y126.146 E10.43518
G1 X120.625 Y126.2 E10.46238
G1 X119.002 Y126.2 E10.51637
G1 X118.299 Y126.16 E10.53978
G1 X117.605 Y126.041 E10.5632
G1 X117.494 Y126.008 E10.56706
G1 X117.273 Y126.068 E10.57467
G1 X116.577 Y126.173 E10.59808
G1 X115.998 Y126.2 E10.61736
G1 X114.375 Y126.2 E10.67134
G1 X113.672 Y126.16 E10.69476
G1 X112.978 Y126.041 E10.71818
G1 X112.303 Y125.843 E10.74158
G1 X111.654 Y125.571 E10.76498
G1 X111.04 Y125.226 E10.78841
G1 X110.469 Y124.815 E10.81181
G1 X109.948 Y124.341 E10.83523
G1 X109.415 Y123.72 E10.86245
G1 X107.54 Y121.22 E10.96639
G1 X107.15 Y120.634 E10.9898
G1 X106.829 Y120.007 E11.01323
G1 X106.582 Y119.348 E11.03664
G1 X106.41 Y118.665 E11.06007
G1 X106.318 Y117.967 E11.08348
G1 X106.3 Y117.5 E11.09903
G1 X106.3 Y115.665 E11.16006
G1 X106.34 Y114.962 E11.18348
G1 X106.459 Y114.268 E11.2069
G1 X106.657 Y113.593 E11.23029
G1 X106.929 Y112.944 E11.2537
G1 X107.274 Y112.33 E11.27712
G1 X107.685 Y111.759 E11.30052
G1 X108.159 Y111.238 E11.32395
G0 F6000 X108.553 Y111.416
G1 F1200 X109.078 Y110.982 E11.34661
G1 X109.65 Y110.613 E11.36925
G1 X110.262 Y110.314 E11.3919
G1 X110.904 Y110.089 E11.41453
G1 X111.569 Y109.94 E11.43719
G1 X112.284 Y109.882 E11.46105
G1 X112.762 Y109.649 E11.47874
G1 X113.404 Y109.424 E11.50137
G1 X114.069 Y109.275 E11.52403
G1 X115 Y109.2 E11.5551
G1 X118.191 Y109.2 E11.66123
G1 X118.871 Y109.24 E11.68389
G1 X119.541 Y109.359 E11.70652
G1 X120.193 Y109.556 E11.72917
G1 X120.817 Y109.828 E11.75181
G1 X120.889 Y109.87 E11.75459
G1 X121.478 Y109.905 E11.77421
G1 X122.148 Y110.024 E11.79684
G1 X122.8 Y110.221 E11.8195
G1 X123.424 Y110.493 E11.84214
G1 X124.012 Y110.837 E11.8648
G1 X124.556 Y111.247 E11.88745
G1 X125.047 Y111.718 E11.91008
G1 X125.481 Y112.243 E11.93274
G1 X125.85 Y112.815 E11.95538
G1 X126.149 Y113.427 E11.97803
G1 X126.374 Y114.069 E12.00066
G1 X126.523 Y114.734 E12.02333
G1 X126.598 Y115.664 E12.05436
G1 X126.599 Y119.767 E12.19082
G1 X126.559 Y120.446 E12.21345
G1 X126.44 Y121.117 E12.23611
G1 X126.243 Y121.768 E12.25873
G1 X125.971 Y122.393 E12.28141
G1 X125.439 Y123.248 E12.3149
G1 X125.265 Y123.48 E12.32454
G1 X124.825 Y124 E12.3472
G1 X124.328 Y124.464 E12.36981
G1 X123.779 Y124.868 E12.39249
G1 X123.187 Y125.204 E12.41513
G1 X122.559 Y125.468 E12.43778
G1 X121.905 Y125.657 E12.46043
G1 X121.233 Y125.768 E12.48308
G1 X120.625 Y125.8 E12.50333
G1 X119.002 Y125.8 E12.55731
G1 X118.322 Y125.76 E12.57997
G1 X117.652 Y125.641 E12.6026
G1 X117.505 Y125.596 E12.60771
G1 X116.927 Y125.725 E12.62741
G1 X115.998 Y125.8 E12.65841
G1 X114.375 Y125.8 E12.71239
G1 X113.695 Y125.76 E12.73505
G1 X113.025 Y125.641 E12.75768
G1 X112.373 Y125.444 E12.78033
G1 X111.749 Y125.172 E12.80297
G1 X111.161 Y124.828 E12.82563
G1 X110.617 Y124.418 E12.84829
G1 X110.126 Y123.947 E12.87092
G1 X109.735 Y123.48 E12.89118
G1 X107.86 Y120.98 E12.99511
G1 X107.484 Y120.412 E13.01777
G1 X107.177 Y119.804 E13.04042
G1 X106.944 Y119.165 E13.06305
G1 X106.787 Y118.502 E13.08571
G1 X106.7 Y117.5 E13.11916
G1 X106.7 Y115.665 E13.18019
G1 X106.74 Y114.985 E13.20285
G1 X106.859 Y114.315 E13.22548
G1 X107.056 Y113.663 E13.24814
G1 X107.328 Y113.039 E13.27078
G1 X107.672 Y112.451 E13.29343
G1 X108.082 Y111.907 E13.31609
G1 X108.553 Y111.416 E13.33872
G0 F6000 X108.945 Y111.6
G1 F1200 X109.465 Y111.199 E13.36056
G1 X110.029 Y110.863 E13.3824
G1 X110.631 Y110.599 E13.40426
G1 X111.26 Y110.409 E13.42611
G1 X111.907 Y110.298 E13.44795
G1 X112.408 Y110.27 E13.46464
G1 X112.529 Y110.198 E13.46932
G1 X113.131 Y109.934 E13.49118
G1 X113.76 Y109.744 E13.51304
G1 X114.407 Y109.633 E13.53487
G1 X115 Y109.6 E13.55462
G1 X118.191 Y109.6 E13.66076
G1 X118.847 Y109.64 E13.68262
G1 X119.493 Y109.759 E13.70446
G1 X120.12 Y109.956 E13.72632
G1 X120.718 Y110.228 E13.74817
G1 X120.779 Y110.265 E13.75055
G1 X120.798 Y110.265 E13.75118
G1 X121.454 Y110.305 E13.77304
G1 X122.1 Y110.424 E13.79489
G1 X122.727 Y110.621 E13.81674
G1 X123.325 Y110.893 E13.8386
G1 X123.886 Y111.235 E13.86045
G1 X124.401 Y111.643 E13.8823
G1 X124.863 Y112.11 E13.90415
G1 X125.264 Y112.63 E13.92599
G1 X125.6 Y113.194 E13.94783
