;FLAVOR:Marlin
;TIME:1240
;Filament used: 0.244925m
;Layer height: 0.12
;MINX:96.47
;MINY:103
;MINZ:0.12
;MAXX:132.531
;MAXY:148
;MAXZ:37.92
;Generated with Cura_SteamEngine 4.7.1
M140 S50
M105
M190 S50
M104 S200
M105
M109 S200
M82 ;absolute extrusion mode
; Ender 3 Custom Start G-code
G92 E0 ; Reset Extruder
G28 ; Home all axes
G1 Z2.0 F3000 ; Move Z Axis up little to prevent scratching of Heat Bed
G1 X0.1 Y20 Z0.3 F5000.0 ; Move to start position
G1 X0.1 Y200.0 Z0.3 F1500.0 E15 ; Draw the first line
G1 X0.4 Y200.0 Z0.3 F5000.0 ; Move to side a little
G1 X0.4 Y20 Z0.3 F1500.0 E30 ; Draw the second line
G92 E0 ; Reset Extruder
G1 Z2.0 F3000 ; Move Z Axis up little to prevent scratching of Heat Bed
G1 X5 Y20 Z0.3 F5000.0 ; Move over to prevent blob squish
G92 E0
G92 E0
G1 F2700 E-5
;LAYER_COUNT:316
;LAYER:0
M107
G0 F6000 X107.758 Y106.181 Z0.12
;TYPE:SKIRT
G1 F2700 E0
G1 F1200 X108.453 Y105.552 E0.01871
G1 X109.199 Y104.983 E0.03743
G1 X109.991 Y104.481 E0.05614
G1 X110.822 Y104.048 E0.07484
G1 X111.688 Y103.687 E0.09357
G1 X112.581 Y103.401 E0.11228
G1 X113.496 Y103.192 E0.13101
G1 X114.425 Y103.062 E0.14973
G1 X115.322 Y103.012 E0.16766
G1 X116.067 Y103.001 E0.18253
G1 X118.814 Y103 E0.23734
G1 X118.971 Y103.001 E0.24048
G1 X119.672 Y103.011 E0.25447
G1 X120.608 Y103.064 E0.27318
G1 X121.537 Y103.197 E0.29191
G1 X122.45 Y103.409 E0.31061
G1 X123.343 Y103.697 E0.32933
G1 X124.207 Y104.061 E0.34804
G1 X125.038 Y104.497 E0.36677
G1 X125.828 Y105.002 E0.38548
G1 X126.572 Y105.572 E0.40419
G1 X127.265 Y106.204 E0.4229
G1 X127.902 Y106.893 E0.44163
G1 X128.478 Y107.633 E0.46034
G1 X128.961 Y108.374 E0.47799
G1 X129.398 Y109.108 E0.49504
G1 X130.775 Y111.496 E0.55005
G1 X131.124 Y112.118 E0.56429
G1 X131.548 Y112.955 E0.58301
G1 X131.899 Y113.825 E0.60173
G1 X132.174 Y114.721 E0.62043
G1 X132.372 Y115.638 E0.63916
G1 X132.491 Y116.568 E0.65787
G1 X132.531 Y117.505 E0.67658
G1 X132.491 Y118.442 E0.6953
G1 X132.371 Y119.373 E0.71403
G1 X132.172 Y120.289 E0.73274
G1 X131.896 Y121.185 E0.75145
G1 X131.548 Y122.045 E0.76996
G1 X131.17 Y122.878 E0.78822
G1 X130.732 Y123.813 E0.80882
G1 X129.696 Y126.194 E0.86064
G1 X128.801 Y128.419 E0.9085
G1 X127.904 Y130.851 E0.96023
G1 X127.102 Y133.228 E1.01029
G1 X126.334 Y135.741 E1.06273
G1 X126.098 Y136.555 E1.07964
G1 X125.799 Y137.444 E1.09836
G1 X125.425 Y138.304 E1.11708
G1 X125.134 Y138.861 E1.12962
G1 X124.699 Y139.638 E1.14739
G1 X123.347 Y141.98 E1.20135
G1 X122.967 Y142.618 E1.21617
G1 X122.453 Y143.403 E1.2349
G1 X121.874 Y144.14 E1.2536
G1 X121.234 Y144.826 E1.27232
G1 X120.539 Y145.455 E1.29103
G1 X119.792 Y146.023 E1.30976
G1 X119 Y146.525 E1.32847
G1 X118.167 Y146.957 E1.3472
G1 X117.301 Y147.317 E1.36591
G1 X116.408 Y147.602 E1.38462
G1 X115.493 Y147.81 E1.40334
G1 X114.564 Y147.939 E1.42206
G1 X113.678 Y147.988 E1.43977
G1 X112.933 Y147.999 E1.45464
G1 X110.186 Y148 E1.50946
G1 X110.029 Y147.999 E1.51259
G1 X109.328 Y147.989 E1.52658
G1 X108.392 Y147.936 E1.54529
G1 X107.463 Y147.803 E1.56402
G1 X106.55 Y147.591 E1.58272
G1 X105.657 Y147.303 E1.60145
G1 X104.793 Y146.939 E1.62016
G1 X103.962 Y146.503 E1.63888
G1 X103.172 Y145.998 E1.6576
G1 X102.428 Y145.428 E1.6763
G1 X101.735 Y144.796 E1.69502
G1 X101.098 Y144.107 E1.71374
G1 X100.522 Y143.367 E1.73246
G1 X100.037 Y142.623 E1.75018
G1 X99.575 Y141.846 E1.76822
G1 X98.222 Y139.498 E1.8223
G1 X97.874 Y138.877 E1.8365
G1 X97.451 Y138.04 E1.85522
G1 X97.1 Y137.171 E1.87392
G1 X96.825 Y136.274 E1.89265
G1 X96.628 Y135.357 E1.91136
G1 X96.509 Y134.427 E1.93007
G1 X96.47 Y133.49 E1.94879
G1 X96.511 Y132.553 E1.96751
G1 X96.631 Y131.623 E1.98622
G1 X96.831 Y130.706 E2.00495
G1 X97.107 Y129.81 E2.02366
G1 X97.447 Y128.967 E2.0418
G1 X97.828 Y128.127 E2.0602
G1 X98.287 Y127.146 E2.08182
G1 X99.277 Y124.868 E2.13139
G1 X100.232 Y122.492 E2.18249
G1 X101.092 Y120.159 E2.23211
G1 X101.904 Y117.753 E2.28278
G1 X102.675 Y115.233 E2.33537
G1 X102.906 Y114.436 E2.35193
G1 X103.205 Y113.547 E2.37065
G1 X103.58 Y112.687 E2.38937
G1 X103.864 Y112.143 E2.40162
G1 X104.224 Y111.498 E2.41636
G1 X104.303 Y111.359 E2.41955
G1 X105.586 Y109.137 E2.47076
G1 X106.028 Y108.392 E2.48804
G1 X106.541 Y107.606 E2.50677
G1 X107.119 Y106.868 E2.52548
G1 X107.758 Y106.181 E2.5442
G0 F6000 X108.075 Y106.431
G1 F1200 X108.761 Y105.816 E2.56259
G1 X109.497 Y105.264 E2.58095
G1 X110.279 Y104.777 E2.59933
G1 X111.099 Y104.36 E2.61769
G1 X111.953 Y104.016 E2.63606
G1 X112.834 Y103.748 E2.65444
G1 X113.735 Y103.556 E2.67283
G1 X114.648 Y103.444 E2.69118
G1 X115.328 Y103.412 E2.70477
G1 X116.073 Y103.401 E2.71964
G1 X118.814 Y103.4 E2.77434
G1 X119.666 Y103.411 E2.79134
G1 X120.585 Y103.464 E2.80971
G1 X121.496 Y103.597 E2.82808
G1 X122.392 Y103.808 E2.84645
G1 X123.267 Y104.096 E2.86484
G1 X124.113 Y104.459 E2.88321
G1 X124.924 Y104.894 E2.90157
G1 X125.695 Y105.398 E2.91995
G1 X126.419 Y105.967 E2.93833
G1 X127.091 Y106.596 E2.9567
G1 X127.706 Y107.281 E2.97507
G1 X128.259 Y108.017 E2.99344
G1 X128.618 Y108.579 E3.00675
G1 X128.973 Y109.174 E3.02058
G1 X130.426 Y111.692 E3.07859
G1 X130.775 Y112.314 E3.09282
G1 X131.19 Y113.136 E3.1112
G1 X131.533 Y113.99 E3.12957
G1 X131.8 Y114.872 E3.14796
G1 X131.989 Y115.773 E3.16633
G1 X132.1 Y116.687 E3.1847
G1 X132.13 Y117.607 E3.20307
G1 X132.081 Y118.526 E3.22144
G1 X131.953 Y119.438 E3.23982
G1 X131.745 Y120.335 E3.25819
G1 X131.461 Y121.21 E3.27655
G1 X131.184 Y121.88 E3.29102
G1 X130.808 Y122.708 E3.30917
G1 X130.355 Y123.676 E3.33049
G1 X129.335 Y126.021 E3.38153
G1 X128.426 Y128.279 E3.4301
G1 X127.525 Y130.721 E3.48204
G1 X126.727 Y133.088 E3.53189
G1 X125.947 Y135.64 E3.58515
G1 X125.714 Y136.444 E3.60185
G1 X125.419 Y137.316 E3.62022
G1 X125.05 Y138.16 E3.6386
G1 X124.785 Y138.666 E3.65
G1 X124.353 Y139.438 E3.66766
G1 X123.078 Y141.648 E3.71857
G1 X122.623 Y142.413 E3.73634
G1 X122.118 Y143.183 E3.75471
G1 X121.548 Y143.906 E3.77309
G1 X120.918 Y144.577 E3.79145
G1 X120.231 Y145.191 E3.80984
G1 X119.494 Y145.742 E3.8282
G1 X118.712 Y146.228 E3.84658
G1 X117.891 Y146.644 E3.86494
G1 X117.037 Y146.987 E3.88331
G1 X116.156 Y147.255 E3.90169
G1 X115.255 Y147.445 E3.92006
G1 X114.341 Y147.557 E3.93844
G1 X113.672 Y147.588 E3.9518
G1 X112.927 Y147.599 E3.96667
G1 X110.186 Y147.6 E4.02137
G1 X109.334 Y147.589 E4.03838
G1 X108.415 Y147.536 E4.05675
G1 X107.504 Y147.403 E4.07512
G1 X106.608 Y147.192 E4.09349
G1 X105.733 Y146.904 E4.11187
G1 X104.887 Y146.541 E4.13024
G1 X104.076 Y146.106 E4.14861
G1 X103.305 Y145.602 E4.16699
G1 X102.581 Y145.033 E4.18537
G1 X101.909 Y144.404 E4.20374
G1 X101.294 Y143.719 E4.22211
G1 X100.741 Y142.983 E4.24048
G1 X100.381 Y142.418 E4.25385
G1 X99.921 Y141.646 E4.27178
G1 X98.571 Y139.303 E4.32575
G1 X98.223 Y138.682 E4.33995
G1 X97.808 Y137.86 E4.35833
G1 X97.466 Y137.005 E4.3767
G1 X97.2 Y136.124 E4.39507
G1 X97.011 Y135.223 E4.41344
G1 X96.901 Y134.309 E4.43181
G1 X96.871 Y133.389 E4.45018
G1 X96.92 Y132.469 E4.46857
G1 X97.049 Y131.558 E4.48693
G1 X97.257 Y130.661 E4.5053
G1 X97.542 Y129.785 E4.52369
G1 X97.812 Y129.132 E4.53779
G1 X98.191 Y128.296 E4.55611
G1 X98.651 Y127.312 E4.57778
G1 X99.652 Y125.01 E4.62788
G1 X100.598 Y122.655 E4.67852
G1 X101.471 Y120.289 E4.72885
G1 X102.279 Y117.892 E4.77933
G1 X103.077 Y115.283 E4.83378
G1 X103.29 Y114.548 E4.84905
G1 X103.585 Y113.675 E4.86744
G1 X103.954 Y112.832 E4.8858
G1 X104.213 Y112.338 E4.89693
G1 X104.649 Y111.559 E4.91475
G1 X105.932 Y109.337 E4.96595
G1 X106.372 Y108.596 E4.98315
G1 X106.876 Y107.826 E5.00151
G1 X107.445 Y107.102 E5.01989
G1 X108.075 Y106.431 E5.03826
G0 F6000 X108.391 Y106.681
G1 F1200 X109.068 Y106.082 E5.0563
G1 X109.794 Y105.545 E5.07432
G1 X110.565 Y105.075 E5.09234
G1 X111.375 Y104.675 E5.11037
G1 X112.217 Y104.348 E5.12839
G1 X113.084 Y104.097 E5.1464
G1 X113.971 Y103.924 E5.16444
G1 X114.869 Y103.83 E5.18246
G1 X115.333 Y103.812 E5.19172
G1 X116.078 Y103.801 E5.20659
G1 X118.814 Y103.8 E5.26119
G1 X119.66 Y103.811 E5.27808
G1 X120.562 Y103.864 E5.29611
G1 X121.455 Y103.996 E5.31412
G1 X122.334 Y104.207 E5.33216
G1 X123.19 Y104.495 E5.35019
G1 X124.017 Y104.857 E5.3682
G1 X124.809 Y105.291 E5.38622
G1 X125.559 Y105.794 E5.40425
G1 X126.262 Y106.361 E5.42227
G1 X126.912 Y106.987 E5.44028
G1 X127.505 Y107.669 E5.45831
G1 X128.034 Y108.401 E5.47634
G1 X128.274 Y108.784 E5.48536
G1 X128.705 Y109.508 E5.50217
G1 X130.077 Y111.888 E5.55699
G1 X130.426 Y112.51 E5.57123
G1 X130.833 Y113.316 E5.58925
G1 X131.167 Y114.155 E5.60727
G1 X131.425 Y115.021 E5.6253
G1 X131.605 Y115.906 E5.64332
G1 X131.707 Y116.803 E5.66134
G1 X131.729 Y117.706 E5.67936
G1 X131.671 Y118.607 E5.69738
G1 X131.533 Y119.5 E5.71541
G1 X131.317 Y120.377 E5.73344
G1 X131.025 Y121.231 E5.75145
G1 X130.82 Y121.715 E5.76194
G1 X130.497 Y122.427 E5.77754
G1 X130.003 Y123.483 E5.80081
G1 X128.963 Y125.873 E5.85282
G1 X128.06 Y128.117 E5.90109
G1 X127.143 Y130.603 E5.95397
G1 X126.341 Y132.981 E6.00405
G1 X125.559 Y135.539 E6.05743
G1 X125.329 Y136.333 E6.07393
G1 X125.04 Y137.188 E6.09194
G1 X124.676 Y138.015 E6.10997
G1 X124.436 Y138.471 E6.12025
G1 X124.075 Y139.117 E6.13502
G1 X122.731 Y141.448 E6.18872
G1 X122.279 Y142.209 E6.20638
G1 X121.783 Y142.963 E6.22439
G1 X121.222 Y143.671 E6.24242
G1 X120.601 Y144.327 E6.26045
G1 X119.924 Y144.925 E6.27847
G1 X119.197 Y145.46 E6.29649
G1 X118.426 Y145.93 E6.3145
G1 X117.616 Y146.329 E6.33252
G1 X116.774 Y146.655 E6.35054
G1 X115.906 Y146.905 E6.36857
G1 X115.019 Y147.078 E6.3866
G1 X114.121 Y147.171 E6.40462
G1 X113.667 Y147.188 E6.41369
G1 X112.922 Y147.199 E6.42855
G1 X110.186 Y147.2 E6.48315
G1 X109.34 Y147.189 E6.50004
G1 X108.438 Y147.136 E6.51807
G1 X107.545 Y147.004 E6.53608
G1 X106.666 Y146.793 E6.55412
G1 X105.81 Y146.505 E6.57215
G1 X104.983 Y146.143 E6.59016
G1 X104.191 Y145.709 E6.60819
G1 X103.441 Y145.206 E6.62621
G1 X102.738 Y144.639 E6.64423
G1 X102.088 Y144.013 E6.66224
G1 X101.495 Y143.331 E6.68028
G1 X100.966 Y142.599 E6.6983
G1 X100.724 Y142.214 E6.70737
G1 X100.268 Y141.447 E6.72518
G1 X98.982 Y139.217 E6.77655
G1 X98.572 Y138.486 E6.79328
G1 X98.166 Y137.68 E6.81129
G1 X97.832 Y136.84 E6.82933
G1 X97.575 Y135.975 E6.84734
G1 X97.395 Y135.09 E6.86536
G1 X97.294 Y134.192 E6.88339
G1 X97.272 Y133.29 E6.9014
G1 X97.331 Y132.388 E6.91944
G1 X97.469 Y131.496 E6.93745
G1 X97.685 Y130.619 E6.95547
G1 X97.978 Y129.765 E6.97349
G1 X98.176 Y129.297 E6.98363
G1 X98.553 Y128.466 E7.00184
G1 X99.002 Y127.506 E7.02299
G1 X100.031 Y125.139 E7.0745
G1 X100.966 Y122.812 E7.12454
G1 X101.854 Y120.406 E7.17572
G1 X102.665 Y118 E7.22639
G1 X103.436 Y115.479 E7.279
G1 X103.674 Y114.659 E7.29604
G1 X103.964 Y113.804 E7.31406
G1 X104.328 Y112.978 E7.33207
G1 X104.562 Y112.533 E7.34211
G1 X104.922 Y111.888 E7.35685
G1 X106.343 Y109.426 E7.41357
G1 X106.715 Y108.8 E7.42811
G1 X107.211 Y108.045 E7.44613
G1 X107.771 Y107.337 E7.46415
G1 X108.391 Y106.681 E7.48216
G1 F2700 E2.48216
;MESH:M4XMountX15.stl
G0 F6000 X114.783 Y113.877
G0 X115.719 Y114.417
G0 X115.028 Y117.494
G0 X115.178 Y118.344
G0 X115.607 Y119.088
G0 X116.139 Y119.534
G0 X117.043 Y120.094
;TYPE:WALL-INNER
G1 F2700 E7.48216
G1 F1200 X117.957 Y120.094 E7.5004
G1 X118.206 Y120.004 E7.50568
G1 X118.609 Y119.858 E7.51424
G1 X118.82 Y119.778 E7.51874
G1 X119.316 Y119.362 E7.53166
G1 X119.517 Y119.194 E7.53689
G1 X119.976 Y118.401 E7.55517
G1 X120.022 Y118.139 E7.56048
G1 X120.134 Y117.503 E7.57337
G1 X120.032 Y116.911 E7.58536
G1 X120.023 Y116.862 E7.58635
G1 X119.975 Y116.597 E7.59173
G1 X119.518 Y115.806 E7.60996
G1 X119.315 Y115.636 E7.61524
G1 X118.817 Y115.218 E7.62822
G1 X118.325 Y115.04 E7.63866
G1 X118.2 Y114.996 E7.6413
G1 X117.953 Y114.91 E7.64652
G1 X117.511 Y114.91 E7.65534
G1 X117.353 Y114.913 E7.65849
G1 X117.053 Y114.904 E7.66448
G1 X116.798 Y114.996 E7.66989
G1 X116.183 Y115.218 E7.68294
G1 X115.684 Y115.638 E7.69596
G1 X115.482 Y115.807 E7.70121
G1 X115.025 Y116.6 E7.71948
G1 X114.981 Y116.855 E7.72464
G1 X114.899 Y117.323 E7.73412
G1 X114.864 Y117.491 E7.73755
G1 X114.979 Y118.14 E7.7507
G1 X115.024 Y118.401 E7.75599
G1 X115.482 Y119.194 E7.77426
G1 X115.685 Y119.365 E7.77956
G1 X116.182 Y119.782 E7.79251
G1 X116.795 Y120.004 E7.80552
G1 X117.043 Y120.094 E7.81078
G0 F6000 X117.113 Y119.694
;TYPE:WALL-OUTER
G1 F1200 X117.887 Y119.694 E7.82623
G1 X118.47 Y119.483 E7.8386
G1 X118.615 Y119.428 E7.8417
G1 X119.206 Y118.933 E7.85708
G1 X119.594 Y118.262 E7.87255
G1 X119.69 Y117.711 E7.88371
G1 X119.728 Y117.501 E7.88797
G1 X119.638 Y116.981 E7.8985
G1 X119.594 Y116.737 E7.90345
G1 X119.207 Y116.067 E7.91889
G1 X118.614 Y115.57 E7.93433
G1 X118.191 Y115.417 E7.94331
G1 X117.885 Y115.31 E7.94977
G1 X117.515 Y115.31 E7.95716
G1 X117.348 Y115.313 E7.96049
G1 X117.117 Y115.306 E7.9651
G1 X116.386 Y115.57 E7.98061
G1 X115.793 Y116.068 E7.99607
G1 X115.407 Y116.738 E8.0115
G1 X115.293 Y117.392 E8.02475
G1 X115.271 Y117.497 E8.02689
G1 X115.406 Y118.262 E8.04239
G1 X115.793 Y118.933 E8.05785
G1 X116.385 Y119.43 E8.07327
G1 X117.113 Y119.694 E8.08873
G0 F6000 X117.037 Y120.127
G0 X119.175 Y120.4
;TYPE:WALL-INNER
G1 F1200 X118.222 Y120.4 E8.10774
G1 X117.957 Y120.4 E8.11243
G1 X117.043 Y120.4 E8.12642
G1 X116.779 Y120.4 E8.13108
G1 X115.825 Y120.4 E8.15012
G1 X115.35 Y119.577 E8.16908
G1 X115.218 Y119.347 E8.17376
G1 X114.76 Y118.554 E8.18772
G1 X114.628 Y118.325 E8.19239
G1 X114.151 Y117.5 E8.2114
G1 X114.629 Y116.671 E8.2305
G1 X114.758 Y116.447 E8.23507
G1 X115.216 Y115.654 E8.24911
G1 X115.348 Y115.426 E8.25377
G1 X115.825 Y114.6 E8.2728
G1 X116.782 Y114.6 E8.2919
G1 X117.053 Y114.6 E8.29667
G1 X117.353 Y114.6 E8.3013
G1 X117.511 Y114.6 E8.30376
G1 X117.953 Y114.6 E8.31062
G1 X118.215 Y114.6 E8.31527
G1 X119.175 Y114.6 E8.33443
G1 X119.65 Y115.424 E8.35341
G1 X119.782 Y115.653 E8.35807
G1 X120.239 Y116.444 E8.37201
G1 X120.374 Y116.677 E8.37676
G1 X120.849 Y117.5 E8.39572
G1 X120.374 Y118.323 E8.41468
G1 X120.241 Y118.553 E8.41937
G1 X119.783 Y119.347 E8.43338
G1 X119.652 Y119.574 E8.43801
G1 X119.175 Y120.4 E8.45704
G0 F6000 X119.406 Y120.8
;TYPE:WALL-OUTER
G1 F1200 X115.594 Y120.8 E8.53312
G1 X113.69 Y117.5 E8.60915
G1 X115.594 Y114.2 E8.68518
G1 X119.406 Y114.2 E8.76125
G1 X121.31 Y117.5 E8.83728
G1 X119.406 Y120.8 E8.91331
G0 F6000 X119.135 Y120.39
G0 X118.955 Y120.086
;TYPE:SKIN
G1 F1200 X119.093 Y119.941 E8.91502
G1 X118.716 Y120.13 E8.91861
G1 X118.471 Y120.168 E8.92072
G0 F6000 X118.417 Y120.114
G0 X116.546 Y120.223
G0 X116.448 Y120.125
G1 F1200 X115.917 Y119.877 E8.9308
G1 X115.915 Y120.157 E8.93561
G0 F6000 X115.981 Y120.223
G0 X115.881 Y120.037
G0 X114.797 Y118.239
G0 X114.726 Y118.12
G1 F1200 X114.558 Y117.669 E8.94098
G1 X114.723 Y116.986 E8.94882
G0 F6000 X114.771 Y117.033
G0 X115.687 Y115.404
G0 X115.647 Y115.364
G1 F1200 X115.775 Y115.21 E8.95125
G1 X116.043 Y114.911 E8.95614
G1 X116.527 Y114.83 E8.96211
G0 F6000 X116.583 Y114.886
G0 X118.452 Y114.775
G0 X118.55 Y114.873
G1 F1200 X119.081 Y115.121 E8.9722
G1 X119.083 Y114.84 E8.97704
G0 F6000 X119.018 Y114.775
G0 X119.118 Y114.964
G0 X120.203 Y116.765
G0 X120.273 Y116.879
G1 F1200 X120.44 Y117.329 E8.98238
G1 X120.276 Y118.013 E8.9902
G0 F6000 X120.279 Y117.822
G1 F2700 E3.9902
;MESH:M4X35mmX1.stl(1)
G0 F6000 X119.391 Y119.089
G0 X118.738 Y119.637
G0 X118.509 Y119.72
G0 X115.719 Y120.583
G0 X115.719 Y121.665
G0 X113.281 Y129.335
G0 X113.281 Y130.417
G0 X114.185 Y133.5
G0 X112.944 Y136
;TYPE:WALL-INNER
G1 F2700 E8.9902
G1 F1200 X110.056 Y136 E9.04783
G1 X108.612 Y133.5 E9.10544
G1 X110.056 Y131 E9.16306
G1 X112.944 Y131 E9.22069
G1 X114.388 Y133.5 E9.27831
G1 X112.944 Y136 E9.33592
G0 F6000 X113.175 Y136.4
G1 F1200 X109.825 Y136.4 E9.40277
G1 X108.267 Y133.7 E9.46498
G1 X108.151 Y133.5 E9.4696
G1 X109.825 Y130.6 E9.53642
G1 X113.175 Y130.6 E9.60327
G1 X114.733 Y133.3 E9.66548
G1 X114.849 Y133.5 E9.67009
G1 X113.175 Y136.4 E9.73692
G0 F6000 X113.406 Y136.8
;TYPE:WALL-OUTER
G1 F1200 X109.594 Y136.8 E9.81299
G1 X107.69 Y133.5 E9.88902
G1 X109.594 Y130.2 E9.96505
G1 X113.406 Y130.2 E10.04112
G1 X115.31 Y133.5 E10.11715
G1 X113.406 Y136.8 E10.19318
G0 F6000 X113.135 Y136.39
G0 X112.719 Y135.61
;TYPE:SKIN
G1 F1200 X110.281 Y135.61 E10.24184
