;FLAVOR:Marlin
;TIME:1381
;Filament used: 0.570631m
;Layer height: 0.2
;MINX:72.5
;MINY:85.5
;MINZ:0.2
;MAXX:133.674
;MAXY:149.5
;MAXZ:8
;Generated with Cura_SteamEngine 4.7.1
M140 S50
M105
M190 S50
M104 S200
M105
M109 S200
M82 ;absolute extrusion mode
; Ender 3 Custom Start G-code
G92 E0 ; Reset Extruder
G28 ; Home all axes
G1 Z2.0 F3000 ; Move Z Axis up little to prevent scratching of Heat Bed
G1 X0.1 Y20 Z0.3 F5000.0 ; Move to start position
G1 X0.1 Y200.0 Z0.3 F1500.0 E15 ; Draw the first line
G1 X0.4 Y200.0 Z0.3 F5000.0 ; Move to side a little
G1 X0.4 Y20 Z0.3 F1500.0 E30 ; Draw the second line
G92 E0 ; Reset Extruder
G1 Z2.0 F3000 ; Move Z Axis up little to prevent scratching of Heat Bed
G1 X5 Y20 Z0.3 F5000.0 ; Move over to prevent blob squish
G92 E0
G92 E0
G1 F2700 E-5
;LAYER_COUNT:40
;LAYER:0
M107
G0 F6000 X77.135 Y106.34 Z0.2
;TYPE:SKIRT
G1 F2700 E0
G1 F1200 X77.922 Y105.829 E0.03121
G1 X78.696 Y105.413 E0.06044
G1 X79.257 Y105.14 E0.08119
G1 X81.517 Y103.999 E0.16539
G1 X83.759 Y102.786 E0.25017
G1 X85.925 Y101.534 E0.33339
G1 X88.093 Y100.198 E0.41809
G1 X90.16 Y98.841 E0.50033
G1 X92.261 Y97.375 E0.58553
G1 X94.245 Y95.906 E0.66764
G1 X96.261 Y94.324 E0.75287
G1 X98.186 Y92.723 E0.83615
G1 X100.055 Y91.076 E0.91901
G1 X102.006 Y89.259 E1.00768
G1 X102.719 Y88.65 E1.03887
G1 X103.481 Y88.103 E1.07007
G1 X104.287 Y87.624 E1.10125
G1 X105.131 Y87.215 E1.13244
G1 X106.006 Y86.879 E1.16362
G1 X107.319 Y86.527 E1.20883
G1 X107.916 Y86.406 E1.22909
G1 X109.408 Y86.127 E1.27958
G1 X110.229 Y85.949 E1.30752
G1 X111.346 Y85.724 E1.34541
G1 X112.273 Y85.579 E1.37662
G1 X113.201 Y85.513 E1.40756
G1 X113.521 Y85.504 E1.41821
G1 X113.83 Y85.5 E1.42849
G1 X117.804 Y85.501 E1.56067
G1 X118.505 Y85.511 E1.58398
G1 X119.441 Y85.564 E1.61516
G1 X120.351 Y85.694 E1.64574
G1 X121.29 Y85.869 E1.67751
G1 X122.47 Y86.105 E1.71753
G1 X123.991 Y86.366 E1.76886
G1 X124.674 Y86.492 E1.79196
G1 X125.588 Y86.702 E1.82315
G1 X126.48 Y86.99 E1.85433
G1 X127.345 Y87.352 E1.88552
G1 X128.176 Y87.787 E1.91671
G1 X128.967 Y88.291 E1.94791
G1 X129.712 Y88.861 E1.97911
G1 X130.406 Y89.492 E2.0103
G1 X131.044 Y90.18 E2.04151
G1 X131.62 Y90.919 E2.07268
G1 X132.132 Y91.706 E2.1039
G1 X132.575 Y92.532 E2.13508
G1 X132.945 Y93.394 E2.16628
G1 X133.241 Y94.284 E2.19747
G1 X133.46 Y95.196 E2.22867
G1 X133.601 Y96.123 E2.25986
G1 X133.661 Y96.999 E2.28906
G1 X133.67 Y97.32 E2.29974
G1 X133.674 Y97.628 E2.30999
G1 X133.673 Y101.775 E2.44792
G1 X133.663 Y102.48 E2.47137
G1 X133.654 Y102.788 E2.48161
G1 X133.623 Y103.509 E2.50562
G1 X133.537 Y105.048 E2.55688
G1 X133.466 Y107.579 E2.6411
G1 X133.466 Y110.103 E2.72505
G1 X133.538 Y112.626 E2.809
G1 X133.603 Y113.919 E2.85206
G1 X133.646 Y114.668 E2.87701
G1 X133.659 Y114.965 E2.8869
G1 X133.669 Y115.295 E2.89788
G1 X133.674 Y115.628 E2.90896
G1 X133.673 Y119.742 E3.04579
G1 X133.663 Y120.474 E3.07014
G1 X133.654 Y120.795 E3.08082
G1 X133.621 Y121.548 E3.10589
G1 X133.537 Y123.05 E3.15592
G1 X133.466 Y125.579 E3.24007
G1 X133.466 Y128.103 E3.32402
G1 X133.538 Y130.626 E3.40797
G1 X133.603 Y131.919 E3.45103
G1 X133.646 Y132.668 E3.47598
G1 X133.659 Y132.965 E3.48587
G1 X133.669 Y133.295 E3.49685
G1 X133.674 Y133.628 E3.50792
G1 X133.673 Y137.743 E3.64479
G1 X133.663 Y138.471 E3.66901
G1 X133.61 Y139.407 E3.70019
G1 X133.478 Y140.336 E3.7314
G1 X133.267 Y141.25 E3.7626
G1 X132.979 Y142.142 E3.79377
G1 X132.615 Y143.007 E3.82499
G1 X132.18 Y143.838 E3.85618
G1 X131.675 Y144.628 E3.88737
G1 X131.105 Y145.373 E3.91857
G1 X130.515 Y146.025 E3.94781
G1 X130.356 Y146.187 E3.95536
G1 X129.671 Y146.828 E3.98657
G1 X128.934 Y147.408 E4.01776
G1 X128.15 Y147.923 E4.04896
G1 X127.325 Y148.37 E4.08017
G1 X126.465 Y148.744 E4.11136
G1 X125.577 Y149.044 E4.14253
G1 X124.666 Y149.268 E4.17373
G1 X123.407 Y149.445 E4.21602
G1 X123.249 Y149.458 E4.22129
G1 X122.481 Y149.494 E4.24687
G1 X121.938 Y149.5 E4.26493
G1 X120.445 Y149.499 E4.31458
G1 X118.77 Y149.475 E4.3703
G1 X116.132 Y149.475 E4.45804
G1 X115.17 Y149.496 E4.49005
G1 X114.936 Y149.499 E4.49783
G1 X113.05 Y149.499 E4.56056
G1 X112.348 Y149.489 E4.58391
G1 X111.412 Y149.436 E4.61509
G1 X110.484 Y149.303 E4.64627
G1 X109.57 Y149.091 E4.67748
G1 X108.677 Y148.803 E4.70868
G1 X107.813 Y148.439 E4.73987
G1 X106.982 Y148.003 E4.77108
G1 X106.192 Y147.498 E4.80227
G1 X105.448 Y146.928 E4.83344
G1 X105.014 Y146.545 E4.85269
G1 X103.844 Y145.455 E4.90588
G1 X101.987 Y143.779 E4.98908
G1 X100.071 Y142.146 E5.07281
G1 X98.12 Y140.574 E5.15614
G1 X96.102 Y139.042 E5.24041
G1 X94.052 Y137.574 E5.32427
G1 X91.958 Y136.162 E5.40827
G1 X89.86 Y134.834 E5.49086
G1 X87.657 Y133.524 E5.57611
G1 X85.492 Y132.318 E5.65853
G1 X83.272 Y131.162 E5.74178
G1 X82.413 Y130.746 E5.77353
G1 X81.567 Y130.321 E5.80501
G1 X80.748 Y129.865 E5.83619
G1 X79.971 Y129.34 E5.86738
G1 X78.993 Y128.525 E5.90972
G1 X78.66 Y128.211 E5.92495
G1 X78.392 Y127.947 E5.93746
G1 X76.205 Y125.761 E6.04031
G1 X76.082 Y125.636 E6.04614
G1 X75.611 Y125.15 E6.06865
G1 X74.987 Y124.45 E6.09984
G1 X74.426 Y123.698 E6.13104
G1 X73.931 Y122.902 E6.16222
G1 X73.505 Y122.066 E6.19343
G1 X73.152 Y121.197 E6.22462
G1 X72.874 Y120.302 E6.25579
G1 X72.674 Y119.385 E6.28701
G1 X72.552 Y118.456 E6.31817
G1 X72.516 Y117.866 E6.33783
G1 X72.511 Y117.718 E6.34276
G1 X72.506 Y117.481 E6.35064
G1 X72.5 Y116.938 E6.36871
G1 X72.501 Y115.837 E6.40533
G1 X72.511 Y115.145 E6.42834
G1 X72.565 Y114.209 E6.45953
G1 X72.698 Y113.28 E6.49074
G1 X72.909 Y112.367 E6.52191
G1 X73.198 Y111.474 E6.55313
G1 X73.562 Y110.61 E6.58431
G1 X73.998 Y109.78 E6.61549
G1 X74.503 Y108.989 E6.6467
G1 X75.074 Y108.245 E6.6779
G1 X75.706 Y107.552 E6.70909
G1 X76.394 Y106.915 E6.74028
G1 X77.135 Y106.34 E6.77147
G0 F6000 X77.519 Y106.559
G1 F1200 X78.3 Y106.072 E6.80209
G1 X78.871 Y105.773 E6.82352
G1 X79.406 Y105.513 E6.84331
G1 X81.724 Y104.342 E6.92968
G1 X83.929 Y103.15 E7.01305
G1 X86.156 Y101.862 E7.09862
G1 X88.292 Y100.546 E7.18206
G1 X90.387 Y99.171 E7.26541
G1 X92.482 Y97.708 E7.3504
G1 X94.507 Y96.21 E7.43418
G1 X96.497 Y94.648 E7.51832
G1 X98.443 Y93.029 E7.60251
G1 X100.347 Y91.352 E7.6869
G1 X102.279 Y89.552 E7.77473
G1 X102.979 Y88.954 E7.80535
G1 X103.728 Y88.42 E7.83595
G1 X104.521 Y87.952 E7.86657
G1 X105.352 Y87.555 E7.8972
G1 X106.214 Y87.232 E7.92782
G1 X107.398 Y86.919 E7.96855
G1 X107.995 Y86.798 E7.98881
G1 X108.161 Y86.766 E7.99444
G1 X109.501 Y86.517 E8.03977
G1 X110.314 Y86.34 E8.06744
G1 X111.425 Y86.116 E8.10514
G1 X112.335 Y85.974 E8.13577
G1 X113.212 Y85.913 E8.16501
G1 X113.532 Y85.904 E8.17566
G1 X113.83 Y85.9 E8.18557
G1 X117.647 Y85.9 E8.31252
G1 X118.499 Y85.911 E8.34086
G1 X119.418 Y85.964 E8.37148
G1 X120.278 Y86.087 E8.40037
G1 X121.061 Y86.232 E8.42686
G1 X122.389 Y86.497 E8.4719
G1 X123.924 Y86.76 E8.5237
G1 X124.601 Y86.885 E8.5466
G1 X125.498 Y87.093 E8.57722
G1 X126.373 Y87.377 E8.60782
G1 X127.221 Y87.736 E8.63845
G1 X128.034 Y88.168 E8.66907
G1 X128.807 Y88.668 E8.69969
G1 X129.534 Y89.233 E8.73031
G1 X130.208 Y89.86 E8.76093
G1 X130.826 Y90.543 E8.79156
G1 X131.382 Y91.276 E8.82216
G1 X131.873 Y92.055 E8.85279
G1 X132.294 Y92.874 E8.88342
G1 X132.642 Y93.726 E8.91403
G1 X132.915 Y94.606 E8.94467
G1 X133.111 Y95.505 E8.97528
G1 X133.228 Y96.418 E9.00589
G1 X133.261 Y97.01 E9.02561
G1 X133.27 Y97.331 E9.03629
G1 X133.274 Y97.628 E9.04617
G1 X133.273 Y101.769 E9.1839
G1 X133.263 Y102.474 E9.20735
G1 X133.255 Y102.771 E9.21724
G1 X133.231 Y103.34 E9.23618
G1 X133.137 Y105.015 E9.29198
G1 X133.066 Y107.568 E9.37692
G1 X133.066 Y110.08 E9.46047
G1 X133.14 Y112.658 E9.54625
G1 X133.204 Y113.941 E9.58898
G1 X133.247 Y114.69 E9.61393
G1 X133.259 Y114.977 E9.62348
G1 X133.269 Y115.307 E9.63447
G1 X133.274 Y115.628 E9.64514
G1 X133.273 Y119.737 E9.78181
G1 X133.263 Y120.469 E9.80616
G1 X133.254 Y120.778 E9.81644
G1 X133.221 Y121.525 E9.84131
G1 X133.137 Y123.015 E9.89095
G1 X133.066 Y125.568 E9.97589
G1 X133.066 Y128.08 E10.05944
G1 X133.14 Y130.658 E10.14522
G1 X133.204 Y131.941 E10.18795
G1 X133.247 Y132.69 E10.2129
G1 X133.259 Y132.977 E10.22245
G1 X133.269 Y133.307 E10.23343
G1 X133.274 Y133.628 E10.24411
G1 X133.273 Y137.738 E10.38081
G1 X133.263 Y138.466 E10.40503
G1 X133.21 Y139.385 E10.43564
G1 X133.078 Y140.296 E10.46626
G1 X132.867 Y141.192 E10.49688
G1 X132.58 Y142.067 E10.5275
G1 X132.217 Y142.913 E10.55812
G1 X131.783 Y143.725 E10.58875
G1 X131.279 Y144.495 E10.61935
G1 X130.711 Y145.22 E10.64999
G1 X130.229 Y145.745 E10.67369
G1 X130.07 Y145.907 E10.68124
G1 X129.397 Y146.535 E10.71186
G1 X128.672 Y147.103 E10.74249
G1 X127.901 Y147.606 E10.77311
G1 X127.089 Y148.04 E10.80373
G1 X126.242 Y148.401 E10.83435
G1 X125.368 Y148.688 E10.86495
G1 X124.471 Y148.898 E10.89559
G1 X123.374 Y149.046 E10.93241
G1 X123.216 Y149.059 E10.93768
G1 X122.477 Y149.094 E10.96229
G1 X121.938 Y149.1 E10.98022
G1 X120.451 Y149.099 E11.02968
G1 X118.776 Y149.075 E11.08539
G1 X116.123 Y149.075 E11.17363
G1 X115.161 Y149.096 E11.20563
G1 X114.936 Y149.099 E11.21312
G1 X113.056 Y149.099 E11.27565
G1 X112.354 Y149.089 E11.299
G1 X111.435 Y149.036 E11.32962
G1 X110.524 Y148.903 E11.36024
G1 X109.628 Y148.692 E11.39085
G1 X108.753 Y148.404 E11.42149
G1 X107.907 Y148.041 E11.45211
G1 X107.096 Y147.606 E11.48272
G1 X106.325 Y147.102 E11.51336
G1 X105.286 Y146.252 E11.558
G1 X104.242 Y145.281 E11.60543
G1 X104.123 Y145.168 E11.61088
G1 X102.248 Y143.476 E11.69488
G1 X100.319 Y141.831 E11.7792
G1 X98.367 Y140.259 E11.86256
G1 X96.354 Y138.731 E11.94662
G1 X94.278 Y137.245 E12.03153
G1 X92.173 Y135.825 E12.11599
G1 X90.057 Y134.485 E12.19929
G1 X87.892 Y133.198 E12.28306
G1 X85.65 Y131.949 E12.36842
G1 X83.453 Y130.805 E12.45081
G1 X82.588 Y130.386 E12.48277
G1 X81.747 Y129.964 E12.51407
G1 X80.943 Y129.515 E12.5447
G1 X80.181 Y128.998 E12.57533
G1 X79.266 Y128.233 E12.61499
G1 X79.11 Y128.087 E12.6221
G1 X78.94 Y127.925 E12.62991
G1 X78.674 Y127.664 E12.64231
G1 X76.487 Y125.478 E12.74515
G1 X75.898 Y124.872 E12.77326
G1 X75.287 Y124.184 E12.80386
G1 X74.737 Y123.445 E12.8345
G1 X74.254 Y122.661 E12.86513
G1 X73.841 Y121.839 E12.89573
G1 X73.5 Y120.983 E12.92637
G1 X73.235 Y120.101 E12.957
G1 X73.048 Y119.2 E12.98761
G1 X72.916 Y117.853 E13.03263
G1 X72.911 Y117.705 E13.03755
G1 X72.906 Y117.477 E13.04514
G1 X72.9 Y116.938 E13.06307
G1 X72.901 Y115.843 E13.09949
G1 X72.911 Y115.151 E13.1225
G1 X72.964 Y114.232 E13.15312
G1 X73.097 Y113.321 E13.18374
G1 X73.309 Y112.425 E13.21437
G1 X73.597 Y111.55 E13.245
G1 X73.96 Y110.704 E13.27562
G1 X74.395 Y109.893 E13.30623
G1 X74.899 Y109.122 E13.33687
G1 X75.468 Y108.399 E13.36747
G1 X76.097 Y107.727 E13.39808
G1 X76.783 Y107.112 E13.42873
G1 X77.519 Y106.559 E13.45935
G0 F6000 X77.902 Y106.784
G1 F1200 X79.047 Y106.132 E13.50317
G1 X79.583 Y105.871 E13.523
G1 X81.915 Y104.693 E13.6099
G1 X84.14 Y103.49 E13.69402
G1 X86.36 Y102.207 E13.77931
G1 X88.475 Y100.903 E13.86195
G1 X90.629 Y99.489 E13.94765
G1 X92.726 Y98.026 E14.03269
G1 X94.746 Y96.531 E14.11627
G1 X96.755 Y94.955 E14.2012
G1 X98.68 Y93.353 E14.2845
G1 X100.62 Y91.644 E14.37049
G1 X102.551 Y89.845 E14.45827
G1 X103.239 Y89.259 E14.48832
G1 X103.975 Y88.736 E14.51835
G1 X104.755 Y88.281 E14.54839
G1 X105.572 Y87.896 E14.57843
G1 X106.42 Y87.585 E14.60847
G1 X107.478 Y87.311 E14.64482
G1 X108.234 Y87.159 E14.67047
G1 X109.593 Y86.906 E14.71645
G1 X110.399 Y86.731 E14.74388
G1 X110.557 Y86.698 E14.74925
G1 X111.504 Y86.508 E14.78137
G1 X112.396 Y86.37 E14.81139
G1 X113.223 Y86.313 E14.83896
G1 X113.543 Y86.304 E14.84961
G1 X113.83 Y86.3 E14.85916
G1 X117.647 Y86.3 E14.98611
G1 X118.493 Y86.311 E15.01425
G1 X119.395 Y86.364 E15.0443
G1 X120.205 Y86.481 E15.07152
G1 X121.133 Y86.653 E15.10292
G1 X122.356 Y86.898 E15.1444
G1 X123.856 Y87.155 E15.19502
G1 X124.528 Y87.279 E15.21775
G1 X125.407 Y87.483 E15.24776
G1 X126.266 Y87.764 E15.27782
G1 X127.096 Y88.12 E15.30786
G1 X127.891 Y88.547 E15.33787
G1 X128.645 Y89.044 E15.36791
G1 X129.353 Y89.605 E15.39795
G1 X130.008 Y90.227 E15.428
G1 X130.605 Y90.904 E15.45802
G1 X131.14 Y91.632 E15.48807
G1 X131.609 Y92.404 E15.51811
G1 X132.008 Y93.214 E15.54814
G1 X132.333 Y94.057 E15.57819
G1 X132.583 Y94.925 E15.60823
G1 X132.755 Y95.811 E15.63825
G1 X132.861 Y97.021 E15.67865
G1 X132.87 Y97.342 E15.68933
G1 X132.874 Y97.628 E15.69885
G1 X132.873 Y101.764 E15.83641
G1 X132.863 Y102.469 E15.85986
G1 X132.855 Y102.754 E15.86934
G1 X132.824 Y103.464 E15.89298
G1 X132.737 Y105.016 E15.94468
G1 X132.666 Y107.557 E16.02923
G1 X132.666 Y110.092 E16.11354
G1 X132.74 Y112.689 E16.19995
G1 X132.804 Y113.964 E16.24241
G1 X132.847 Y114.713 E16.26737
G1 X132.859 Y114.989 E16.27656
G1 X132.869 Y115.319 E16.28754
G1 X132.874 Y115.628 E16.29782
G1 X132.873 Y119.731 E16.43428
G1 X132.863 Y120.463 E16.45863
G1 X132.855 Y120.761 E16.46855
G1 X132.822 Y121.503 E16.49325
G1 X132.737 Y123.018 E16.54372
G1 X132.666 Y125.557 E16.6282
G1 X132.666 Y128.092 E16.71251
G1 X132.74 Y130.689 E16.79892
G1 X132.804 Y131.964 E16.84138
G1 X132.847 Y132.713 E16.86634
G1 X132.859 Y132.989 E16.87553
G1 X132.869 Y133.319 E16.88651
G1 X132.874 Y133.628 E16.89679
G1 X132.873 Y137.732 E17.03328
G1 X132.863 Y138.46 E17.0575
G1 X132.811 Y139.362 E17.08755
G1 X132.679 Y140.255 E17.11757
G1 X132.468 Y141.133 E17.14761
G1 X132.181 Y141.99 E17.17767
G1 X131.819 Y142.817 E17.20769
G1 X131.386 Y143.609 E17.23772
G1 X130.883 Y144.36 E17.26778
G1 X130.317 Y145.063 E17.2978
G1 X129.944 Y145.465 E17.31604
G1 X129.785 Y145.627 E17.32359
G1 X129.124 Y146.243 E17.35364
G1 X128.412 Y146.798 E17.38366
G1 X127.653 Y147.288 E17.41371
G1 X126.854 Y147.708 E17.44374
G1 X126.021 Y148.057 E17.47377
G1 X125.16 Y148.33 E17.50382
G1 X124.279 Y148.527 E17.53384
G1 X123.341 Y148.648 E17.5653
G1 X123.183 Y148.661 E17.57057
G1 X122.472 Y148.694 E17.59425
G1 X121.938 Y148.7 E17.61201
G1 X120.457 Y148.699 E17.66127
G1 X118.782 Y148.675 E17.71698
G1 X116.16 Y148.675 E17.80419
G1 X115.153 Y148.697 E17.83769
G1 X114.936 Y148.699 E17.84491
G1 X113.062 Y148.699 E17.90724
G1 X112.36 Y148.689 E17.93059
G1 X111.458 Y148.636 E17.96064
G1 X110.565 Y148.504 E17.99067
G1 X109.687 Y148.293 E18.0207
G1 X108.831 Y148.005 E18.05074
G1 X108.003 Y147.643 E18.08079
G1 X107.211 Y147.209 E18.11083
G1 X106.461 Y146.706 E18.14087
G1 X105.558 Y145.959 E18.17985
G1 X104.514 Y144.988 E18.22727
G1 X104.402 Y144.882 E18.2324
G1 X102.513 Y143.176 E18.31706
G1 X100.584 Y141.532 E18.40135
G1 X98.593 Y139.928 E18.48639
G1 X96.583 Y138.402 E18.57033
G1 X94.513 Y136.92 E18.655
G1 X92.405 Y135.499 E18.73956
G1 X90.27 Y134.146 E18.82363
G1 X88.096 Y132.854 E18.90774
G1 X85.865 Y131.611 E18.99268
G1 X83.605 Y130.434 E19.07743
G1 X82.762 Y130.026 E19.10858
G1 X81.927 Y129.607 E19.13965
G1 X81.139 Y129.166 E19.16969
G1 X80.393 Y128.657 E19.19973
G1 X79.539 Y127.941 E19.23679
G1 X79.383 Y127.795 E19.2439
G1 X79.22 Y127.639 E19.2514
G1 X78.957 Y127.381 E19.26366
G1 X76.656 Y125.08 E19.37189
G1 X76.185 Y124.594 E19.3944
G1 X75.586 Y123.918 E19.42444
G1 X75.049 Y123.192 E19.45447
G1 X74.578 Y122.421 E19.48452
G1 X74.178 Y121.612 E19.51454
G1 X73.85 Y120.77 E19.5446
G1 X73.598 Y119.903 E19.57463
G1 X73.424 Y119.017 E19.60466
G1 X73.316 Y117.839 E19.644
G1 X73.306 Y117.472 E19.65621
G1 X73.3 Y116.938 E19.67397
G1 X73.301 Y115.849 E19.7102
G1 X73.311 Y115.157 E19.73321
G1 X73.364 Y114.255 E19.76327
G1 X73.497 Y113.362 E19.79329
G1 X73.708 Y112.484 E19.82333
G1 X73.996 Y111.628 E19.85337
G1 X74.358 Y110.8 E19.88342
G1 X74.792 Y110.009 E19.91343
G1 X75.295 Y109.258 E19.9435
G1 X75.862 Y108.555 E19.97354
G1 X76.489 Y107.905 E20.00357
G1 X77.171 Y107.313 E20.03361
G1 X77.902 Y106.784 E20.06362
G1 F2700 E15.06362
;MESH:t_nut_3030_m5.stl(3)
G0 F6000 X86.847 Y114.645
G0 X87.914 Y114.914
G0 X88.282 Y116.08
G0 X84.282 Y116.08
G0 X84.274 Y117.181
G0 X86.819 Y119.726
G0 X88.35 Y119.718
G0 X88.351 Y116.718
G0 X94.295 Y117.072
G0 X94.468 Y119.9
;TYPE:WALL-INNER
G1 F2700 E20.06362
G1 F1200 X94.467 Y116.9 E20.1634
G1 X88.533 Y116.9 E20.36077
G1 X88.532 Y119.9 E20.46055
G1 X86.748 Y119.9 E20.51988
G1 X84.1 Y117.252 E20.64444
G1 X84.1 Y115.898 E20.68947
G1 X88.1 Y115.898 E20.82251
G1 X88.1 Y115.1 E20.84905
