;FLAVOR:Marlin
;TIME:16774
;Filament used: 8.202m
;Layer height: 0.12
;MINX:60.7
;MINY:75.45
;MINZ:0.12
;MAXX:174.3
;MAXY:159.55
;MAXZ:3.96
;Generated with Cura_SteamEngine 4.7.1
M140 S50
M105
M190 S50
M104 S200
M105
M109 S200
M82 ;absolute extrusion mode
; Ender 3 Custom Start G-code
G92 E0 ; Reset Extruder
G28 ; Home all axes
G1 Z2.0 F3000 ; Move Z Axis up little to prevent scratching of Heat Bed
G1 X0.1 Y20 Z0.3 F5000.0 ; Move to start position
G1 X0.1 Y200.0 Z0.3 F1500.0 E15 ; Draw the first line
G1 X0.4 Y200.0 Z0.3 F5000.0 ; Move to side a little
G1 X0.4 Y20 Z0.3 F1500.0 E30 ; Draw the second line
G92 E0 ; Reset Extruder
G1 Z2.0 F3000 ; Move Z Axis up little to prevent scratching of Heat Bed
G1 X5 Y20 Z0.3 F5000.0 ; Move over to prevent blob squish
G92 E0
G92 E0
G1 F2700 E-5
;LAYER_COUNT:33
;LAYER:0
M107
G0 F6000 X64.717 Y78.399 Z0.12
;TYPE:SKIRT
G1 F2700 E0
G1 F1200 X65.325 Y77.899 E0.01571
G1 X65.959 Y77.428 E0.03147
G1 X66.605 Y77.043 E0.04648
G1 X67.296 Y76.674 E0.06211
G1 X68.01 Y76.337 E0.07787
G1 X68.706 Y76.09 E0.0926
G1 X69.451 Y75.864 E0.10814
G1 X70.217 Y75.673 E0.1239
G1 X70.944 Y75.566 E0.13856
G1 X71.729 Y75.488 E0.1543
G1 X72.518 Y75.45 E0.17007
G1 X73.374 Y75.499 E0.18718
G1 X74.261 Y75.599 E0.20499
G1 X75.04 Y75.727 E0.22074
G1 X75.953 Y75.984 E0.23967
G1 X76.797 Y76.278 E0.25751
G1 X77.528 Y76.575 E0.27325
G1 X78.217 Y76.95 E0.28891
G1 X156.778 Y76.95 E1.85668
G1 X157.313 Y76.651 E1.86891
G1 X158.205 Y76.277 E1.88821
G1 X159.05 Y75.983 E1.90606
G1 X159.808 Y75.762 E1.92182
G1 X160.739 Y75.599 E1.94068
G1 X161.626 Y75.499 E1.9585
G1 X162.414 Y75.45 E1.97425
G1 X163.271 Y75.488 E1.99137
G1 X164.056 Y75.566 E2.00711
G1 X164.837 Y75.684 E2.02288
G1 X165.549 Y75.864 E2.03753
G1 X166.294 Y76.09 E2.05307
G1 X167.037 Y76.357 E2.06882
G1 X167.704 Y76.674 E2.08356
G1 X168.395 Y77.043 E2.09919
G1 X169.072 Y77.449 E2.11495
G1 X169.673 Y77.897 E2.12991
G1 X170.279 Y78.395 E2.14556
G1 X170.863 Y78.926 E2.16131
G1 X171.351 Y79.467 E2.17585
G1 X171.851 Y80.075 E2.19156
G1 X172.322 Y80.709 E2.20732
G1 X172.707 Y81.355 E2.22233
G1 X173.076 Y82.046 E2.23796
G1 X173.413 Y82.76 E2.25372
G1 X173.659 Y83.453 E2.26839
G1 X173.885 Y84.197 E2.28391
G1 X174.076 Y84.963 E2.29966
G1 X174.184 Y85.692 E2.31437
G1 X174.262 Y86.476 E2.33009
G1 X174.3 Y87.265 E2.34586
G1 X174.262 Y88.017 E2.36088
G1 X174.184 Y88.804 E2.37667
G1 X174.066 Y89.585 E2.39243
G1 X173.885 Y90.302 E2.40719
G1 X173.659 Y91.046 E2.4227
G1 X173.392 Y91.789 E2.43846
G1 X173.08 Y92.446 E2.45297
G1 X172.713 Y93.135 E2.46855
G1 X172.307 Y93.812 E2.48431
G1 X171.857 Y94.417 E2.49935
G1 X171.357 Y95.026 E2.51508
G1 X170.826 Y95.611 E2.53084
G1 X170.595 Y95.82 E2.53706
G1 X170.651 Y95.873 E2.5386
G1 X171.166 Y96.472 E2.55436
G1 X171.617 Y97.12 E2.57012
G1 X172.001 Y97.811 E2.58589
G1 X172.313 Y98.536 E2.60165
G1 X172.55 Y99.289 E2.6174
G1 X172.709 Y100.063 E2.63317
G1 X172.79 Y100.848 E2.64892
G1 X172.8 Y101.25 E2.65694
G1 X172.8 Y106.75 E2.7667
G1 X172.76 Y107.539 E2.78247
G1 X172.641 Y108.319 E2.79821
G1 X172.443 Y109.084 E2.81398
G1 X172.169 Y109.824 E2.82973
G1 X171.821 Y110.533 E2.84549
G1 X171.403 Y111.204 E2.86127
G1 X170.92 Y111.828 E2.87701
G1 X170.377 Y112.401 E2.89277
G1 X169.778 Y112.916 E2.90853
G1 X169.13 Y113.367 E2.92429
G1 X168.8 Y113.55 E2.93182
G1 X168.8 Y120.94 E3.07929
G1 X169.454 Y121.347 E3.09466
G1 X170.078 Y121.83 E3.11041
G1 X170.651 Y122.373 E3.12616
G1 X171.166 Y122.972 E3.14193
G1 X171.617 Y123.62 E3.15768
G1 X172.001 Y124.311 E3.17346
G1 X172.313 Y125.036 E3.18921
G1 X172.55 Y125.789 E3.20496
G1 X172.709 Y126.563 E3.22073
G1 X172.79 Y127.348 E3.23648
G1 X172.8 Y127.75 E3.24451
G1 X172.8 Y133.75 E3.36424
G1 X172.76 Y134.539 E3.38001
G1 X172.641 Y135.319 E3.39575
G1 X172.443 Y136.084 E3.41152
G1 X172.169 Y136.824 E3.42727
G1 X171.821 Y137.533 E3.44303
G1 X171.403 Y138.204 E3.45881
G1 X170.92 Y138.828 E3.47456
G1 X170.589 Y139.177 E3.48416
G1 X170.858 Y139.421 E3.4914
G1 X171.356 Y139.973 E3.50624
G1 X171.855 Y140.581 E3.52194
G1 X172.325 Y141.216 E3.5377
G1 X172.704 Y141.851 E3.55246
G1 X173.074 Y142.543 E3.56812
G1 X173.411 Y143.258 E3.58389
G1 X173.658 Y143.951 E3.59857
G1 X173.884 Y144.694 E3.61407
G1 X174.076 Y145.46 E3.62983
G1 X174.185 Y146.202 E3.6448
G1 X174.262 Y146.986 E3.66052
G1 X174.299 Y147.774 E3.67626
G1 X174.262 Y148.508 E3.69093
G1 X174.185 Y149.295 E3.70671
G1 X174.068 Y150.076 E3.72247
G1 X173.886 Y150.799 E3.73735
G1 X173.66 Y151.544 E3.75288
G1 X173.393 Y152.287 E3.76864
G1 X173.074 Y152.958 E3.78347
G1 X172.705 Y153.648 E3.79908
G1 X172.298 Y154.325 E3.81484
G1 X171.857 Y154.917 E3.82958
G1 X171.359 Y155.524 E3.84524
G1 X170.828 Y156.109 E3.86101
G1 X170.283 Y156.601 E3.87566
G1 X169.675 Y157.101 E3.89137
G1 X169.041 Y157.572 E3.90713
G1 X168.391 Y157.96 E3.92224
G1 X167.699 Y158.329 E3.93789
G1 X166.984 Y158.664 E3.95365
G1 X166.296 Y158.909 E3.96822
G1 X165.552 Y159.135 E3.98374
G1 X164.786 Y159.326 E3.99949
G1 X164.055 Y159.434 E4.01424
G1 X163.269 Y159.512 E4.03
G1 X162.499 Y159.55 E4.04539
G1 X162.447 Y159.55 E4.04642
G1 X161.331 Y159.47 E4.06875
G1 X160.307 Y159.322 E4.0894
G1 X159.532 Y159.169 E4.10516
G1 X158.777 Y158.939 E4.12092
G1 X158.379 Y158.783 E4.12945
G1 X157.433 Y158.382 E4.14995
G1 X156.722 Y158.038 E4.16571
G1 X156.05 Y157.623 E4.18147
G1 X155.95 Y157.55 E4.18395
G1 X78.219 Y157.55 E5.73515
G1 X77.675 Y157.853 E5.74758
G1 X76.805 Y158.218 E5.76641
G1 X75.961 Y158.513 E5.78425
G1 X75.203 Y158.736 E5.80002
G1 X74.259 Y158.901 E5.81914
G1 X73.37 Y159.001 E5.83699
G1 X72.376 Y159.049 E5.85685
G1 X72.312 Y159.048 E5.85813
G1 X71.564 Y159 E5.87309
G1 X70.798 Y158.914 E5.88847
G1 X70.018 Y158.787 E5.90424
G1 X69.311 Y158.598 E5.91884
G1 X68.576 Y158.365 E5.93423
G1 X67.836 Y158.089 E5.94999
G1 X67.198 Y157.778 E5.96416
G1 X66.516 Y157.406 E5.97966
G1 X65.843 Y156.993 E5.99542
G1 X65.255 Y156.548 E6.01013
G1 X64.658 Y156.05 E6.02565
G1 X64.078 Y155.514 E6.04141
G1 X63.592 Y154.969 E6.05598
G1 X63.098 Y154.359 E6.07165
G1 X62.633 Y153.721 E6.0874
G1 X62.268 Y153.103 E6.10172
G1 X61.906 Y152.42 E6.11715
G1 X61.572 Y151.704 E6.13292
G1 X61.328 Y151.011 E6.14758
G1 X61.106 Y150.272 E6.16298
G1 X60.917 Y149.505 E6.17874
G1 X60.813 Y148.788 E6.1932
G1 X60.737 Y148.012 E6.20876
G1 X60.7 Y147.223 E6.22452
G1 X60.748 Y146.387 E6.24123
G1 X60.847 Y145.5 E6.25904
G1 X60.974 Y144.72 E6.27481
G1 X61.233 Y143.8 E6.29389
G1 X61.528 Y142.953 E6.31179
G1 X61.825 Y142.221 E6.32755
G1 X62.2 Y141.532 E6.3432
G1 X62.2 Y92.972 E7.31227
G1 X61.901 Y92.437 E7.3245
G1 X61.528 Y91.547 E7.34376
G1 X61.233 Y90.7 E7.36166
G1 X61.011 Y89.943 E7.3774
G1 X60.848 Y89.004 E7.39642
G1 X60.749 Y88.121 E7.41415
G1 X60.7 Y87.333 E7.42991
G1 X60.738 Y86.484 E7.44687
G1 X60.816 Y85.696 E7.46267
G1 X60.933 Y84.915 E7.47843
G1 X61.115 Y84.197 E7.49321
G1 X61.341 Y83.453 E7.50873
G1 X61.608 Y82.71 E7.52448
G1 X61.924 Y82.046 E7.53916
G1 X62.293 Y81.355 E7.55479
G1 X62.699 Y80.678 E7.57055
G1 X63.147 Y80.077 E7.5855
G1 X63.645 Y79.471 E7.60116
G1 X64.176 Y78.887 E7.61691
G1 X64.717 Y78.399 E7.63145
G0 F6000 X64.971 Y78.707
G1 F1200 X65.579 Y78.207 E7.64716
G1 X66.197 Y77.75 E7.6625
G1 X66.793 Y77.395 E7.67634
G1 X67.484 Y77.026 E7.69197
G1 X68.181 Y76.7 E7.70733
G1 X68.822 Y76.473 E7.7209
G1 X69.567 Y76.247 E7.73644
G1 X70.313 Y76.062 E7.75177
G1 X70.983 Y75.964 E7.76529
G1 X71.768 Y75.886 E7.78103
G1 X72.537 Y75.85 E7.79639
G1 X73.329 Y75.897 E7.81222
G1 X74.216 Y75.997 E7.83004
G1 X74.975 Y76.122 E7.84539
G1 X75.821 Y76.362 E7.86294
G1 X76.665 Y76.656 E7.88077
G1 X77.377 Y76.946 E7.89612
G1 X78.117 Y77.35 E7.91294
G1 X156.881 Y77.35 E9.48476
G1 X157.508 Y77.001 E9.49908
G1 X158.336 Y76.655 E9.51699
G1 X159.181 Y76.361 E9.53484
G1 X159.92 Y76.146 E9.5502
G1 X160.784 Y75.997 E9.5677
G1 X161.671 Y75.897 E9.58551
G1 X162.439 Y75.85 E9.60087
G1 X163.232 Y75.886 E9.61671
G1 X164.017 Y75.964 E9.63245
G1 X164.777 Y76.08 E9.64779
G1 X165.433 Y76.247 E9.6613
G1 X166.178 Y76.473 E9.67684
G1 X166.902 Y76.734 E9.6922
G1 X167.516 Y77.026 E9.70577
G1 X168.207 Y77.395 E9.7214
G1 X168.866 Y77.793 E9.73676
G1 X169.419 Y78.206 E9.75054
G1 X170.025 Y78.704 E9.76619
G1 X170.593 Y79.222 E9.78153
G1 X171.043 Y79.721 E9.79494
G1 X171.543 Y80.329 E9.81065
G1 X172 Y80.947 E9.82599
G1 X172.355 Y81.543 E9.83983
G1 X172.724 Y82.234 E9.85546
G1 X173.05 Y82.931 E9.87082
G1 X173.277 Y83.569 E9.88433
G1 X173.503 Y84.313 E9.89985
G1 X173.688 Y85.06 E9.91521
G1 X173.786 Y85.731 E9.92874
G1 X173.864 Y86.515 E9.94446
G1 X173.9 Y87.284 E9.95983
G1 X173.864 Y87.978 E9.97369
G1 X173.786 Y88.765 E9.98948
G1 X173.67 Y89.525 E10.00482
G1 X173.503 Y90.186 E10.01842
G1 X173.277 Y90.93 E10.03394
G1 X173.015 Y91.653 E10.04929
G1 X172.727 Y92.258 E10.06266
G1 X172.36 Y92.947 E10.07824
G1 X171.964 Y93.606 E10.09358
G1 X171.548 Y94.164 E10.10747
G1 X171.048 Y94.773 E10.12319
G1 X170.53 Y95.341 E10.13854
G1 X170.009 Y95.81 E10.15252
G1 X170.47 Y96.266 E10.16546
G1 X170.958 Y96.861 E10.18082
G1 X171.381 Y97.503 E10.19616
G1 X171.736 Y98.186 E10.21153
G1 X172.017 Y98.901 E10.22686
G1 X172.223 Y99.643 E10.24222
G1 X172.351 Y100.401 E10.25756
G1 X172.4 Y101.25 E10.27454
G1 X172.4 Y106.75 E10.38429
G1 X172.36 Y107.518 E10.39964
G1 X172.241 Y108.278 E10.41499
G1 X172.043 Y109.021 E10.43034
G1 X171.769 Y109.74 E10.44569
G1 X171.422 Y110.426 E10.46103
G1 X171.006 Y111.073 E10.47638
G1 X170.525 Y111.673 E10.49173
G1 X169.984 Y112.22 E10.50708
G1 X169.389 Y112.708 E10.52244
G1 X168.747 Y113.131 E10.53778
G1 X168.4 Y113.311 E10.54558
G1 X168.4 Y121.188 E10.70278
G1 X168.676 Y121.328 E10.70895
G1 X169.323 Y121.744 E10.7243
G1 X169.923 Y122.225 E10.73965
G1 X170.47 Y122.766 E10.755
G1 X170.958 Y123.361 E10.77036
G1 X171.381 Y124.003 E10.7857
G1 X171.736 Y124.686 E10.80106
G1 X172.017 Y125.401 E10.81639
G1 X172.223 Y126.143 E10.83176
G1 X172.351 Y126.901 E10.8471
G1 X172.4 Y127.75 E10.86407
G1 X172.4 Y133.75 E10.98381
G1 X172.36 Y134.518 E10.99916
G1 X172.241 Y135.278 E11.01451
G1 X172.043 Y136.021 E11.02985
G1 X171.769 Y136.74 E11.04521
G1 X171.422 Y137.426 E11.06055
G1 X171.006 Y138.073 E11.0759
G1 X170.525 Y138.673 E11.09125
G1 X170.012 Y139.192 E11.10581
G1 X170.588 Y139.717 E11.12136
G1 X171.047 Y140.226 E11.13504
G1 X171.546 Y140.834 E11.15074
G1 X172.003 Y141.453 E11.16609
G1 X172.352 Y142.04 E11.17972
G1 X172.722 Y142.732 E11.19538
G1 X173.049 Y143.428 E11.21073
G1 X173.276 Y144.068 E11.22428
G1 X173.502 Y144.811 E11.23978
G1 X173.687 Y145.557 E11.25511
G1 X173.787 Y146.241 E11.26891
G1 X173.864 Y147.025 E11.28463
G1 X173.899 Y147.793 E11.29997
G1 X173.864 Y148.469 E11.31348
G1 X173.787 Y149.256 E11.32926
G1 X173.672 Y150.016 E11.3446
G1 X173.503 Y150.683 E11.35833
G1 X173.277 Y151.428 E11.37387
G1 X173.016 Y152.152 E11.38923
G1 X172.721 Y152.77 E11.40289
G1 X172.352 Y153.46 E11.41851
G1 X171.955 Y154.118 E11.43384
G1 X171.548 Y154.664 E11.44743
G1 X171.05 Y155.271 E11.4631
G1 X170.532 Y155.839 E11.47844
G1 X170.029 Y156.293 E11.49196
G1 X169.421 Y156.793 E11.50767
G1 X168.803 Y157.25 E11.52301
G1 X168.203 Y157.607 E11.53694
G1 X167.511 Y157.976 E11.55259
G1 X166.814 Y158.302 E11.56795
G1 X166.18 Y158.527 E11.58138
G1 X165.436 Y158.753 E11.59689
G1 X164.689 Y158.938 E11.61225
G1 X164.016 Y159.036 E11.62582
G1 X163.23 Y159.114 E11.64158
G1 X162.499 Y159.15 E11.65619
G1 X162.447 Y159.15 E11.65723
G1 X161.388 Y159.074 E11.67842
G1 X160.364 Y158.926 E11.69906
G1 X159.61 Y158.776 E11.71441
G1 X158.535 Y158.415 E11.73704
G1 X157.589 Y158.014 E11.75754
G1 X156.897 Y157.678 E11.77289
G1 X156.095 Y157.15 E11.79205
G1 X78.117 Y157.15 E13.34819
G1 X77.48 Y157.503 E13.36272
G1 X76.673 Y157.841 E13.38018
G1 X75.829 Y158.136 E13.39802
G1 X75.09 Y158.351 E13.41338
G1 X74.214 Y158.504 E13.43113
G1 X73.325 Y158.604 E13.44898
G1 X72.382 Y158.649 E13.46782
G1 X72.318 Y158.648 E13.4691
G1 X71.608 Y158.603 E13.4833
G1 X70.842 Y158.517 E13.49868
G1 X70.084 Y158.391 E13.51401
G1 X69.432 Y158.217 E13.52748
G1 X68.697 Y157.984 E13.54287
G1 X67.977 Y157.714 E13.55821
G1 X67.389 Y157.426 E13.57128
G1 X66.707 Y157.054 E13.58678
G1 X66.052 Y156.652 E13.60212
G1 X65.511 Y156.24 E13.61569
G1 X64.914 Y155.742 E13.6312
G1 X64.35 Y155.22 E13.64654
G1 X63.903 Y154.717 E13.65997
G1 X63.409 Y154.107 E13.67563
G1 X62.957 Y153.485 E13.69098
G1 X62.622 Y152.915 E13.70417
G1 X62.26 Y152.232 E13.7196
G1 X61.935 Y151.535 E13.73494
G1 X61.711 Y150.896 E13.74846
G1 X61.489 Y150.157 E13.76386
G1 X61.306 Y149.41 E13.7792
G1 X61.211 Y148.749 E13.79253
G1 X61.135 Y147.973 E13.80809
G1 X61.1 Y147.205 E13.82343
G1 X61.146 Y146.431 E13.83891
G1 X61.245 Y145.544 E13.85672
G1 X61.37 Y144.785 E13.87207
G1 X61.611 Y143.931 E13.88978
G1 X61.906 Y143.084 E13.90767
G1 X62.196 Y142.372 E13.92302
G1 X62.6 Y141.632 E13.93984
G1 X62.6 Y92.869 E14.91296
G1 X62.251 Y92.242 E14.92728
G1 X61.906 Y91.416 E14.94514
G1 X61.611 Y90.569 E14.96304
G1 X61.396 Y89.83 E14.9784
G1 X61.245 Y88.96 E14.99602
G1 X61.146 Y88.077 E15.01375
G1 X61.1 Y87.309 E15.02911
G1 X61.136 Y86.523 E15.04481
G1 X61.214 Y85.735 E15.06061
G1 X61.329 Y84.975 E15.07595
G1 X61.497 Y84.313 E15.08958
G1 X61.723 Y83.569 E15.1051
G1 X61.985 Y82.846 E15.12044
G1 X62.276 Y82.234 E15.13397
G1 X62.645 Y81.543 E15.1496
G1 X63.043 Y80.884 E15.16496
G1 X63.456 Y80.331 E15.17874
G1 X63.954 Y79.725 E15.19439
G1 X64.472 Y79.157 E15.20973
G1 X64.971 Y78.707 E15.22314
G0 F6000 X65.225 Y79.016
G1 F1200 X65.833 Y78.516 E15.23885
G1 X66.435 Y78.073 E15.25377
G1 X66.982 Y77.748 E15.26646
G1 X67.673 Y77.379 E15.2821
G1 X68.35 Y77.063 E15.29701
G1 X68.938 Y76.855 E15.30945
G1 X69.683 Y76.629 E15.32499
G1 X70.409 Y76.451 E15.33991
G1 X71.023 Y76.362 E15.35229
G1 X71.808 Y76.284 E15.36803
G1 X72.555 Y76.25 E15.38295
G1 X73.284 Y76.294 E15.39753
G1 X74.171 Y76.394 E15.41534
G1 X74.909 Y76.517 E15.43027
G1 X75.69 Y76.74 E15.44648
G1 X76.534 Y77.034 E15.46431
G1 X77.226 Y77.317 E15.47923
G1 X77.947 Y77.712 E15.49564
G1 X78.008 Y77.75 E15.49707
G1 X156.992 Y77.75 E17.07329
G1 X157.049 Y77.714 E17.07463
G1 X157.703 Y77.351 E17.08956
G1 X158.468 Y77.033 E17.10609
G1 X159.313 Y76.739 E17.12395
G1 X160.031 Y76.531 E17.13886
G1 X160.829 Y76.394 E17.15502
G1 X161.716 Y76.294 E17.17283
G1 X162.463 Y76.25 E17.18777
G1 X163.192 Y76.284 E17.20233
G1 X163.977 Y76.362 E17.21807
G1 X164.717 Y76.476 E17.23302
G1 X165.317 Y76.629 E17.24537
G1 X166.062 Y76.855 E17.26091
G1 X166.765 Y77.111 E17.27584
G1 X167.327 Y77.379 E17.28826
G1 X168.018 Y77.748 E17.3039
G1 X168.658 Y78.135 E17.31882
G1 X169.165 Y78.515 E17.33147
G1 X169.771 Y79.013 E17.34712
G1 X170.323 Y79.518 E17.36205
G1 X170.734 Y79.975 E17.37431
G1 X171.234 Y80.583 E17.39002
G1 X171.677 Y81.185 E17.40494
G1 X172.002 Y81.732 E17.41764
G1 X172.371 Y82.423 E17.43327
G1 X172.687 Y83.1 E17.44818
G1 X172.894 Y83.685 E17.46056
G1 X173.12 Y84.429 E17.47608
G1 X173.299 Y85.156 E17.49102
G1 X173.388 Y85.771 E17.50342
G1 X173.466 Y86.555 E17.51915
G1 X173.5 Y87.302 E17.53407
G1 X173.466 Y87.938 E17.54678
G1 X173.388 Y88.725 E17.56256
G1 X173.274 Y89.465 E17.5775
G1 X173.12 Y90.07 E17.58996
G1 X172.894 Y90.814 E17.60548
G1 X172.638 Y91.517 E17.62041
G1 X172.374 Y92.07 E17.63264
G1 X172.007 Y92.759 E17.64822
G1 X171.621 Y93.399 E17.66313
G1 X171.239 Y93.91 E17.67586
G1 X170.739 Y94.519 E17.69159
G1 X170.234 Y95.071 E17.70652
G1 X169.77 Y95.488 E17.71897
G1 X169.384 Y95.805 E17.72893
G1 X169.763 Y96.121 E17.73878
G1 X170.284 Y96.658 E17.75371
G1 X170.743 Y97.248 E17.76863
G1 X171.138 Y97.884 E17.78357
G1 X171.462 Y98.558 E17.7985
G1 X171.712 Y99.263 E17.81342
G1 X171.886 Y99.991 E17.82836
G1 X171.981 Y100.733 E17.84329
G1 X172 Y101.25 E17.85361
G1 X172 Y106.75 E17.96337
G1 X171.96 Y107.497 E17.9783
G1 X171.841 Y108.235 E17.99322
G1 X171.643 Y108.957 E18.00816
G1 X171.37 Y109.653 E18.02308
G1 X171.023 Y110.316 E18.03801
G1 X170.608 Y110.939 E18.05295
G1 X170.129 Y111.513 E18.06787
G1 X169.592 Y112.034 E18.0828
G1 X169.002 Y112.493 E18.09772
G1 X168.366 Y112.888 E18.11266
G1 X168 Y113.064 E18.12076
G1 X168 Y121.431 E18.28773
G1 X168.566 Y121.727 E18.30048
G1 X169.189 Y122.142 E18.31542
G1 X169.763 Y122.621 E18.33034
G1 X170.284 Y123.158 E18.34527
