;FLAVOR:Marlin
;TIME:2080
;Filament used: 0.795606m
;Layer height: 0.1
;Generated with Cura_SteamEngine 2.7.0
M104 S210
M109 S210
G21 ;metric values
G90 ;absolute positioning
M82 ;set extruder to absolute mode
M107 ;start with the fan off
G28 X0 Y0 ;move X/Y to min endstops
G28 Z0 ;move Z to min endstops
G1 Z15.0 F9000 ;move the platform down 15mm
G92 E0 ;zero the extruded length
G1 F200 E3 ;extrude 3mm of feed stock
G92 E0 ;zero the extruded length again
G1 F9000
;Put printing message on LCD screen
M117 Printing...
;LAYER_COUNT:208
;LAYER:0
M107
G0 F2400 X106.966 Y93.533 Z0.3
G0 X106.765 Y93.8
;TYPE:SKIRT
G1 F1800 X106.966 Y93.533 E0.01667
G1 X107.223 Y93.321 E0.03329
G1 X107.524 Y93.176 E0.04996
G1 X107.978 Y93.1 E0.07293
G1 X112.022 Y93.1 E0.27468
G1 X112.354 Y93.14 E0.29137
G1 X112.666 Y93.257 E0.30799
G1 X112.943 Y93.445 E0.32469
G1 X113.235 Y93.8 E0.34763
G1 X115.254 Y97.3 E0.54921
G1 X115.385 Y97.608 E0.56591
G1 X115.44 Y97.937 E0.58255
G1 X115.415 Y98.27 E0.59921
G1 X115.254 Y98.7 E0.62212
G1 X113.235 Y102.2 E0.82371
G1 X113.034 Y102.467 E0.84038
G1 X112.777 Y102.679 E0.857
G1 X112.476 Y102.824 E0.87367
G1 X112.022 Y102.9 E0.89663
G1 X107.978 Y102.9 E1.09839
G1 X107.646 Y102.86 E1.11507
G1 X107.334 Y102.743 E1.1317
G1 X107.057 Y102.555 E1.1484
G1 X106.765 Y102.2 E1.17133
G1 X104.746 Y98.7 E1.37292
G1 X104.615 Y98.392 E1.38962
G1 X104.56 Y98.063 E1.40626
G1 X104.585 Y97.73 E1.42292
G1 X104.746 Y97.3 E1.44583
G1 X106.765 Y93.8 E1.64741
G0 F2400 X107.112 Y94
G1 F1800 X107.286 Y93.778 E1.66148
G1 X107.515 Y93.614 E1.67554
G1 X107.781 Y93.52 E1.68961
G1 X107.978 Y93.5 E1.69949
G1 X112.022 Y93.5 E1.90125
G1 X112.301 Y93.54 E1.91531
G1 X112.558 Y93.656 E1.92937
G1 X112.773 Y93.839 E1.94346
G1 X112.888 Y94 E1.95333
G1 X114.907 Y97.5 E2.15492
G1 X115.012 Y97.762 E2.169
G1 X115.04 Y98.043 E2.18309
G1 X114.988 Y98.32 E2.19715
G1 X114.907 Y98.5 E2.207
G1 X112.888 Y102 E2.40858
G1 X112.714 Y102.222 E2.42265
G1 X112.485 Y102.386 E2.43671
G1 X112.219 Y102.48 E2.45078
G1 X112.022 Y102.5 E2.46066
G1 X107.978 Y102.5 E2.66242
G1 X107.699 Y102.46 E2.67648
G1 X107.442 Y102.344 E2.69055
G1 X107.227 Y102.161 E2.70463
G1 X107.112 Y102 E2.7145
G1 X105.093 Y98.5 E2.91609
G1 X104.988 Y98.238 E2.93017
G1 X104.96 Y97.957 E2.94426
G1 X105.012 Y97.68 E2.95832
G1 X105.093 Y97.5 E2.96817
G1 X107.112 Y94 E3.16975
G0 F2400 X107.458 Y94.2
G1 F1800 X107.6 Y94.034 E3.18065
G1 X107.791 Y93.93 E3.1915
G1 X107.978 Y93.9 E3.20095
G1 X112.022 Y93.9 E3.40271
G1 X112.237 Y93.94 E3.41362
G1 X112.423 Y94.053 E3.42447
G1 X112.542 Y94.2 E3.43391
G1 X114.561 Y97.7 E3.6355
G1 X114.634 Y97.906 E3.6464
G1 X114.628 Y98.124 E3.65728
G1 X114.561 Y98.3 E3.66668
G1 X112.542 Y101.8 E3.86826
G1 X112.4 Y101.966 E3.87916
G1 X112.209 Y102.07 E3.89001
G1 X112.022 Y102.1 E3.89946
G1 X107.978 Y102.1 E4.10121
G1 X107.763 Y102.06 E4.11212
G1 X107.577 Y101.947 E4.12298
G1 X107.458 Y101.8 E4.13242
G1 X105.439 Y98.3 E4.334
G1 X105.366 Y98.094 E4.34491
G1 X105.372 Y97.876 E4.35579
G1 X105.439 Y97.7 E4.36518
G1 X107.458 Y94.2 E4.56677
G0 F2400 X107.978 Y94.3
G1 F1800 X112.022 Y94.3 E4.76853
G1 X112.141 Y94.339 E4.77477
G1 X112.195 Y94.4 E4.77884
G1 X114.214 Y97.9 E4.98042
G1 X114.24 Y98.022 E4.98665
G1 X114.214 Y98.1 E4.99075
G1 X112.195 Y101.6 E5.19233
G1 X112.102 Y101.683 E5.19855
G1 X112.022 Y101.7 E5.20263
G1 X107.978 Y101.7 E5.40439
G1 X107.859 Y101.661 E5.41064
G1 X107.805 Y101.6 E5.4147
G1 X105.786 Y98.1 E5.61629
G1 X105.76 Y97.978 E5.62251
G1 X105.786 Y97.9 E5.62661
G1 X107.805 Y94.4 E5.8282
G1 X107.898 Y94.317 E5.83442
G1 X107.978 Y94.3 E5.8385
G1 F1500 E-0.6615
G0 F2400 X107.978 Y93.835
G0 X107.598 Y93.841
G0 X105.197 Y98
G0 X107.978 Y105.1
G1 F1500 E5.8385
G1 F1800 X112.022 Y105.1 E6.04025
G1 X112.354 Y105.14 E6.05694
G1 X112.666 Y105.257 E6.07356
G1 X112.943 Y105.445 E6.09026
G1 X113.235 Y105.8 E6.1132
G1 X115.254 Y109.3 E6.31478
G1 X115.385 Y109.608 E6.33148
G1 X115.44 Y109.937 E6.34812
G1 X115.415 Y110.27 E6.36478
G1 X115.254 Y110.7 E6.38769
G1 X113.235 Y114.2 E6.58927
G1 X113.034 Y114.467 E6.60595
G1 X112.777 Y114.679 E6.62257
G1 X112.476 Y114.824 E6.63924
G1 X112.022 Y114.9 E6.6622
G1 X107.978 Y114.9 E6.86396
G1 X107.646 Y114.86 E6.88064
G1 X107.334 Y114.743 E6.89727
G1 X107.057 Y114.555 E6.91397
G1 X106.765 Y114.2 E6.9369
G1 X104.746 Y110.7 E7.13849
G1 X104.615 Y110.392 E7.15519
G1 X104.56 Y110.063 E7.17183
G1 X104.585 Y109.73 E7.18849
G1 X104.746 Y109.3 E7.21139
G1 X106.765 Y105.8 E7.41298
G1 X106.966 Y105.533 E7.42965
G1 X107.223 Y105.321 E7.44627
G1 X107.524 Y105.176 E7.46294
G1 X107.978 Y105.1 E7.48591
G0 F2400 X107.978 Y105.5
G1 F1800 X112.022 Y105.5 E7.68766
G1 X112.301 Y105.54 E7.70173
G1 X112.558 Y105.656 E7.71579
G1 X112.773 Y105.839 E7.72988
G1 X112.888 Y106 E7.73975
G1 X114.907 Y109.5 E7.94134
G1 X115.012 Y109.762 E7.95542
G1 X115.04 Y110.043 E7.96951
G1 X114.988 Y110.32 E7.98357
G1 X114.907 Y110.5 E7.99342
G1 X112.888 Y114 E8.195
G1 X112.714 Y114.222 E8.20907
G1 X112.485 Y114.386 E8.22313
G1 X112.219 Y114.48 E8.2372
G1 X112.022 Y114.5 E8.24708
G1 X107.978 Y114.5 E8.44884
G1 X107.699 Y114.46 E8.4629
G1 X107.442 Y114.344 E8.47696
G1 X107.227 Y114.161 E8.49105
G1 X107.112 Y114 E8.50092
G1 X105.093 Y110.5 E8.70251
G1 X104.988 Y110.238 E8.71659
G1 X104.96 Y109.957 E8.73068
G1 X105.012 Y109.68 E8.74474
G1 X105.093 Y109.5 E8.75459
G1 X107.112 Y106 E8.95617
G1 X107.286 Y105.778 E8.97024
G1 X107.515 Y105.614 E8.9843
G1 X107.781 Y105.52 E8.99837
G1 X107.978 Y105.5 E9.00825
G0 F2400 X107.978 Y105.9
G1 F1800 X112.022 Y105.9 E9.21001
G1 X112.237 Y105.94 E9.22092
G1 X112.423 Y106.053 E9.23178
G1 X112.542 Y106.2 E9.24121
G1 X114.561 Y109.7 E9.4428
G1 X114.634 Y109.906 E9.4537
G1 X114.628 Y110.124 E9.46458
G1 X114.561 Y110.3 E9.47398
G1 X112.542 Y113.8 E9.67556
G1 X112.4 Y113.966 E9.68646
G1 X112.209 Y114.07 E9.69731
G1 X112.022 Y114.1 E9.70676
G1 X107.978 Y114.1 E9.90851
G1 X107.763 Y114.06 E9.91943
G1 X107.577 Y113.947 E9.93028
G1 X107.458 Y113.8 E9.93972
G1 X105.439 Y110.3 E10.1413
G1 X105.366 Y110.094 E10.15221
G1 X105.372 Y109.876 E10.16309
G1 X105.439 Y109.7 E10.17248
G1 X107.458 Y106.2 E10.37407
G1 X107.6 Y106.034 E10.38497
G1 X107.791 Y105.93 E10.39582
G1 X107.978 Y105.9 E10.40527
G0 F2400 X107.978 Y106.3
G1 F1800 X112.022 Y106.3 E10.60702
G1 X112.141 Y106.339 E10.61327
G1 X112.195 Y106.4 E10.61734
G1 X114.214 Y109.9 E10.81892
G1 X114.24 Y110.022 E10.82514
G1 X114.214 Y110.1 E10.82925
G1 X112.195 Y113.6 E11.03083
G1 X112.102 Y113.683 E11.03705
G1 X112.022 Y113.7 E11.04113
G1 X107.978 Y113.7 E11.24289
G1 X107.859 Y113.661 E11.24913
G1 X107.805 Y113.6 E11.2532
G1 X105.786 Y110.1 E11.45479
G1 X105.76 Y109.978 E11.46101
G1 X105.786 Y109.9 E11.46511
G1 X107.805 Y106.4 E11.6667
G1 X107.898 Y106.317 E11.67291
G1 X107.978 Y106.3 E11.677
G1 F1500 E5.177
G0 F2400 X107.49 Y106.017
G0 X101.254 Y109.3
G1 F1500 E11.677
G1 F1800 X101.385 Y109.608 E11.69369
G1 X101.44 Y109.937 E11.71034
G1 X101.415 Y110.27 E11.727
G1 X101.254 Y110.7 E11.7499
G1 X99.235 Y114.2 E11.95149
G1 X99.034 Y114.467 E11.96816
G1 X98.777 Y114.679 E11.98478
G1 X98.476 Y114.824 E12.00145
G1 X98.022 Y114.9 E12.02442
G1 X93.978 Y114.9 E12.22617
G1 X93.646 Y114.86 E12.24286
G1 X93.334 Y114.743 E12.25948
G1 X93.057 Y114.555 E12.27618
G1 X92.765 Y114.2 E12.29911
G1 X90.746 Y110.7 E12.5007
G1 X90.615 Y110.392 E12.5174
G1 X90.56 Y110.063 E12.53404
G1 X90.585 Y109.73 E12.5507
G1 X90.746 Y109.3 E12.57361
G1 X92.765 Y105.8 E12.77519
G1 X92.966 Y105.533 E12.79187
G1 X93.223 Y105.321 E12.80849
G1 X93.524 Y105.176 E12.82516
G1 X93.978 Y105.1 E12.84812
G1 X98.022 Y105.1 E13.04988
G1 X98.354 Y105.14 E13.06656
G1 X98.666 Y105.257 E13.08319
G1 X98.943 Y105.445 E13.09989
G1 X99.235 Y105.8 E13.12282
G1 X101.254 Y109.3 E13.32441
G0 F2400 X100.907 Y109.5
G1 F1800 X101.012 Y109.762 E13.33849
G1 X101.04 Y110.043 E13.35258
G1 X100.988 Y110.32 E13.36664
G1 X100.907 Y110.5 E13.37649
G1 X98.888 Y114 E13.57807
G1 X98.714 Y114.222 E13.59214
G1 X98.485 Y114.386 E13.6062
G1 X98.219 Y114.48 E13.62027
G1 X98.022 Y114.5 E13.63015
G1 X93.978 Y114.5 E13.83191
G1 X93.699 Y114.46 E13.84597
G1 X93.442 Y114.344 E13.86003
G1 X93.227 Y114.161 E13.87412
G1 X93.112 Y114 E13.88399
G1 X91.093 Y110.5 E14.08558
G1 X90.988 Y110.238 E14.09966
G1 X90.96 Y109.957 E14.11375
G1 X91.012 Y109.68 E14.12781
G1 X91.093 Y109.5 E14.13766
G1 X93.112 Y106 E14.33924
G1 X93.286 Y105.778 E14.35331
G1 X93.515 Y105.614 E14.36737
G1 X93.781 Y105.52 E14.38144
G1 X93.978 Y105.5 E14.39132
G1 X98.022 Y105.5 E14.59308
G1 X98.301 Y105.54 E14.60714
G1 X98.558 Y105.656 E14.62121
G1 X98.773 Y105.839 E14.63529
G1 X98.888 Y106 E14.64516
G1 X100.907 Y109.5 E14.84675
G0 F2400 X100.561 Y109.7
G1 F1800 X100.634 Y109.906 E14.85765
G1 X100.628 Y110.124 E14.86853
G1 X100.561 Y110.3 E14.87793
G1 X98.542 Y113.8 E15.07951
G1 X98.4 Y113.966 E15.09041
G1 X98.209 Y114.07 E15.10126
G1 X98.022 Y114.1 E15.11071
G1 X93.978 Y114.1 E15.31247
G1 X93.763 Y114.06 E15.32338
G1 X93.577 Y113.947 E15.33424
G1 X93.458 Y113.8 E15.34367
G1 X91.439 Y110.3 E15.54526
G1 X91.366 Y110.094 E15.55616
G1 X91.372 Y109.876 E15.56704
G1 X91.439 Y109.7 E15.57644
G1 X93.458 Y106.2 E15.77802
G1 X93.6 Y106.034 E15.78892
G1 X93.791 Y105.93 E15.79977
G1 X93.978 Y105.9 E15.80922
G1 X98.022 Y105.9 E16.01097
G1 X98.237 Y105.94 E16.02189
G1 X98.423 Y106.053 E16.03274
G1 X98.542 Y106.2 E16.04218
G1 X100.561 Y109.7 E16.24376
G0 F2400 X100.214 Y110.1
G1 F1800 X98.195 Y113.6 E16.44535
G1 X98.102 Y113.683 E16.45157
G1 X98.022 Y113.7 E16.45565
G1 X93.978 Y113.7 E16.65741
G1 X93.859 Y113.661 E16.66365
G1 X93.805 Y113.6 E16.66772
G1 X91.786 Y110.1 E16.8693
G1 X91.76 Y109.978 E16.87553
G1 X91.786 Y109.9 E16.87963
G1 X93.805 Y106.4 E17.08121
G1 X93.898 Y106.317 E17.08743
G1 X93.978 Y106.3 E17.09151
G1 X98.022 Y106.3 E17.29327
G1 X98.141 Y106.339 E17.29952
G1 X98.195 Y106.4 E17.30358
G1 X100.214 Y109.9 E17.50517
G1 X100.24 Y110.022 E17.51139
G1 X100.214 Y110.1 E17.51549
G1 F1500 E11.01549
G0 F2400 X100.617 Y110.332
G0 X98.022 Y117.1
G1 F1500 E17.51549
G1 F1800 X98.354 Y117.14 E17.53218
G1 X98.666 Y117.257 E17.5488
G1 X98.943 Y117.445 E17.5655
G1 X99.235 Y117.8 E17.58844
G1 X101.254 Y121.3 E17.79002
G1 X101.385 Y121.608 E17.80672
G1 X101.44 Y121.937 E17.82336
G1 X101.415 Y122.27 E17.84002
G1 X101.254 Y122.7 E17.86293
G1 X99.235 Y126.2 E18.06451
G1 X99.034 Y126.467 E18.08119
G1 X98.777 Y126.679 E18.09781
G1 X98.476 Y126.824 E18.11448
G1 X98.022 Y126.9 E18.13744
G1 X93.978 Y126.9 E18.3392
G1 X93.646 Y126.86 E18.35588
G1 X93.334 Y126.743 E18.37251
G1 X93.057 Y126.555 E18.38921
G1 X92.765 Y126.2 E18.41214
G1 X90.746 Y122.7 E18.61373
G1 X90.615 Y122.392 E18.63042
G1 X90.56 Y122.063 E18.64707
G1 X90.585 Y121.73 E18.66373
G1 X90.746 Y121.3 E18.68663
G1 X92.765 Y117.8 E18.88822
G1 X92.966 Y117.533 E18.90489
G1 X93.223 Y117.321 E18.92151
G1 X93.524 Y117.176 E18.93818
G1 X93.978 Y117.1 E18.96115
G1 X98.022 Y117.1 E19.1629
G0 F2400 X98.022 Y117.5
G1 F1800 X98.301 Y117.54 E19.17697
G1 X98.558 Y117.656 E19.19103
G1 X98.773 Y117.839 E19.20512
G1 X98.888 Y118 E19.21499
G1 X100.907 Y121.5 E19.41658
G1 X101.012 Y121.762 E19.43066
G1 X101.04 Y122.043 E19.44475
G1 X100.988 Y122.32 E19.45881
G1 X100.907 Y122.5 E19.46865
G1 X98.888 Y126 E19.67024
G1 X98.714 Y126.222 E19.68431
G1 X98.485 Y126.386 E19.69837
G1 X98.219 Y126.48 E19.71244
G1 X98.022 Y126.5 E19.72232
G1 X93.978 Y126.5 E19.92408
G1 X93.699 Y126.46 E19.93814
G1 X93.442 Y126.344 E19.9522
G1 X93.227 Y126.161 E19.96629
G1 X93.112 Y126 E19.97616
G1 X91.093 Y122.5 E20.17775
G1 X90.988 Y122.238 E20.19183
G1 X90.96 Y121.957 E20.20592
G1 X91.012 Y121.68 E20.21998
G1 X91.093 Y121.5 E20.22983
G1 X93.112 Y118 E20.43141
G1 X93.286 Y117.778 E20.44548
G1 X93.515 Y117.614 E20.45954
G1 X93.781 Y117.52 E20.47361
G1 X93.978 Y117.5 E20.48349
G1 X98.022 Y117.5 E20.68525
G0 F2400 X98.022 Y117.9
G1 F1800 X98.237 Y117.94 E20.69616
G1 X98.423 Y118.053 E20.70701
G1 X98.542 Y118.2 E20.71645
G1 X100.561 Y121.7 E20.91804
G1 X100.634 Y121.906 E20.92894
G1 X100.628 Y122.124 E20.93982
G1 X100.561 Y122.3 E20.94922
G1 X98.542 Y125.8 E21.1508
G1 X98.4 Y125.966 E21.1617
G1 X98.209 Y126.07 E21.17255
G1 X98.022 Y126.1 E21.182
G1 X93.978 Y126.1 E21.38375
G1 X93.763 Y126.06 E21.39466
G1 X93.577 Y125.947 E21.40552
G1 X93.458 Y125.8 E21.41496
G1 X91.439 Y122.3 E21.61654
G1 X91.366 Y122.094 E21.62745
G1 X91.372 Y121.876 E21.63833
G1 X91.439 Y121.7 E21.64772
G1 X93.458 Y118.2 E21.84931
G1 X93.6 Y118.034 E21.86021
G1 X93.791 Y117.93 E21.87106
G1 X93.978 Y117.9 E21.88051
G1 X98.022 Y117.9 E22.08226
G0 F2400 X98.195 Y118.4
G1 F1800 X100.214 Y121.9 E22.28385
G1 X100.24 Y122.022 E22.29007
G1 X100.214 Y122.1 E22.29417
G1 X98.195 Y125.6 E22.49576
G1 X98.102 Y125.683 E22.50198
G1 X98.022 Y125.7 E22.50606
G1 X93.978 Y125.7 E22.70781
G1 X93.859 Y125.661 E22.71406
G1 X93.805 Y125.6 E22.71813
G1 X91.786 Y122.1 E22.91971
G1 X91.76 Y121.978 E22.92594
G1 X91.786 Y121.9 E22.93004
G1 X93.805 Y118.4 E23.13162
G1 X93.898 Y118.317 E23.13784
G1 X93.978 Y118.3 E23.14192
G1 X98.022 Y118.3 E23.34368
G1 X98.141 Y118.339 E23.34993
G1 X98.195 Y118.4 E23.35399
G1 F1500 E16.85399
G0 F2400 X98.596 Y118.167
G0 X105.383 Y121.668
G0 X105.786 Y121.9
G1 F1500 E23.35399
G1 F1800 X107.805 Y118.4 E23.55558
G1 X107.898 Y118.317 E23.5618
G1 X107.978 Y118.3 E23.56588
G1 X112.022 Y118.3 E23.76763
G1 X112.141 Y118.339 E23.77388
G1 X112.195 Y118.4 E23.77794
G1 X114.214 Y121.9 E23.97953
G1 X114.24 Y122.022 E23.98575
G1 X114.214 Y122.1 E23.98985
G1 X112.195 Y125.6 E24.19144
G1 X112.102 Y125.683 E24.19766
G1 X112.022 Y125.7 E24.20174
G1 X107.978 Y125.7 E24.4035
G1 X107.859 Y125.661 E24.40974
G1 X107.805 Y125.6 E24.41381
G1 X105.786 Y122.1 E24.61539
G1 X105.76 Y121.978 E24.62162
G1 X105.786 Y121.9 E24.62572
G0 F2400 X105.439 Y121.7
G1 F1800 X107.458 Y118.2 E24.8273
G1 X107.6 Y118.034 E24.8382
G1 X107.791 Y117.93 E24.84905
G1 X107.978 Y117.9 E24.8585
G1 X112.022 Y117.9 E25.06026
G1 X112.237 Y117.94 E25.07117
G1 X112.423 Y118.053 E25.08203
G1 X112.542 Y118.2 E25.09146
G1 X114.561 Y121.7 E25.29305
G1 X114.634 Y121.906 E25.30395
G1 X114.628 Y122.124 E25.31483
G1 X114.561 Y122.3 E25.32423
G1 X112.542 Y125.8 E25.52581
G1 X112.4 Y125.966 E25.53671
G1 X112.209 Y126.07 E25.54756
G1 X112.022 Y126.1 E25.55701
G1 X107.978 Y126.1 E25.75877
G1 X107.763 Y126.06 E25.76968
G1 X107.577 Y125.947 E25.78053
G1 X107.458 Y125.8 E25.78997
G1 X105.439 Y122.3 E25.99156
G1 X105.366 Y122.094 E26.00246
G1 X105.372 Y121.876 E26.01334
G1 X105.439 Y121.7 E26.02274
G0 F2400 X105.093 Y121.5
G1 F1800 X107.112 Y118 E26.22432
G1 X107.286 Y117.778 E26.23839
G1 X107.515 Y117.614 E26.25245
G1 X107.781 Y117.52 E26.26652
G1 X107.978 Y117.5 E26.2764
G1 X112.022 Y117.5 E26.47816
G1 X112.301 Y117.54 E26.49222
G1 X112.558 Y117.656 E26.50628
G1 X112.773 Y117.839 E26.52037
G1 X112.888 Y118 E26.53024
G1 X114.907 Y121.5 E26.73183
G1 X115.012 Y121.762 E26.74591
G1 X115.04 Y122.043 E26.76
G1 X114.988 Y122.32 E26.77406
G1 X114.907 Y122.5 E26.78391
G1 X112.888 Y126 E26.98549
G1 X112.714 Y126.222 E26.99956
G1 X112.485 Y126.386 E27.01362
G1 X112.219 Y126.48 E27.02769
G1 X112.022 Y126.5 E27.03757
G1 X107.978 Y126.5 E27.23933
G1 X107.699 Y126.46 E27.25339
G1 X107.442 Y126.344 E27.26746
G1 X107.227 Y126.161 E27.28154
G1 X107.112 Y126 E27.29141
G1 X105.093 Y122.5 E27.493
G1 X104.988 Y122.238 E27.50708
G1 X104.96 Y121.957 E27.52117
G1 X105.012 Y121.68 E27.53523
G1 X105.093 Y121.5 E27.54508
G0 F2400 X104.746 Y121.3
G1 F1800 X106.765 Y117.8 E27.74666
G1 X106.966 Y117.533 E27.76334
G1 X107.223 Y117.321 E27.77996
G1 X107.524 Y117.176 E27.79663
G1 X107.978 Y117.1 E27.81959
G1 X112.022 Y117.1 E28.02135
G1 X112.354 Y117.14 E28.03803
G1 X112.666 Y117.257 E28.05466
G1 X112.943 Y117.445 E28.07136
G1 X113.235 Y117.8 E28.09429
G1 X115.254 Y121.3 E28.29588
G1 X115.385 Y121.608 E28.31257
G1 X115.44 Y121.937 E28.32922
G1 X115.415 Y122.27 E28.34588
G1 X115.254 Y122.7 E28.36878
G1 X113.235 Y126.2 E28.57037
G1 X113.034 Y126.467 E28.58704
G1 X112.777 Y126.679 E28.60366
G1 X112.476 Y126.824 E28.62033
G1 X112.022 Y126.9 E28.6433
G1 X107.978 Y126.9 E28.84505
G1 X107.646 Y126.86 E28.86174
G1 X107.334 Y126.743 E28.87836
G1 X107.057 Y126.555 E28.89506
