;FLAVOR:Marlin
;TIME:656
;Filament used: 0.168501m
;Layer height: 0.1
;Generated with Cura_SteamEngine 2.7.0
M104 S210
M109 S210
G21 ;metric values
G90 ;absolute positioning
M82 ;set extruder to absolute mode
M107 ;start with the fan off
G28 X0 Y0 ;move X/Y to min endstops
G28 Z0 ;move Z to min endstops
G1 Z15.0 F9000 ;move the platform down 15mm
G92 E0 ;zero the extruded length
G1 F200 E3 ;extrude 3mm of feed stock
G92 E0 ;zero the extruded length again
G1 F9000
;Put printing message on LCD screen
M117 Printing...
;LAYER_COUNT:278
;LAYER:0
M107
G0 F2400 X102.476 Y101.569 Z0.3
;TYPE:SKIRT
G1 F1800 X103.019 Y101.024 E0.03838
G1 X103.615 Y100.538 E0.07675
G1 X104.259 Y100.117 E0.11513
G1 X104.942 Y99.765 E0.15347
G1 X105.659 Y99.486 E0.19185
G1 X106.401 Y99.282 E0.23025
G1 X107.16 Y99.157 E0.26862
G1 X107.982 Y99.111 E0.3097
G1 X112.013 Y99.11 E0.5108
G1 X112.781 Y99.15 E0.54917
G1 X113.541 Y99.269 E0.58755
G1 X114.284 Y99.467 E0.62591
G1 X115.003 Y99.74 E0.66428
G1 X115.69 Y100.087 E0.70268
G1 X116.337 Y100.503 E0.74106
G1 X116.937 Y100.984 E0.77942
G1 X117.484 Y101.525 E0.8178
G1 X117.972 Y102.12 E0.8562
G1 X118.424 Y102.811 E0.89739
G1 X120.438 Y106.3 E1.09838
G1 X120.787 Y106.985 E1.13673
G1 X121.064 Y107.703 E1.17512
G1 X121.264 Y108.445 E1.21346
G1 X121.386 Y109.205 E1.25187
G1 X121.429 Y109.972 E1.29019
G1 X121.392 Y110.741 E1.3286
G1 X121.275 Y111.501 E1.36697
G1 X121.08 Y112.245 E1.40534
G1 X120.809 Y112.965 E1.44372
G1 X120.439 Y113.696 E1.48459
G1 X118.426 Y117.186 E1.6856
G1 X118.008 Y117.832 E1.72399
G1 X117.525 Y118.43 E1.76234
G1 X116.982 Y118.975 E1.80072
G1 X116.386 Y119.461 E1.83909
G1 X115.742 Y119.882 E1.87747
G1 X115.058 Y120.235 E1.91587
G1 X114.342 Y120.514 E1.95421
G1 X113.6 Y120.717 E1.99259
G1 X112.841 Y120.843 E2.03097
G1 X112.018 Y120.889 E2.0721
G1 X107.987 Y120.89 E2.2732
G1 X107.219 Y120.85 E2.31157
G1 X106.459 Y120.731 E2.34995
G1 X105.716 Y120.533 E2.38831
G1 X104.997 Y120.26 E2.42668
G1 X104.31 Y119.913 E2.46508
G1 X103.663 Y119.497 E2.50346
G1 X103.063 Y119.016 E2.54182
G1 X102.516 Y118.475 E2.58021
G1 X102.028 Y117.88 E2.6186
G1 X101.576 Y117.189 E2.65979
G1 X99.562 Y113.699 E2.86082
G1 X99.212 Y113.013 E2.89924
G1 X98.936 Y112.296 E2.93757
G1 X98.736 Y111.553 E2.97596
G1 X98.614 Y110.794 E3.01431
G1 X98.571 Y110.026 E3.05269
G1 X98.608 Y109.257 E3.0911
G1 X98.725 Y108.497 E3.12946
G1 X98.92 Y107.753 E3.16783
G1 X99.192 Y107.033 E3.20623
G1 X99.561 Y106.302 E3.24709
G1 X101.574 Y102.813 E3.44805
G1 X101.993 Y102.168 E3.48642
G1 X102.476 Y101.569 E3.52481
G0 F2400 X102.801 Y101.806
G1 F1800 X103.333 Y101.28 E3.56213
G1 X103.918 Y100.813 E3.59948
G1 X104.549 Y100.412 E3.63678
G1 X105.22 Y100.08 E3.67413
G1 X105.922 Y99.822 E3.71144
G1 X106.647 Y99.64 E3.74873
G1 X107.388 Y99.536 E3.78606
G1 X107.982 Y99.511 E3.81573
G1 X112.013 Y99.51 E4.01683
G1 X112.76 Y99.55 E4.05415
G1 X113.499 Y99.669 E4.0915
G1 X114.22 Y99.866 E4.12879
G1 X114.917 Y100.14 E4.16615
G1 X115.58 Y100.486 E4.20346
G1 X116.202 Y100.901 E4.24077
G1 X116.777 Y101.379 E4.27807
G1 X117.297 Y101.917 E4.3154
G1 X117.757 Y102.507 E4.35272
G1 X118.077 Y103.01 E4.38247
G1 X120.091 Y106.499 E4.58345
G1 X120.43 Y107.166 E4.62078
G1 X120.696 Y107.866 E4.65814
G1 X120.886 Y108.589 E4.69544
G1 X120.997 Y109.329 E4.73277
G1 X121.029 Y110.076 E4.77007
G1 X120.98 Y110.823 E4.80742
G1 X120.853 Y111.56 E4.84473
G1 X120.647 Y112.279 E4.88204
G1 X120.366 Y112.973 E4.9194
G1 X120.093 Y113.496 E4.94883
G1 X118.08 Y116.986 E5.14984
G1 X117.672 Y117.614 E5.1872
G1 X117.199 Y118.194 E5.22454
G1 X116.668 Y118.72 E5.26183
G1 X116.083 Y119.186 E5.29914
G1 X115.452 Y119.588 E5.33647
G1 X114.781 Y119.92 E5.37382
G1 X114.079 Y120.178 E5.41113
G1 X113.354 Y120.36 E5.44842
G1 X112.613 Y120.464 E5.48575
G1 X112.018 Y120.489 E5.51546
G1 X107.987 Y120.49 E5.71657
G1 X107.24 Y120.45 E5.75389
G1 X106.501 Y120.331 E5.79124
G1 X105.78 Y120.134 E5.82853
G1 X105.083 Y119.86 E5.86589
G1 X104.42 Y119.514 E5.9032
G1 X103.798 Y119.099 E5.9405
G1 X103.223 Y118.621 E5.97781
G1 X102.703 Y118.083 E6.01514
G1 X102.243 Y117.493 E6.05246
G1 X101.922 Y116.989 E6.08227
G1 X99.908 Y113.499 E6.2833
G1 X99.569 Y112.832 E6.32063
G1 X99.304 Y112.132 E6.35797
G1 X99.114 Y111.409 E6.39527
G1 X99.003 Y110.669 E6.4326
G1 X98.971 Y109.922 E6.4699
G1 X99.02 Y109.175 E6.50725
G1 X99.147 Y108.438 E6.54456
G1 X99.353 Y107.719 E6.58188
G1 X99.634 Y107.026 E6.61918
G1 X99.908 Y106.502 E6.64869
G1 X101.921 Y103.013 E6.84965
G1 X102.329 Y102.386 E6.88697
G1 X102.801 Y101.806 E6.92427
G0 F2400 X103.126 Y102.044
G1 F1800 X103.646 Y101.537 E6.96051
G1 X104.219 Y101.09 E6.99676
G1 X104.838 Y100.709 E7.03303
G1 X105.494 Y100.399 E7.06923
G1 X106.181 Y100.162 E7.10548
G1 X106.889 Y100.002 E7.14169
G1 X107.611 Y99.922 E7.17794
G1 X107.982 Y99.911 E7.19645
G1 X112.013 Y99.91 E7.39756
G1 X112.739 Y99.95 E7.43384
G1 X113.455 Y100.069 E7.47005
G1 X114.154 Y100.266 E7.50628
G1 X114.827 Y100.539 E7.54251
G1 X115.466 Y100.884 E7.57874
G1 X116.064 Y101.298 E7.61503
G1 X116.612 Y101.774 E7.65124
G1 X117.105 Y102.308 E7.6875
G1 X117.535 Y102.893 E7.72372
G1 X117.731 Y103.21 E7.74232
G1 X119.745 Y106.699 E7.9433
G1 X120.073 Y107.348 E7.97958
G1 X120.328 Y108.028 E8.01581
G1 X120.506 Y108.732 E8.05204
G1 X120.606 Y109.451 E8.08826
G1 X120.627 Y110.177 E8.12449
G1 X120.567 Y110.901 E8.16074
G1 X120.428 Y111.614 E8.19698
G1 X120.212 Y112.308 E8.23324
G1 X119.921 Y112.973 E8.26946
G1 X119.746 Y113.297 E8.28783
G1 X117.733 Y116.787 E8.48883
G1 X117.336 Y117.395 E8.52506
G1 X116.875 Y117.956 E8.56128
G1 X116.354 Y118.463 E8.59755
G1 X115.782 Y118.909 E8.63374
G1 X115.163 Y119.29 E8.67
G1 X114.507 Y119.601 E8.70622
G1 X113.82 Y119.838 E8.74248
G1 X113.111 Y119.997 E8.77873
G1 X112.39 Y120.078 E8.81493
G1 X112.018 Y120.089 E8.8335
G1 X107.987 Y120.09 E9.0346
G1 X107.261 Y120.05 E9.07088
G1 X106.545 Y119.931 E9.10709
G1 X105.846 Y119.734 E9.14332
G1 X105.173 Y119.461 E9.17955
G1 X104.534 Y119.116 E9.21578
G1 X103.936 Y118.702 E9.25207
G1 X103.388 Y118.226 E9.28828
G1 X102.895 Y117.692 E9.32454
G1 X102.465 Y117.107 E9.36076
G1 X102.269 Y116.789 E9.3794
G1 X100.255 Y113.299 E9.58043
G1 X99.927 Y112.651 E9.61666
G1 X99.672 Y111.97 E9.65294
G1 X99.494 Y111.266 E9.68917
G1 X99.394 Y110.547 E9.72539
G1 X99.373 Y109.821 E9.76162
G1 X99.433 Y109.097 E9.79787
G1 X99.572 Y108.384 E9.83411
G1 X99.788 Y107.691 E9.87032
G1 X100.079 Y107.025 E9.90658
G1 X100.254 Y106.702 E9.92491
G1 X102.267 Y103.213 E10.12587
G1 X102.664 Y102.604 E10.16214
G1 X103.126 Y102.044 E10.19836
G0 F2400 X103.45 Y102.282
G1 F1800 X103.958 Y101.796 E10.23344
G1 X104.519 Y101.37 E10.26858
G1 X105.124 Y101.01 E10.3037
G1 X105.766 Y100.721 E10.33883
G1 X106.437 Y100.507 E10.37396
G1 X107.127 Y100.37 E10.40906
G1 X107.982 Y100.311 E10.45182
G1 X112.013 Y100.31 E10.65293
G1 X112.716 Y100.35 E10.68805
G1 X113.41 Y100.469 E10.72318
G1 X114.086 Y100.666 E10.75831
G1 X114.735 Y100.939 E10.79344
G1 X115.349 Y101.283 E10.82855
G1 X115.92 Y101.695 E10.86368
G1 X116.441 Y102.168 E10.89879
G1 X116.905 Y102.698 E10.93393
G1 X117.385 Y103.41 E10.97677
G1 X119.399 Y106.899 E11.17776
G1 X119.715 Y107.528 E11.21288
G1 X119.959 Y108.189 E11.24803
G1 X120.126 Y108.873 E11.28316
G1 X120.214 Y109.571 E11.31825
G1 X120.223 Y110.275 E11.35338
G1 X120.152 Y110.975 E11.38848
G1 X120.002 Y111.663 E11.42361
G1 X119.774 Y112.329 E11.45873
G1 X119.4 Y113.097 E11.50135
G1 X117.387 Y116.587 E11.70235
G1 X117.001 Y117.176 E11.73749
G1 X116.551 Y117.717 E11.77259
G1 X116.042 Y118.204 E11.80774
G1 X115.482 Y118.63 E11.84284
G1 X114.877 Y118.99 E11.87797
G1 X114.235 Y119.278 E11.91307
G1 X113.564 Y119.493 E11.94822
G1 X112.874 Y119.629 E11.98331
G1 X112.018 Y119.689 E12.02612
G1 X107.987 Y119.69 E12.22723
G1 X107.284 Y119.65 E12.26236
G1 X106.59 Y119.531 E12.29749
G1 X105.914 Y119.334 E12.33262
G1 X105.265 Y119.061 E12.36774
G1 X104.651 Y118.717 E12.40286
G1 X104.08 Y118.305 E12.43798
G1 X103.559 Y117.832 E12.47309
G1 X103.095 Y117.302 E12.50823
G1 X102.615 Y116.589 E12.55112
G1 X100.601 Y113.099 E12.75214
G1 X100.284 Y112.47 E12.78729
G1 X100.041 Y111.81 E12.82237
G1 X99.874 Y111.126 E12.8575
G1 X99.786 Y110.427 E12.89265
G1 X99.777 Y109.723 E12.92778
G1 X99.848 Y109.023 E12.96288
G1 X99.999 Y108.335 E12.99802
G1 X100.226 Y107.669 E13.03312
G1 X100.601 Y106.902 E13.07572
G1 X102.614 Y103.413 E13.27668
G1 X103 Y102.824 E13.31181
G1 X103.45 Y102.282 E13.34696
G1 F1500 E6.84696
G0 F2400 X107.226 Y106.476
G0 X108.335 Y107.117
G0 X108.556 Y107.5
M104 S190
;TYPE:WALL-INNER
G1 F1500 E13.34696
G1 F1800 X111.444 Y107.5 E13.49104
G1 X112.888 Y110 E13.63508
G1 X111.444 Y112.5 E13.77911
G1 X108.556 Y112.5 E13.9232
G1 X107.112 Y110 E14.06723
G1 X108.556 Y107.5 E14.21127
G0 F2400 X108.325 Y107.1
G1 F1800 X111.675 Y107.1 E14.3784
G1 X113.349 Y110 E14.54546
G1 X111.675 Y112.9 E14.71251
G1 X108.325 Y112.9 E14.87964
G1 X106.651 Y110 E15.0467
G1 X108.325 Y107.1 E15.21376
G0 F2400 X108.094 Y106.7
;TYPE:WALL-OUTER
G1 F1800 X111.906 Y106.7 E15.40394
G1 X113.81 Y110 E15.59401
G1 X111.906 Y113.3 E15.78409
G1 X108.094 Y113.3 E15.97427
G1 X106.19 Y110 E16.16435
G1 X108.094 Y106.7 E16.35442
G0 F2400 X108.294 Y106.7
G0 X108.375 Y107.186
G0 X111.074 Y107.68
;TYPE:SKIN
G1 F1800 X111.703 Y108.309 E16.3988
G1 X111.773 Y108.379
G0 F2400 X110.508 Y107.68
G1 F1800 X112.477 Y109.648 E16.53769
G1 X112.547 Y109.718
G0 F2400 X112.527 Y110.264
G1 F1800 X109.943 Y107.68 E16.72001
G1 X109.873 Y107.61
G0 F2400 X109.377 Y107.68
G1 F1800 X112.32 Y110.623 E16.92765
G1 X112.39 Y110.693
G0 F2400 X112.113 Y110.981
G1 F1800 X108.811 Y107.68 E17.16059
G1 X108.741 Y107.61
G0 F2400 X108.506 Y107.941
G1 F1800 X111.906 Y111.341 E17.40048
G1 X111.976 Y111.411
G0 F2400 X111.699 Y111.699
G1 F1800 X108.299 Y108.299 E17.64037
G1 X108.229 Y108.229
G0 F2400 X108.092 Y108.658
G1 F1800 X111.492 Y112.058 E17.88025
G1 X111.562 Y112.128
G0 F2400 X111.187 Y112.318
G1 F1800 X107.886 Y109.017 E18.11316
G1 X107.816 Y108.947
G0 F2400 X107.678 Y109.375
G1 F1800 X110.621 Y112.318 E18.3208
G1 X110.691 Y112.388
G0 F2400 X110.056 Y112.318
G1 F1800 X107.471 Y109.734 E18.50315
G1 X107.401 Y109.664
G0 F2400 X107.521 Y110.35
G1 F1800 X109.49 Y112.318 E18.64204
G1 X109.56 Y112.388
G0 F2400 X108.924 Y112.318
G1 F1800 X108.295 Y111.689 E18.68642
G1 X108.225 Y111.619
G0 F2400 X108.786 Y107.9
;TIME_ELAPSED:17.218178
;LAYER:1
M106 S255
G0 F3600 X108.786 Y107.9 Z0.4
;TYPE:WALL-INNER
G1 F1704.8 X111.214 Y107.9 E18.7268
G1 X112.426 Y110 E18.76712
G1 X111.214 Y112.1 E18.80744
G1 X108.786 Y112.1 E18.84782
G1 X107.574 Y110 E18.88814
G1 X108.786 Y107.9 E18.92846
G0 F3600 X108.556 Y107.5
G1 F1704.8 X111.444 Y107.5 E18.97649
G1 X112.888 Y110 E19.0245
G1 X111.444 Y112.5 E19.07252
G1 X108.556 Y112.5 E19.12054
G1 X107.112 Y110 E19.16856
G1 X108.556 Y107.5 E19.21657
G0 F3600 X108.325 Y107.1
G1 F1704.8 X111.675 Y107.1 E19.27228
G1 X113.349 Y110 E19.32796
G1 X111.675 Y112.9 E19.38365
G1 X108.325 Y112.9 E19.43936
G1 X106.651 Y110 E19.49505
G1 X108.325 Y107.1 E19.55073
G0 F3600 X108.094 Y106.7
;TYPE:WALL-OUTER
G1 F1136.5 X111.906 Y106.7 E19.61412
G1 X113.81 Y110 E19.67748
G1 X111.906 Y113.3 E19.74084
G1 X108.094 Y113.3 E19.80424
G1 X106.19 Y110 E19.86759
G1 X108.094 Y106.7 E19.93095
G0 F3600 X108.294 Y106.7
G0 X108.375 Y107.186
G0 X109.143 Y108.079
;TYPE:SKIN
G1 F1136.5 X108.543 Y108.68 E19.94508
G1 X108.473 Y108.75
G0 F3600 X109.709 Y108.079
G1 F1136.5 X107.784 Y110.003 E19.99034
G1 X107.714 Y110.073
G0 F3600 X107.992 Y110.362
G1 F1136.5 X110.274 Y108.079 E20.04402
G1 X110.344 Y108.009
G0 F3600 X110.84 Y108.079
G1 F1136.5 X108.198 Y110.721 E20.10615
G1 X108.128 Y110.791
G0 F3600 X108.405 Y111.08
G1 F1136.5 X111.217 Y108.267 E20.1723
G1 X111.287 Y108.197
G0 F3600 X111.425 Y108.626
G1 F1136.5 X108.612 Y111.439 E20.23846
G1 X108.542 Y111.509
G0 F3600 X108.819 Y111.797
G1 F1136.5 X111.631 Y108.985 E20.30459
G1 X111.701 Y108.915
G0 F3600 X111.838 Y109.344
G1 F1136.5 X109.263 Y111.919 E20.36515
G1 X109.193 Y111.989
G0 F3600 X109.829 Y111.919
G1 F1136.5 X112.045 Y109.703 E20.41727
G1 X112.115 Y109.633
G0 F3600 X112.084 Y110.23
G1 F1136.5 X110.394 Y111.919 E20.457
G1 X110.324 Y111.989
G0 F3600 X110.96 Y111.919
G1 F1136.5 X111.314 Y111.565 E20.46533
G0 F3600 X108.556 Y107.5
;TIME_ELAPSED:22.454722
;LAYER:2
G0 F4800 X108.556 Y107.5 Z0.5
;TYPE:WALL-INNER
G1 F2241.6 X111.444 Y107.5 E20.51336
G1 X112.888 Y110 E20.56137
G1 X111.444 Y112.5 E20.60938
G1 X108.556 Y112.5 E20.65741
G1 X107.112 Y110 E20.70542
G1 X108.556 Y107.5 E20.75343
G0 F4800 X108.325 Y107.1
G1 F2241.6 X111.675 Y107.1 E20.80914
G1 X113.349 Y110 E20.86483
G1 X111.675 Y112.9 E20.92051
G1 X108.325 Y112.9 E20.97622
G1 X106.651 Y110 E21.03191
G1 X108.325 Y107.1 E21.08759
G0 F4800 X108.094 Y106.7
;TYPE:WALL-OUTER
G1 F1120.8 X111.906 Y106.7 E21.15099
G1 X113.81 Y110 E21.21435
G1 X111.906 Y113.3 E21.27771
G1 X108.094 Y113.3 E21.3411
G1 X106.19 Y110 E21.40446
G1 X108.094 Y106.7 E21.46782
G0 F4800 X108.294 Y106.7
G0 X108.375 Y107.186
G0 X111.074 Y107.68
;TYPE:SKIN
G1 F1120.8 X111.703 Y108.309 E21.48261
G1 X111.773 Y108.379
G0 F4800 X110.508 Y107.68
G1 F1120.8 X112.477 Y109.648 E21.52891
G1 X112.547 Y109.718
G0 F4800 X112.527 Y110.264
G1 F1120.8 X109.943 Y107.68 E21.58968
G1 X109.873 Y107.61
G0 F4800 X109.377 Y107.68
G1 F1120.8 X112.32 Y110.623 E21.65889
G1 X112.39 Y110.693
G0 F4800 X112.113 Y110.981
G1 F1120.8 X108.811 Y107.68 E21.73654
G1 X108.741 Y107.61
G0 F4800 X108.506 Y107.941
G1 F1120.8 X111.906 Y111.341 E21.8165
G1 X111.976 Y111.411
G0 F4800 X111.699 Y111.699
G1 F1120.8 X108.299 Y108.299 E21.89646
G1 X108.229 Y108.229
G0 F4800 X108.092 Y108.658
G1 F1120.8 X111.492 Y112.058 E21.97643
G1 X111.562 Y112.128
G0 F4800 X111.187 Y112.318
G1 F1120.8 X107.886 Y109.017 E22.05406
G1 X107.816 Y108.947
G0 F4800 X107.678 Y109.375
G1 F1120.8 X110.621 Y112.318 E22.12328
G1 X110.691 Y112.388
G0 F4800 X110.056 Y112.318
G1 F1120.8 X107.471 Y109.734 E22.18406
G1 X107.401 Y109.664
G0 F4800 X107.521 Y110.35
G1 F1120.8 X109.49 Y112.318 E22.23036
G1 X109.56 Y112.388
G0 F4800 X108.924 Y112.318
G1 F1120.8 X108.295 Y111.689 E22.24515
G1 X108.225 Y111.619
G0 F4800 X108.786 Y107.9
;TIME_ELAPSED:27.736508
;LAYER:3
G0 X108.786 Y107.9 Z0.6
;TYPE:WALL-INNER
G1 F2032.9 X111.214 Y107.9 E22.28553
G1 X112.426 Y110 E22.32585
G1 X111.214 Y112.1 E22.36617
G1 X108.786 Y112.1 E22.40655
G1 X107.574 Y110 E22.44687
G1 X108.786 Y107.9 E22.48719
G0 F4800 X108.556 Y107.5
G1 F2032.9 X111.444 Y107.5 E22.53522
G1 X112.888 Y110 E22.58323
G1 X111.444 Y112.5 E22.63124
G1 X108.556 Y112.5 E22.67927
G1 X107.112 Y110 E22.72728
G1 X108.556 Y107.5 E22.7753
G0 F4800 X108.325 Y107.1
G1 F2032.9 X111.675 Y107.1 E22.83101
G1 X113.349 Y110 E22.88669
G1 X111.675 Y112.9 E22.94238
G1 X108.325 Y112.9 E22.99809
G1 X106.651 Y110 E23.05377
G1 X108.325 Y107.1 E23.10946
G0 F4800 X108.094 Y106.7
;TYPE:WALL-OUTER
G1 F1016.5 X111.906 Y106.7 E23.17285
G1 X113.81 Y110 E23.23621
G1 X111.906 Y113.3 E23.29957
G1 X108.094 Y113.3 E23.36296
G1 X106.19 Y110 E23.42632
G1 X108.094 Y106.7 E23.48968
G0 F4800 X108.294 Y106.7
G0 X108.375 Y107.186
G0 X109.143 Y108.079
;TYPE:SKIN
G1 F1016.5 X108.543 Y108.68 E23.5038
G1 X108.473 Y108.75
G0 F4800 X109.709 Y108.079
G1 F1016.5 X107.784 Y110.003 E23.54907
G1 X107.714 Y110.073
G0 F4800 X107.992 Y110.362
G1 F1016.5 X110.274 Y108.079 E23.60275
G1 X110.344 Y108.009
G0 F4800 X110.84 Y108.079
G1 F1016.5 X108.198 Y110.721 E23.66488
G1 X108.128 Y110.791
G0 F4800 X108.405 Y111.08
G1 F1016.5 X111.217 Y108.267 E23.73103
G1 X111.287 Y108.197
G0 F4800 X111.425 Y108.626
G1 F1016.5 X108.612 Y111.439 E23.79719
G1 X108.542 Y111.509
G0 F4800 X108.819 Y111.797
G1 F1016.5 X111.631 Y108.985 E23.86332
G1 X111.701 Y108.915
G0 F4800 X111.838 Y109.344
G1 F1016.5 X109.263 Y111.919 E23.92388
G1 X109.193 Y111.989
G0 F4800 X109.829 Y111.919
G1 F1016.5 X112.045 Y109.703 E23.976
G1 X112.115 Y109.633
G0 F4800 X112.084 Y110.23
G1 F1016.5 X110.394 Y111.919 E24.01573
G1 X110.324 Y111.989
G0 F4800 X110.96 Y111.919
G1 F1016.5 X111.314 Y111.565 E24.02406
G0 F4800 X108.556 Y107.5
;TIME_ELAPSED:33.031406
;LAYER:4
G0 X108.556 Y107.5 Z0.7
;TYPE:WALL-INNER
G1 F2241.6 X111.444 Y107.5 E24.07208
