;FLAVOR:Marlin
;TIME:1592
;Filament used: 0.689202m
;Layer height: 0.1
;Generated with Cura_SteamEngine 2.7.0
M104 S210
M109 S210
G21 ;metric values
G90 ;absolute positioning
M82 ;set extruder to absolute mode
M107 ;start with the fan off
G28 X0 Y0 ;move X/Y to min endstops
G28 Z0 ;move Z to min endstops
G1 Z15.0 F9000 ;move the platform down 15mm
G92 E0 ;zero the extruded length
G1 F200 E3 ;extrude 3mm of feed stock
G92 E0 ;zero the extruded length again
G1 F9000
;Put printing message on LCD screen
M117 Printing...
;LAYER_COUNT:28
;LAYER:0
M107
G0 F2400 X93.286 Y81.778 Z0.3
G0 X93.112 Y82
;TYPE:SKIRT
G1 F1800 X93.286 Y81.778 E0.01407
G1 X93.515 Y81.614 E0.02812
G1 X93.781 Y81.52 E0.0422
G1 X93.978 Y81.5 E0.05208
G1 X98.022 Y81.5 E0.25383
G1 X98.301 Y81.54 E0.2679
G1 X98.558 Y81.656 E0.28196
G1 X98.773 Y81.839 E0.29605
G1 X98.888 Y82 E0.30592
G1 X100.907 Y85.5 E0.50751
G1 X101.012 Y85.762 E0.52159
G1 X101.04 Y86.043 E0.53568
G1 X100.988 Y86.32 E0.54974
G1 X100.907 Y86.5 E0.55959
G1 X98.888 Y90 E0.76117
G1 X98.714 Y90.222 E0.77524
G1 X98.485 Y90.386 E0.7893
G1 X98.219 Y90.48 E0.80337
G1 X98.022 Y90.5 E0.81325
G1 X93.978 Y90.5 E1.01501
G1 X93.699 Y90.46 E1.02907
G1 X93.442 Y90.344 E1.04313
G1 X93.227 Y90.161 E1.05722
G1 X93.112 Y90 E1.06709
G1 X91.093 Y86.5 E1.26868
G1 X90.988 Y86.238 E1.28276
G1 X90.96 Y85.957 E1.29685
G1 X91.012 Y85.68 E1.31091
G1 X91.093 Y85.5 E1.32076
G1 X93.112 Y82 E1.52234
G0 F2400 X93.458 Y82.2
G1 F1800 X93.6 Y82.034 E1.53324
G1 X93.791 Y81.93 E1.54409
G1 X93.978 Y81.9 E1.55354
G1 X98.022 Y81.9 E1.7553
G1 X98.237 Y81.94 E1.76621
G1 X98.423 Y82.053 E1.77706
G1 X98.542 Y82.2 E1.7865
G1 X100.561 Y85.7 E1.98809
G1 X100.634 Y85.906 E1.99899
G1 X100.628 Y86.124 E2.00987
G1 X100.561 Y86.3 E2.01926
G1 X98.542 Y89.8 E2.22085
G1 X98.4 Y89.966 E2.23175
G1 X98.209 Y90.07 E2.2426
G1 X98.022 Y90.1 E2.25205
G1 X93.978 Y90.1 E2.4538
G1 X93.763 Y90.06 E2.46471
G1 X93.577 Y89.947 E2.47557
G1 X93.458 Y89.8 E2.48501
G1 X91.439 Y86.3 E2.68659
G1 X91.366 Y86.094 E2.6975
G1 X91.372 Y85.876 E2.70838
G1 X91.439 Y85.7 E2.71777
G1 X93.458 Y82.2 E2.91936
G0 F2400 X93.978 Y82.3
G1 F1800 X98.022 Y82.3 E3.12111
G1 X98.141 Y82.339 E3.12736
G1 X98.195 Y82.4 E3.13143
G1 X100.214 Y85.9 E3.33301
G1 X100.24 Y86.022 E3.33924
G1 X100.214 Y86.1 E3.34334
G1 X98.195 Y89.6 E3.54492
G1 X98.102 Y89.683 E3.55114
G1 X98.022 Y89.7 E3.55522
G1 X93.978 Y89.7 E3.75698
G1 X93.859 Y89.661 E3.76323
G1 X93.805 Y89.6 E3.76729
G1 X91.786 Y86.1 E3.96888
G1 X91.76 Y85.978 E3.9751
G1 X91.786 Y85.9 E3.9792
G1 X93.805 Y82.4 E4.18079
G1 X93.898 Y82.317 E4.18701
G1 X93.978 Y82.3 E4.19109
G1 F1500 E-2.30891
G0 F2400 X93.978 Y81.835
G0 X93.598 Y81.841
G0 X91.197 Y86
G0 X93.978 Y93.5
G1 F1500 E4.19109
G1 F1800 X98.022 Y93.5 E4.39284
G1 X98.301 Y93.54 E4.4069
G1 X98.558 Y93.656 E4.42097
G1 X98.773 Y93.839 E4.43506
G1 X98.888 Y94 E4.44493
G1 X100.907 Y97.5 E4.64651
G1 X101.012 Y97.762 E4.6606
G1 X101.04 Y98.043 E4.67468
G1 X100.988 Y98.32 E4.68875
G1 X100.907 Y98.5 E4.69859
G1 X98.888 Y102 E4.90018
G1 X98.714 Y102.222 E4.91425
G1 X98.485 Y102.386 E4.9283
G1 X98.219 Y102.48 E4.94238
G1 X98.022 Y102.5 E4.95226
G1 X93.978 Y102.5 E5.15401
G1 X93.699 Y102.46 E5.16808
G1 X93.442 Y102.344 E5.18214
G1 X93.227 Y102.161 E5.19623
G1 X93.112 Y102 E5.2061
G1 X91.093 Y98.5 E5.40769
G1 X90.988 Y98.238 E5.42177
G1 X90.96 Y97.957 E5.43586
G1 X91.012 Y97.68 E5.44992
G1 X91.093 Y97.5 E5.45976
G1 X93.112 Y94 E5.66135
G1 X93.286 Y93.778 E5.67542
G1 X93.515 Y93.614 E5.68947
G1 X93.781 Y93.52 E5.70355
G1 X93.978 Y93.5 E5.71343
G0 F2400 X93.978 Y93.9
G1 F1800 X98.022 Y93.9 E5.91518
G1 X98.237 Y93.94 E5.9261
G1 X98.423 Y94.053 E5.93695
G1 X98.542 Y94.2 E5.94639
G1 X100.561 Y97.7 E6.14797
G1 X100.634 Y97.906 E6.15888
G1 X100.628 Y98.124 E6.16976
G1 X100.561 Y98.3 E6.17915
G1 X98.542 Y101.8 E6.38074
G1 X98.4 Y101.966 E6.39164
G1 X98.209 Y102.07 E6.40249
G1 X98.022 Y102.1 E6.41194
G1 X93.978 Y102.1 E6.61369
G1 X93.763 Y102.06 E6.6246
G1 X93.577 Y101.947 E6.63546
G1 X93.458 Y101.8 E6.6449
G1 X91.439 Y98.3 E6.84648
G1 X91.366 Y98.094 E6.85739
G1 X91.372 Y97.876 E6.86827
G1 X91.439 Y97.7 E6.87766
G1 X93.458 Y94.2 E7.07925
G1 X93.6 Y94.034 E7.09015
G1 X93.791 Y93.93 E7.101
G1 X93.978 Y93.9 E7.11045
G0 F2400 X93.978 Y94.3
G1 F1800 X98.022 Y94.3 E7.3122
G1 X98.141 Y94.339 E7.31845
G1 X98.195 Y94.4 E7.32251
G1 X100.214 Y97.9 E7.5241
G1 X100.24 Y98.022 E7.53032
G1 X100.214 Y98.1 E7.53442
G1 X98.195 Y101.6 E7.73601
G1 X98.102 Y101.683 E7.74223
G1 X98.022 Y101.7 E7.74631
G1 X93.978 Y101.7 E7.94807
G1 X93.859 Y101.661 E7.95431
G1 X93.805 Y101.6 E7.95838
G1 X91.786 Y98.1 E8.15996
G1 X91.76 Y97.978 E8.16619
G1 X91.786 Y97.9 E8.17029
G1 X93.805 Y94.4 E8.37187
G1 X93.898 Y94.317 E8.37809
G1 X93.978 Y94.3 E8.38217
G1 F1500 E1.88217
G0 F2400 X93.978 Y93.835
G0 X93.598 Y93.841
G0 X91.197 Y98
G0 X93.978 Y105.5
G1 F1500 E8.38217
G1 F1800 X98.022 Y105.5 E8.58393
G1 X98.301 Y105.54 E8.59799
G1 X98.558 Y105.656 E8.61206
G1 X98.773 Y105.839 E8.62614
G1 X98.888 Y106 E8.63602
G1 X100.907 Y109.5 E8.8376
G1 X101.012 Y109.762 E8.85168
G1 X101.04 Y110.043 E8.86577
G1 X100.988 Y110.32 E8.87983
G1 X100.907 Y110.5 E8.88968
G1 X98.888 Y114 E9.09127
G1 X98.714 Y114.222 E9.10534
G1 X98.485 Y114.386 E9.11939
G1 X98.219 Y114.48 E9.13347
G1 X98.022 Y114.5 E9.14334
G1 X93.978 Y114.5 E9.3451
G1 X93.699 Y114.46 E9.35916
G1 X93.442 Y114.344 E9.37323
G1 X93.227 Y114.161 E9.38732
G1 X93.112 Y114 E9.39719
G1 X91.093 Y110.5 E9.59877
G1 X90.988 Y110.238 E9.61285
G1 X90.96 Y109.957 E9.62694
G1 X91.012 Y109.68 E9.641
G1 X91.093 Y109.5 E9.65085
G1 X93.112 Y106 E9.85244
G1 X93.286 Y105.778 E9.86651
G1 X93.515 Y105.614 E9.88056
G1 X93.781 Y105.52 E9.89464
G1 X93.978 Y105.5 E9.90452
G0 F2400 X93.978 Y105.9
G1 F1800 X98.022 Y105.9 E10.10627
G1 X98.237 Y105.94 E10.11718
G1 X98.423 Y106.053 E10.12804
G1 X98.542 Y106.2 E10.13748
G1 X100.561 Y109.7 E10.33906
G1 X100.634 Y109.906 E10.34996
G1 X100.628 Y110.124 E10.36085
G1 X100.561 Y110.3 E10.37024
G1 X98.542 Y113.8 E10.57183
G1 X98.4 Y113.966 E10.58272
G1 X98.209 Y114.07 E10.59357
G1 X98.022 Y114.1 E10.60302
G1 X93.978 Y114.1 E10.80478
G1 X93.763 Y114.06 E10.81569
G1 X93.577 Y113.947 E10.82655
G1 X93.458 Y113.8 E10.83598
G1 X91.439 Y110.3 E11.03757
G1 X91.366 Y110.094 E11.04847
G1 X91.372 Y109.876 E11.05935
G1 X91.439 Y109.7 E11.06875
G1 X93.458 Y106.2 E11.27033
G1 X93.6 Y106.034 E11.28123
G1 X93.791 Y105.93 E11.29208
G1 X93.978 Y105.9 E11.30153
G0 F2400 X93.978 Y106.3
G1 F1800 X98.022 Y106.3 E11.50329
G1 X98.141 Y106.339 E11.50954
G1 X98.195 Y106.4 E11.5136
G1 X100.214 Y109.9 E11.71519
G1 X100.24 Y110.022 E11.72141
G1 X100.214 Y110.1 E11.72551
G1 X98.195 Y113.6 E11.9271
G1 X98.102 Y113.683 E11.93332
G1 X98.022 Y113.7 E11.9374
G1 X93.978 Y113.7 E12.13915
G1 X93.859 Y113.661 E12.1454
G1 X93.805 Y113.6 E12.14946
G1 X91.786 Y110.1 E12.35105
G1 X91.76 Y109.978 E12.35727
G1 X91.786 Y109.9 E12.36138
G1 X93.805 Y106.4 E12.56296
G1 X93.898 Y106.317 E12.56918
G1 X93.978 Y106.3 E12.57326
G1 F1500 E6.07326
G0 F2400 X93.49 Y106.017
G0 X86.907 Y109.5
G1 F1500 E12.57326
G1 F1800 X87.012 Y109.762 E12.58734
G1 X87.04 Y110.043 E12.60143
G1 X86.988 Y110.32 E12.61549
G1 X86.907 Y110.5 E12.62534
G1 X84.888 Y114 E12.82692
G1 X84.714 Y114.222 E12.841
G1 X84.485 Y114.386 E12.85505
G1 X84.219 Y114.48 E12.86912
G1 X84.022 Y114.5 E12.879
G1 X79.978 Y114.5 E13.08076
G1 X79.699 Y114.46 E13.09482
G1 X79.442 Y114.344 E13.10889
G1 X79.227 Y114.161 E13.12297
G1 X79.112 Y114 E13.13285
G1 X77.093 Y110.5 E13.33443
G1 X76.988 Y110.238 E13.34851
G1 X76.96 Y109.957 E13.3626
G1 X77.012 Y109.68 E13.37666
G1 X77.093 Y109.5 E13.38651
G1 X79.112 Y106 E13.5881
G1 X79.286 Y105.778 E13.60217
G1 X79.515 Y105.614 E13.61622
G1 X79.781 Y105.52 E13.6303
G1 X79.978 Y105.5 E13.64017
G1 X84.022 Y105.5 E13.84193
G1 X84.301 Y105.54 E13.85599
G1 X84.558 Y105.656 E13.87006
G1 X84.773 Y105.839 E13.88415
G1 X84.888 Y106 E13.89402
G1 X86.907 Y109.5 E14.0956
G0 F2400 X86.561 Y109.7
G1 F1800 X86.634 Y109.906 E14.10651
G1 X86.628 Y110.124 E14.11739
G1 X86.561 Y110.3 E14.12678
G1 X84.542 Y113.8 E14.32837
G1 X84.4 Y113.966 E14.33927
G1 X84.209 Y114.07 E14.35012
G1 X84.022 Y114.1 E14.35956
G1 X79.978 Y114.1 E14.56132
G1 X79.763 Y114.06 E14.57223
G1 X79.577 Y113.947 E14.58309
G1 X79.458 Y113.8 E14.59252
G1 X77.439 Y110.3 E14.79411
G1 X77.366 Y110.094 E14.80501
G1 X77.372 Y109.876 E14.81589
G1 X77.439 Y109.7 E14.82529
G1 X79.458 Y106.2 E15.02688
G1 X79.6 Y106.034 E15.03777
G1 X79.791 Y105.93 E15.04862
G1 X79.978 Y105.9 E15.05807
G1 X84.022 Y105.9 E15.25983
G1 X84.237 Y105.94 E15.27074
G1 X84.423 Y106.053 E15.2816
G1 X84.542 Y106.2 E15.29103
G1 X86.561 Y109.7 E15.49262
G0 F2400 X86.214 Y110.1
G1 F1800 X84.195 Y113.6 E15.6942
G1 X84.102 Y113.683 E15.70042
G1 X84.022 Y113.7 E15.7045
G1 X79.978 Y113.7 E15.90626
G1 X79.859 Y113.661 E15.91251
G1 X79.805 Y113.6 E15.91657
G1 X77.786 Y110.1 E16.11816
G1 X77.76 Y109.978 E16.12438
G1 X77.786 Y109.9 E16.12848
G1 X79.805 Y106.4 E16.33007
G1 X79.898 Y106.317 E16.33629
G1 X79.978 Y106.3 E16.34037
G1 X84.022 Y106.3 E16.54212
G1 X84.141 Y106.339 E16.54837
G1 X84.195 Y106.4 E16.55244
G1 X86.214 Y109.9 E16.75402
G1 X86.24 Y110.022 E16.76024
G1 X86.214 Y110.1 E16.76435
G1 F1500 E10.26435
G0 F2400 X86.617 Y110.332
G0 X93.112 Y118
G1 F1500 E16.76435
G1 F1800 X93.286 Y117.778 E16.77842
G1 X93.515 Y117.614 E16.79247
G1 X93.781 Y117.52 E16.80655
G1 X93.978 Y117.5 E16.81643
G1 X98.022 Y117.5 E17.01818
G1 X98.301 Y117.54 E17.03224
G1 X98.558 Y117.656 E17.04631
G1 X98.773 Y117.839 E17.0604
G1 X98.888 Y118 E17.07027
G1 X100.907 Y121.5 E17.27185
G1 X101.012 Y121.762 E17.28593
G1 X101.04 Y122.043 E17.30002
G1 X100.988 Y122.32 E17.31408
G1 X100.907 Y122.5 E17.32393
G1 X98.888 Y126 E17.52552
G1 X98.714 Y126.222 E17.53959
G1 X98.485 Y126.386 E17.55364
G1 X98.219 Y126.48 E17.56772
G1 X98.022 Y126.5 E17.5776
G1 X93.978 Y126.5 E17.77935
G1 X93.699 Y126.46 E17.79341
G1 X93.442 Y126.344 E17.80748
G1 X93.227 Y126.161 E17.82157
G1 X93.112 Y126 E17.83144
G1 X91.093 Y122.5 E18.03302
G1 X90.988 Y122.238 E18.04711
G1 X90.96 Y121.957 E18.06119
G1 X91.012 Y121.68 E18.07526
G1 X91.093 Y121.5 E18.0851
G1 X93.112 Y118 E18.28669
G0 F2400 X93.458 Y118.2
G1 F1800 X93.6 Y118.034 E18.29759
G1 X93.791 Y117.93 E18.30844
G1 X93.978 Y117.9 E18.31789
G1 X98.022 Y117.9 E18.51964
G1 X98.237 Y117.94 E18.53055
G1 X98.423 Y118.053 E18.54141
G1 X98.542 Y118.2 E18.55085
G1 X100.561 Y121.7 E18.75243
G1 X100.634 Y121.906 E18.76334
G1 X100.628 Y122.124 E18.77422
G1 X100.561 Y122.3 E18.78361
G1 X98.542 Y125.8 E18.9852
G1 X98.4 Y125.966 E18.9961
G1 X98.209 Y126.07 E19.00695
G1 X98.022 Y126.1 E19.01639
G1 X93.978 Y126.1 E19.21815
G1 X93.763 Y126.06 E19.22906
G1 X93.577 Y125.947 E19.23992
G1 X93.458 Y125.8 E19.24935
G1 X91.439 Y122.3 E19.45094
G1 X91.366 Y122.094 E19.46184
G1 X91.372 Y121.876 E19.47272
G1 X91.439 Y121.7 E19.48212
G1 X93.458 Y118.2 E19.68371
G0 F2400 X93.978 Y118.3
G1 F1800 X98.022 Y118.3 E19.88546
G1 X98.141 Y118.339 E19.89171
G1 X98.195 Y118.4 E19.89577
G1 X100.214 Y121.9 E20.09736
G1 X100.24 Y122.022 E20.10358
G1 X100.214 Y122.1 E20.10768
G1 X98.195 Y125.6 E20.30927
G1 X98.102 Y125.683 E20.31549
G1 X98.022 Y125.7 E20.31957
G1 X93.978 Y125.7 E20.52133
G1 X93.859 Y125.661 E20.52757
G1 X93.805 Y125.6 E20.53164
G1 X91.786 Y122.1 E20.73322
G1 X91.76 Y121.978 E20.73945
G1 X91.786 Y121.9 E20.74355
G1 X93.805 Y118.4 E20.94513
G1 X93.898 Y118.317 E20.95135
G1 X93.978 Y118.3 E20.95543
G1 F1500 E14.45543
G0 F2400 X93.978 Y117.835
G0 X93.598 Y117.841
G0 X91.197 Y122
G0 X93.978 Y129.5
G1 F1500 E20.95543
G1 F1800 X98.022 Y129.5 E21.15719
G1 X98.301 Y129.54 E21.17125
G1 X98.558 Y129.656 E21.18532
G1 X98.773 Y129.839 E21.1994
G1 X98.888 Y130 E21.20928
G1 X100.907 Y133.5 E21.41086
G1 X101.012 Y133.762 E21.42494
G1 X101.04 Y134.043 E21.43903
G1 X100.988 Y134.32 E21.45309
G1 X100.907 Y134.5 E21.46294
G1 X98.888 Y138 E21.66453
G1 X98.714 Y138.222 E21.6786
G1 X98.485 Y138.386 E21.69265
G1 X98.219 Y138.48 E21.70673
G1 X98.022 Y138.5 E21.7166
G1 X93.978 Y138.5 E21.91836
G1 X93.699 Y138.46 E21.93242
G1 X93.442 Y138.344 E21.94649
G1 X93.227 Y138.161 E21.96058
G1 X93.112 Y138 E21.97045
G1 X91.093 Y134.5 E22.17203
G1 X90.988 Y134.238 E22.18611
G1 X90.96 Y133.957 E22.2002
G1 X91.012 Y133.68 E22.21426
G1 X91.093 Y133.5 E22.22411
G1 X93.112 Y130 E22.4257
G1 X93.286 Y129.778 E22.43977
G1 X93.515 Y129.614 E22.45382
G1 X93.781 Y129.52 E22.4679
G1 X93.978 Y129.5 E22.47778
G0 F2400 X93.978 Y129.9
G1 F1800 X98.022 Y129.9 E22.67953
G1 X98.237 Y129.94 E22.69044
G1 X98.423 Y130.053 E22.7013
G1 X98.542 Y130.2 E22.71074
G1 X100.561 Y133.7 E22.91232
G1 X100.634 Y133.906 E22.92323
G1 X100.628 Y134.124 E22.93411
G1 X100.561 Y134.3 E22.9435
G1 X98.542 Y137.8 E23.14509
G1 X98.4 Y137.966 E23.15598
G1 X98.209 Y138.07 E23.16683
G1 X98.022 Y138.1 E23.17628
G1 X93.978 Y138.1 E23.37804
G1 X93.763 Y138.06 E23.38895
G1 X93.577 Y137.947 E23.39981
G1 X93.458 Y137.8 E23.40924
G1 X91.439 Y134.3 E23.61083
G1 X91.366 Y134.094 E23.62173
G1 X91.372 Y133.876 E23.63261
G1 X91.439 Y133.7 E23.64201
G1 X93.458 Y130.2 E23.84359
G1 X93.6 Y130.034 E23.85449
G1 X93.791 Y129.93 E23.86534
G1 X93.978 Y129.9 E23.87479
G0 F2400 X93.978 Y130.3
G1 F1800 X98.022 Y130.3 E24.07655
G1 X98.141 Y130.339 E24.0828
G1 X98.195 Y130.4 E24.08686
G1 X100.214 Y133.9 E24.28845
G1 X100.24 Y134.022 E24.29467
G1 X100.214 Y134.1 E24.29877
G1 X98.195 Y137.6 E24.50036
G1 X98.102 Y137.683 E24.50658
G1 X98.022 Y137.7 E24.51066
G1 X93.978 Y137.7 E24.71241
G1 X93.859 Y137.661 E24.71866
G1 X93.805 Y137.6 E24.72272
G1 X91.786 Y134.1 E24.92431
G1 X91.76 Y133.978 E24.93053
G1 X91.786 Y133.9 E24.93464
G1 X93.805 Y130.4 E25.13622
G1 X93.898 Y130.317 E25.14244
G1 X93.978 Y130.3 E25.14652
G1 F1500 E18.64652
G0 F2400 X93.978 Y129.835
G0 X98.402 Y129.841
G0 X105.383 Y133.669
G0 X105.439 Y133.7
G1 F1500 E25.14652
G1 F1800 X107.458 Y130.2 E25.34811
G1 X107.6 Y130.034 E25.359
G1 X107.791 Y129.93 E25.36985
G1 X107.978 Y129.9 E25.3793
G1 X112.022 Y129.9 E25.58106
G1 X112.237 Y129.94 E25.59197
G1 X112.423 Y130.053 E25.60283
G1 X112.542 Y130.2 E25.61226
G1 X114.561 Y133.7 E25.81385
G1 X114.634 Y133.906 E25.82475
G1 X114.628 Y134.124 E25.83563
G1 X114.561 Y134.3 E25.84503
G1 X112.542 Y137.8 E26.04661
G1 X112.4 Y137.966 E26.05751
G1 X112.209 Y138.07 E26.06836
G1 X112.022 Y138.1 E26.07781
G1 X107.978 Y138.1 E26.27957
G1 X107.763 Y138.06 E26.29048
G1 X107.577 Y137.947 E26.30134
G1 X107.458 Y137.8 E26.31077
G1 X105.439 Y134.3 E26.51236
G1 X105.366 Y134.094 E26.52326
G1 X105.372 Y133.876 E26.53414
G1 X105.439 Y133.7 E26.54354
G0 F2400 X105.786 Y133.9
G1 F1800 X107.805 Y130.4 E26.74512
G1 X107.898 Y130.317 E26.75134
G1 X107.978 Y130.3 E26.75542
G1 X112.022 Y130.3 E26.95718
G1 X112.141 Y130.339 E26.96342
G1 X112.195 Y130.4 E26.96749
G1 X114.214 Y133.9 E27.16908
G1 X114.24 Y134.022 E27.1753
G1 X114.214 Y134.1 E27.1794
G1 X112.195 Y137.6 E27.38099
G1 X112.102 Y137.683 E27.38721
G1 X112.022 Y137.7 E27.39129
G1 X107.978 Y137.7 E27.59304
G1 X107.859 Y137.661 E27.59929
G1 X107.805 Y137.6 E27.60335
G1 X105.786 Y134.1 E27.80494
G1 X105.76 Y133.978 E27.81116
G1 X105.786 Y133.9 E27.81526
G1 F1500 E21.31526
G0 F2400 X105.383 Y133.668
G0 X105.093 Y133.5
G1 F1500 E27.81526
G1 F1800 X107.112 Y130 E28.01685
G1 X107.286 Y129.778 E28.03092
G1 X107.515 Y129.614 E28.04498
G1 X107.781 Y129.52 E28.05905
G1 X107.978 Y129.5 E28.06893
G1 X112.022 Y129.5 E28.27069
G1 X112.301 Y129.54 E28.28475
G1 X112.558 Y129.656 E28.29881
G1 X112.773 Y129.839 E28.3129
G1 X112.888 Y130 E28.32277
G1 X114.907 Y133.5 E28.52436
G1 X115.012 Y133.762 E28.53844
G1 X115.04 Y134.043 E28.55253
G1 X114.988 Y134.32 E28.56659
G1 X114.907 Y134.5 E28.57644
G1 X112.888 Y138 E28.77802
G1 X112.714 Y138.222 E28.79209
G1 X112.485 Y138.386 E28.80615
G1 X112.219 Y138.48 E28.82022
G1 X112.022 Y138.5 E28.8301
G1 X107.978 Y138.5 E29.03186
G1 X107.699 Y138.46 E29.04592
G1 X107.442 Y138.344 E29.05999
G1 X107.227 Y138.161 E29.07407
G1 X107.112 Y138 E29.08394
G1 X105.093 Y134.5 E29.28553
G1 X104.988 Y134.238 E29.29961
G1 X104.96 Y133.957 E29.3137
G1 X105.012 Y133.68 E29.32776
G1 X105.093 Y133.5 E29.33761
G1 F1500 E22.83761
