;FLAVOR:Marlin
;TIME:154
;Filament used: 0.0525645m
;Layer height: 0.1
;Generated with Cura_SteamEngine 2.7.0
M104 S210
M109 S210
G21 ;metric values
G90 ;absolute positioning
M82 ;set extruder to absolute mode
M107 ;start with the fan off
G28 X0 Y0 ;move X/Y to min endstops
G28 Z0 ;move Z to min endstops
G1 Z15.0 F9000 ;move the platform down 15mm
G92 E0 ;zero the extruded length
G1 F200 E3 ;extrude 3mm of feed stock
G92 E0 ;zero the extruded length again
G1 F9000
;Put printing message on LCD screen
M117 Printing...
;LAYER_COUNT:28
;LAYER:0
M107
G0 F2400 X105.998 Y104.246 Z0.3
;TYPE:SKIRT
G1 F1800 X106.391 Y103.954 E0.02443
G1 X106.826 Y103.73 E0.04884
G1 X107.292 Y103.58 E0.07326
G1 X107.978 Y103.5 E0.10772
G1 X112.022 Y103.5 E0.30947
G1 X112.51 Y103.54 E0.3339
G1 X112.985 Y103.659 E0.35833
G1 X113.434 Y103.853 E0.38273
G1 X113.846 Y104.118 E0.40717
G1 X114.209 Y104.446 E0.43158
G1 X114.621 Y105.001 E0.46607
G1 X116.64 Y108.501 E0.66765
G1 X116.849 Y108.944 E0.69209
G1 X116.983 Y109.414 E0.71647
G1 X117.039 Y109.9 E0.74088
G1 X117.016 Y110.389 E0.7653
G1 X116.913 Y110.868 E0.78975
G1 X116.64 Y111.499 E0.82405
G1 X114.621 Y114.999 E1.02563
G1 X114.342 Y115.402 E1.05009
G1 X114.002 Y115.754 E1.0745
G1 X113.609 Y116.046 E1.09893
G1 X113.174 Y116.27 E1.12334
G1 X112.708 Y116.42 E1.14776
G1 X112.022 Y116.5 E1.18222
G1 X107.978 Y116.5 E1.38398
G1 X107.49 Y116.46 E1.4084
G1 X107.015 Y116.341 E1.43283
G1 X106.566 Y116.147 E1.45724
G1 X106.154 Y115.882 E1.48168
G1 X105.791 Y115.554 E1.50608
G1 X105.379 Y114.999 E1.54057
G1 X103.36 Y111.499 E1.74215
G1 X103.151 Y111.056 E1.76659
G1 X103.017 Y110.586 E1.79097
G1 X102.961 Y110.1 E1.81538
G1 X102.984 Y109.611 E1.8398
G1 X103.087 Y109.132 E1.86425
G1 X103.36 Y108.501 E1.89855
G1 X105.379 Y105.001 E2.10013
G1 X105.658 Y104.598 E2.12459
G1 X105.998 Y104.246 E2.149
G0 F2400 X106.31 Y104.506
G1 F1800 X106.683 Y104.245 E2.17172
G1 X107.097 Y104.054 E2.19446
G1 X107.538 Y103.938 E2.21721
G1 X107.978 Y103.9 E2.23925
G1 X112.022 Y103.9 E2.441
G1 X112.476 Y103.94 E2.46374
G1 X112.916 Y104.058 E2.48647
G1 X113.328 Y104.252 E2.50919
G1 X113.701 Y104.515 E2.53196
G1 X114.022 Y104.838 E2.55468
G1 X114.274 Y105.201 E2.57672
G1 X116.293 Y108.701 E2.77831
G1 X116.485 Y109.114 E2.80103
G1 X116.603 Y109.554 E2.82376
G1 X116.641 Y110.008 E2.84649
G1 X116.6 Y110.462 E2.86923
G1 X116.48 Y110.902 E2.89198
G1 X116.293 Y111.299 E2.91388
G1 X114.274 Y114.799 E3.11546
G1 X114.013 Y115.172 E3.13818
G1 X113.69 Y115.494 E3.16093
G1 X113.317 Y115.755 E3.18364
G1 X112.903 Y115.946 E3.20639
G1 X112.462 Y116.062 E3.22914
G1 X112.022 Y116.1 E3.25117
G1 X107.978 Y116.1 E3.45293
G1 X107.524 Y116.06 E3.47567
G1 X107.084 Y115.942 E3.49839
G1 X106.672 Y115.748 E3.52111
G1 X106.299 Y115.485 E3.54388
G1 X105.978 Y115.162 E3.5666
G1 X105.726 Y114.799 E3.58865
G1 X103.707 Y111.299 E3.79023
G1 X103.515 Y110.886 E3.81296
G1 X103.397 Y110.446 E3.83568
G1 X103.359 Y109.992 E3.85841
G1 X103.4 Y109.538 E3.88116
G1 X103.52 Y109.098 E3.90391
G1 X103.707 Y108.701 E3.9258
G1 X105.726 Y105.201 E4.12739
G1 X105.987 Y104.828 E4.1501
G1 X106.31 Y104.506 E4.17285
G0 F2400 X106.072 Y105.401
G1 F1800 X106.315 Y105.059 E4.19379
G1 X106.619 Y104.77 E4.21471
G1 X106.971 Y104.544 E4.23558
G1 X107.36 Y104.388 E4.25649
G1 X107.978 Y104.3 E4.28763
G1 X112.022 Y104.3 E4.48939
G1 X112.439 Y104.34 E4.51029
G1 X112.841 Y104.458 E4.53119
G1 X113.213 Y104.651 E4.5521
G1 X113.542 Y104.91 E4.57299
G1 X113.928 Y105.401 E4.60415
G1 X115.947 Y108.901 E4.80574
G1 X116.121 Y109.282 E4.82663
G1 X116.219 Y109.689 E4.84752
G1 X116.238 Y110.108 E4.86844
G1 X116.178 Y110.523 E4.88936
G1 X115.947 Y111.099 E4.92032
G1 X113.928 Y114.599 E5.12191
G1 X113.685 Y114.941 E5.14284
G1 X113.381 Y115.23 E5.16377
G1 X113.029 Y115.456 E5.18464
G1 X112.64 Y115.612 E5.20555
G1 X112.022 Y115.7 E5.23669
G1 X107.978 Y115.7 E5.43845
G1 X107.561 Y115.66 E5.45935
G1 X107.159 Y115.542 E5.48025
G1 X106.787 Y115.349 E5.50116
G1 X106.458 Y115.09 E5.52205
G1 X106.072 Y114.599 E5.5532
G1 X104.053 Y111.099 E5.75479
G1 X103.879 Y110.718 E5.77569
G1 X103.781 Y110.311 E5.79657
G1 X103.762 Y109.892 E5.8175
G1 X103.822 Y109.477 E5.83842
G1 X104.053 Y108.901 E5.86938
G1 X106.072 Y105.401 E6.07097
G0 F2400 X106.419 Y105.601
G1 F1800 X106.642 Y105.294 E6.0899
G1 X106.924 Y105.041 E6.1088
G1 X107.253 Y104.853 E6.1277
G1 X107.614 Y104.737 E6.14662
G1 X107.978 Y104.7 E6.16487
G1 X112.022 Y104.7 E6.36663
G1 X112.399 Y104.74 E6.38554
G1 X112.759 Y104.858 E6.40444
G1 X113.086 Y105.048 E6.42331
G1 X113.367 Y105.303 E6.44224
G1 X113.581 Y105.601 E6.46055
G1 X115.6 Y109.101 E6.66213
G1 X115.754 Y109.447 E6.68103
G1 X115.832 Y109.818 E6.69994
G1 X115.83 Y110.197 E6.71885
G1 X115.749 Y110.567 E6.73775
G1 X115.6 Y110.899 E6.7559
G1 X113.581 Y114.399 E6.95749
G1 X113.358 Y114.706 E6.97642
G1 X113.076 Y114.959 E6.99532
G1 X112.747 Y115.147 E7.01422
G1 X112.386 Y115.263 E7.03314
G1 X112.022 Y115.3 E7.05139
G1 X107.978 Y115.3 E7.25315
G1 X107.601 Y115.26 E7.27206
G1 X107.241 Y115.142 E7.29097
G1 X106.914 Y114.952 E7.30983
G1 X106.633 Y114.697 E7.32876
G1 X106.419 Y114.399 E7.34707
G1 X104.4 Y110.899 E7.54865
G1 X104.246 Y110.553 E7.56755
G1 X104.168 Y110.182 E7.58646
G1 X104.17 Y109.803 E7.60537
G1 X104.251 Y109.433 E7.62427
G1 X104.4 Y109.101 E7.64242
G1 X106.419 Y105.601 E7.84401
G0 F2400 X106.765 Y105.8
G1 F1800 X106.966 Y105.533 E7.86068
G1 X107.223 Y105.321 E7.8773
G1 X107.524 Y105.176 E7.89397
G1 X107.978 Y105.1 E7.91694
G1 X112.022 Y105.1 E8.11869
G1 X112.354 Y105.14 E8.13538
G1 X112.666 Y105.257 E8.152
G1 X112.943 Y105.445 E8.1687
G1 X113.235 Y105.8 E8.19164
G1 X115.254 Y109.3 E8.39322
G1 X115.385 Y109.608 E8.40992
G1 X115.44 Y109.937 E8.42656
G1 X115.415 Y110.27 E8.44322
G1 X115.254 Y110.7 E8.46613
G1 X113.235 Y114.2 E8.66771
G1 X113.034 Y114.467 E8.68439
G1 X112.777 Y114.679 E8.70101
G1 X112.476 Y114.824 E8.71768
G1 X112.022 Y114.9 E8.74064
G1 X107.978 Y114.9 E8.9424
G1 X107.646 Y114.86 E8.95908
G1 X107.334 Y114.743 E8.97571
G1 X107.057 Y114.555 E8.99241
G1 X106.765 Y114.2 E9.01534
G1 X104.746 Y110.7 E9.21693
G1 X104.615 Y110.392 E9.23362
G1 X104.56 Y110.063 E9.25027
G1 X104.585 Y109.73 E9.26693
G1 X104.746 Y109.3 E9.28983
G1 X106.765 Y105.8 E9.49142
G0 F2400 X107.112 Y106
G1 F1800 X107.286 Y105.778 E9.50549
G1 X107.515 Y105.614 E9.51954
G1 X107.781 Y105.52 E9.53362
G1 X107.978 Y105.5 E9.5435
G1 X112.022 Y105.5 E9.74525
G1 X112.301 Y105.54 E9.75932
G1 X112.558 Y105.656 E9.77338
G1 X112.773 Y105.839 E9.78747
G1 X112.888 Y106 E9.79734
G1 X114.907 Y109.5 E9.99893
G1 X115.012 Y109.762 E10.01301
G1 X115.04 Y110.043 E10.0271
G1 X114.988 Y110.32 E10.04116
G1 X114.907 Y110.5 E10.051
G1 X112.888 Y114 E10.25259
G1 X112.714 Y114.222 E10.26666
G1 X112.485 Y114.386 E10.28072
G1 X112.219 Y114.48 E10.29479
G1 X112.022 Y114.5 E10.30467
G1 X107.978 Y114.5 E10.50643
G1 X107.699 Y114.46 E10.52049
G1 X107.442 Y114.344 E10.53455
G1 X107.227 Y114.161 E10.54864
G1 X107.112 Y114 E10.55851
G1 X105.093 Y110.5 E10.7601
G1 X104.988 Y110.238 E10.77418
G1 X104.96 Y109.957 E10.78827
G1 X105.012 Y109.68 E10.80233
G1 X105.093 Y109.5 E10.81218
G1 X107.112 Y106 E11.01376
G0 F2400 X107.458 Y106.2
G1 F1800 X107.6 Y106.034 E11.02466
G1 X107.791 Y105.93 E11.03551
G1 X107.978 Y105.9 E11.04496
G1 X112.022 Y105.9 E11.24672
G1 X112.237 Y105.94 E11.25763
G1 X112.423 Y106.053 E11.26848
G1 X112.542 Y106.2 E11.27792
G1 X114.561 Y109.7 E11.4795
G1 X114.634 Y109.906 E11.49041
G1 X114.628 Y110.124 E11.50129
G1 X114.561 Y110.3 E11.51068
G1 X112.542 Y113.8 E11.71227
G1 X112.4 Y113.966 E11.72317
G1 X112.209 Y114.07 E11.73402
G1 X112.022 Y114.1 E11.74347
G1 X107.978 Y114.1 E11.94522
G1 X107.763 Y114.06 E11.95613
G1 X107.577 Y113.947 E11.96699
G1 X107.458 Y113.8 E11.97643
G1 X105.439 Y110.3 E12.17801
G1 X105.366 Y110.094 E12.18892
G1 X105.372 Y109.876 E12.1998
G1 X105.439 Y109.7 E12.20919
G1 X107.458 Y106.2 E12.41078
G0 F2400 X107.978 Y106.3
M104 S190
G1 F1800 X112.022 Y106.3 E12.61253
G1 X112.141 Y106.339 E12.61878
G1 X112.195 Y106.4 E12.62285
G1 X114.214 Y109.9 E12.82443
G1 X114.24 Y110.022 E12.83066
G1 X114.214 Y110.1 E12.83476
G1 X112.195 Y113.6 E13.03634
G1 X112.102 Y113.683 E13.04256
G1 X112.022 Y113.7 E13.04664
G1 X107.978 Y113.7 E13.2484
G1 X107.859 Y113.661 E13.25465
G1 X107.805 Y113.6 E13.25871
G1 X105.786 Y110.1 E13.4603
G1 X105.76 Y109.978 E13.46652
G1 X105.786 Y109.9 E13.47062
G1 X107.805 Y106.4 E13.67221
G1 X107.898 Y106.317 E13.67843
G1 X107.978 Y106.3 E13.68251
G0 F2400 X108.094 Y106.7
;TYPE:WALL-OUTER
G1 F1800 X111.906 Y106.7 E13.87269
G1 X113.81 Y110 E14.06276
G1 X111.906 Y113.3 E14.25284
G1 X108.094 Y113.3 E14.44302
G1 X106.19 Y110 E14.6331
G1 X108.094 Y106.7 E14.82317
G0 F2400 X108.294 Y106.7
G0 X108.375 Y107.186
G0 X108.566 Y107.687
G0 X108.886 Y108.07
G1 F1800 X108.293 Y108.568 E14.86181
G1 X107.908 Y109.239 E14.9004
G1 X107.772 Y110 E14.93897
G1 X107.906 Y110.762 E14.97757
G1 X108.293 Y111.433 E15.01621
G1 X108.885 Y111.93 E15.05478
G1 X109.613 Y112.194 E15.09341
G1 X110.388 Y112.194 E15.13208
G1 X111.111 Y111.926 E15.17055
G1 X111.706 Y111.433 E15.2091
G1 X111.978 Y110.963 E15.23619
G1 X112.09 Y110.754 E15.24802
G1 X112.179 Y110.129 E15.27951
G1 X112.193 Y109.982 E15.28688
G1 X111.988 Y109.256 E15.32452
G1 X111.562 Y108.663 E15.36095
G1 X110.975 Y108.267 E15.39627
G1 X110.371 Y108.12 E15.42729
G1 X109.767 Y107.808 E15.4612
G1 X109.613 Y107.808 E15.46888
G1 X108.886 Y108.07 E15.50744
G0 F2400 X108.733 Y108.198
G0 X108.683 Y107.718
;TYPE:WALL-INNER
G1 F1800 X108.187 Y108.135 E15.53977
G1 X107.981 Y108.307 E15.55316
G1 X107.526 Y109.1 E15.59877
G1 X107.481 Y109.357 E15.61179
G1 X107.366 Y109.999 E15.64433
G1 X107.478 Y110.637 E15.67664
G1 X107.524 Y110.901 E15.69001
G1 X107.982 Y111.694 E15.7357
G1 X108.188 Y111.867 E15.74912
G1 X108.682 Y112.282 E15.78131
G1 X109.292 Y112.503 E15.81368
G1 X109.543 Y112.594 E15.827
G1 X110.46 Y112.594 E15.87275
G1 X110.704 Y112.504 E15.88572
G1 X111.314 Y112.277 E15.91819
G1 X111.815 Y111.861 E15.95068
G1 X112.016 Y111.695 E15.96369
G1 X112.327 Y111.158 E15.99465
G1 X112.476 Y110.881 E16.01034
G1 X112.506 Y110.665 E16.02122
G1 X112.576 Y110.176 E16.04586
G1 X112.598 Y109.945 E16.05744
G1 X112.354 Y109.08 E16.10228
G1 X111.845 Y108.371 E16.14582
G1 X111.139 Y107.895 E16.1883
G1 X110.51 Y107.742 E16.2206
G1 X110.031 Y107.494 E16.24751
G1 X109.864 Y107.408 E16.25688
G1 X109.543 Y107.408 E16.2729
G1 X109.296 Y107.497 E16.28599
G1 X108.683 Y107.718 E16.3185
G0 F2400 X108.634 Y107.632
G0 X109.28 Y107.2
G0 X109.28 Y107.1
G1 F1800 X109.543 Y107.1 E16.33014
G1 X109.864 Y107.1 E16.34247
G1 X110.053 Y107.1 E16.35085
G1 X111.675 Y107.1 E16.43177
G1 X113.349 Y110 E16.59883
G1 X112.858 Y110.85 E16.6478
G1 X112.749 Y111.039 E16.65755
G1 X112.592 Y111.311 E16.66975
G1 X112.282 Y111.848 E16.69337
G1 X112.152 Y112.074 E16.70487
G1 X111.675 Y112.9 E16.75246
G1 X110.721 Y112.9 E16.80006
G1 X110.46 Y112.9 E16.81158
G1 X109.543 Y112.9 E16.84657
G1 X109.276 Y112.9 E16.85836
G1 X108.325 Y112.9 E16.9058
G1 X107.851 Y112.08 E16.95305
G1 X107.717 Y111.847 E16.96489
G1 X107.259 Y111.054 E16.99972
G1 X107.125 Y110.822 E17.01152
G1 X106.651 Y110 E17.05886
G1 X107.128 Y109.173 E17.10649
G1 X107.259 Y108.946 E17.11809
G1 X107.716 Y108.155 E17.153
G1 X107.85 Y107.922 E17.16484
G1 X108.325 Y107.1 E17.21221
G1 X109.28 Y107.1 E17.25985
G0 F2400 X109.28 Y107.2
G0 X111.303 Y107.523
G1 F1800 X111.209 Y107.5 E17.26468
G1 X111.303 Y107.5
G1 X111.444 Y107.5 E17.27163
G1 X111.556 Y107.694 E17.2828
G1 X111.39 Y107.582
G1 X111.303 Y107.523
G0 F2400 X111.007 Y107.33
G1 F1800 X110.85 Y107.456 E17.28978
G1 X110.552 Y107.44 E17.30061
G1 X110.156 Y107.328 E17.30662
G0 F2400 X110.132 Y107.304
G0 X109.068 Y107.371
G0 X109.03 Y107.332
G1 F1800 X108.784 Y107.37 E17.31066
G1 X108.541 Y107.41 E17.3172
G1 X108.404 Y107.555 E17.32374
G1 X108.275 Y107.709 E17.32823
G1 X108.147 Y107.864 E17.33091
G0 F2400 X108.173 Y107.89
G0 X107.19 Y109.453
G0 X107.222 Y109.485
G1 F1800 X107.149 Y109.694 E17.3342
G1 X107.076 Y109.904 E17.33966
G1 X107.054 Y110.165 E17.34913
G0 F2400 X107.229 Y110.34
G0 X108.085 Y112.045
G0 X108.414 Y112.374
G1 F1800 X108.956 Y112.633 E17.36322
G0 F2400 X108.461 Y112.704
;TYPE:SKIN
G1 F1800 X108.404 Y112.647 E17.36523
G0 F2400 X110.93 Y112.627
G0 X110.968 Y112.665
G1 F1800 X111.213 Y112.627 E17.36928
G1 X111.455 Y112.586 E17.37595
G1 X111.592 Y112.441 E17.3826
G1 X111.721 Y112.287 E17.38718
G1 X111.85 Y112.133 E17.38996
G0 F2400 X111.824 Y112.107
G0 X112.808 Y110.546
G0 X112.769 Y110.506
G1 F1800 X112.838 Y110.293 E17.3939
G1 X112.903 Y110.074 E17.40048
G1 X112.909 Y109.798 E17.41181
G1 X112.67 Y109.276 E17.42205
G0 F2400 X112.369 Y108.692
G1 F1800 X112.178 Y108.501 E17.42879
G0 F2400 X111.859 Y107.899
G1 F1800 X111.666 Y107.989 E17.43601
G0 F2400 X111.721 Y107.979
G0 X110.723 Y107.5
;TIME_ELAPSED:16.260502
;LAYER:1
M106 S255
G0 F3600 X110.723 Y107.5 Z0.4
;TYPE:WALL-INNER
G1 F1387.5 X111.253 Y107.5 E17.44483
G1 X111.444 Y107.5 E17.448
G1 X111.479 Y107.561 E17.44917
G1 X111.747 Y108.025 E17.45808
G1 X111.296 Y107.722 E17.46042
G1 X111.253 Y107.693
G1 X110.723 Y107.5 E17.463
G0 F3600 X111.735 Y108.452
G0 X112.817 Y109.995
G1 F1387.5 X112.824 Y109.89 E17.46475
G1 X112.888 Y110 E17.46519
G1 X112.808 Y110.139 E17.46643
G1 X112.817 Y109.995
G0 F3600 X112.421 Y109.936
G1 F1387.5 X112.188 Y109.133 E17.48033
G1 X111.708 Y108.48 E17.49381
G1 X111.071 Y108.052 E17.50657
G1 X110.547 Y107.862 E17.51584
G1 X109.952 Y107.487 E17.52754
G1 X109.72 Y107.342 E17.53209
G1 X109.297 Y107.495 E17.53957
G1 X108.682 Y107.718 E17.55044
G1 X108.187 Y108.135 E17.56121
G1 X107.981 Y108.308 E17.56568
G1 X107.528 Y109.101 E17.58087
G1 X107.483 Y109.355 E17.58516
G1 X107.366 Y109.999 E17.59604
G1 X107.478 Y110.637 E17.60682
G1 X107.524 Y110.901 E17.61127
G1 X107.982 Y111.694 E17.6265
G1 X108.188 Y111.867 E17.63098
G1 X108.682 Y112.282 E17.64171
G1 X109.292 Y112.503 E17.65249
G1 X109.543 Y112.594 E17.65693
G1 X110.459 Y112.594 E17.67217
G1 X110.705 Y112.504 E17.67652
G1 X110.849 Y112.45 E17.67908
G1 X111.335 Y112.255 E17.68779
G1 X111.501 Y112.097 E17.6916
G1 X111.719 Y111.859 E17.69697
G1 X111.917 Y111.68 E17.70141
G1 X111.989 Y111.615 E17.70302
G1 X112.116 Y111.334 E17.70815
G1 X112.36 Y110.792 E17.71803
G1 X112.421 Y109.936 E17.73231
G0 F3600 X112.52 Y109.926
G0 X112.379 Y111.482
G0 X112.464 Y111.532
G1 F1387.5 X112.31 Y111.799 E17.73723
G1 X112.261 Y111.883 E17.73879
G1 X111.675 Y112.9 E17.75831
G1 X110.721 Y112.9 E17.77417
G1 X110.459 Y112.9 E17.77803
G1 X109.543 Y112.9 E17.78968
G1 X109.276 Y112.9 E17.79361
G1 X108.325 Y112.9 E17.80942
G1 X107.851 Y112.08 E17.82517
G1 X107.717 Y111.847 E17.82912
G1 X107.259 Y111.054 E17.84073
G1 X107.125 Y110.822 E17.84466
G1 X106.651 Y110 E17.86044
G1 X107.13 Y109.169 E17.87639
G1 X107.259 Y108.946 E17.8802
G1 X107.716 Y108.156 E17.89187
G1 X107.85 Y107.923 E17.89581
G1 X108.325 Y107.1 E17.91162
G1 X109.27 Y107.1 E17.92733
G1 X109.72 Y107.1 E17.93336
G1 X109.994 Y107.1 E17.93705
G1 X111.675 Y107.1 E17.96501
G1 X113.349 Y110 E18.02069
G1 X112.464 Y111.532 E18.05012
G0 F3600 X112.379 Y111.482
G0 X112.114 Y111.58
G0 X111.659 Y111.374
;TYPE:WALL-OUTER
G1 F925 X111.966 Y110.693 E18.06254
G1 X112.017 Y109.979 E18.07444
G1 X111.824 Y109.313 E18.08597
G1 X111.427 Y108.773 E18.09712
G1 X110.889 Y108.411 E18.1079
G1 X110.368 Y108.223 E18.11711
G1 X109.672 Y107.785 E18.13079
G1 X108.885 Y108.07 E18.14471
G1 X108.293 Y108.568 E18.15758
G1 X107.909 Y109.24 E18.17045
G1 X107.772 Y110 E18.18329
G1 X107.906 Y110.762 E18.19616
G1 X108.293 Y111.433 E18.20904
G1 X108.885 Y111.93 E18.22189
G1 X109.613 Y112.194 E18.23477
G1 X110.388 Y112.194 E18.24766
G1 X110.705 Y112.077 E18.25328
G1 X111.115 Y111.912 E18.26063
G1 X111.215 Y111.817 E18.26292
G1 X111.432 Y111.579 E18.26828
G1 X111.659 Y111.374 E18.27336
G0 F3600 X111.741 Y111.192
G0 X112.196 Y111.398
G0 X111.625 Y112.814
G0 X111.906 Y113.3
G1 F925 X108.094 Y113.3 E18.33676
G1 X106.19 Y110 E18.40012
G1 X108.094 Y106.7 E18.46347
G1 X111.906 Y106.7 E18.52687
G1 X113.81 Y110 E18.59023
G1 X111.906 Y113.3 E18.65359
G0 F3600 X111.706 Y113.3
G0 X111.608 Y112.402
