;FLAVOR:Marlin
;TIME:1239
;Filament used: 0.686221m
;Layer height: 0.1
;Generated with Cura_SteamEngine 2.7.0
M104 S210
M109 S210
G21 ;metric values
G90 ;absolute positioning
M82 ;set extruder to absolute mode
M107 ;start with the fan off
G28 X0 Y0 ;move X/Y to min endstops
G28 Z0 ;move Z to min endstops
G1 Z15.0 F9000 ;move the platform down 15mm
G92 E0 ;zero the extruded length
G1 F200 E3 ;extrude 3mm of feed stock
G92 E0 ;zero the extruded length again
G1 F9000
;Put printing message on LCD screen
M117 Printing...
;LAYER_COUNT:48
;LAYER:-9
M107
G0 F2400 X89.128 Y101.129 Z0.36
G1 F1350 X89.763 Y100.571 E0.10122
G1 X89.905 Y100.465 E0.12243
G1 X90.554 Y100.064 E0.21378
G1 X91.416 Y99.62 E0.32988
G1 X92.051 Y99.35 E0.4125
G1 X92.995 Y99.029 E0.53189
G1 X93.672 Y98.852 E0.61567
G1 X94.627 Y98.677 E0.73193
G1 X95.338 Y98.599 E0.81757
G1 X96.303 Y98.565 E0.93319
G1 X97.016 Y98.593 E1.01863
G1 X97.98 Y98.702 E1.13479
G1 X98.663 Y98.831 E1.21801
G1 X99.62 Y99.084 E1.33654
G1 X100.271 Y99.308 E1.41897
G1 X101.181 Y99.699 E1.53756
G1 X101.815 Y100.029 E1.62314
G1 X102.637 Y100.536 E1.73878
G1 X103.217 Y100.959 E1.82474
G1 X104.368 Y101.937 E2.00559
G1 X104.551 Y102.059 E2.03192
G1 X104.742 Y102.15 E2.05725
G1 X104.918 Y102.209 E2.07948
G1 X105.097 Y102.254 E2.10158
G1 X105.518 Y102.281 E2.15209
G1 X111.818 Y102.281 E2.90643
G1 X112.187 Y102.257 E2.95071
G1 X112.392 Y102.219 E2.97567
G1 X112.607 Y102.146 E3.00286
G1 X112.776 Y102.061 E3.02551
G1 X112.958 Y101.944 E3.05142
G1 X114.117 Y100.961 E3.23338
G1 X114.704 Y100.533 E3.32037
G1 X115.509 Y100.036 E3.43365
G1 X116.149 Y99.701 E3.52014
G1 X117.041 Y99.317 E3.63642
G1 X117.713 Y99.083 E3.72162
G1 X118.644 Y98.835 E3.83699
G1 X119.336 Y98.704 E3.92132
G1 X120.287 Y98.595 E4.03593
G1 X121.004 Y98.566 E4.12185
G1 X121.96 Y98.597 E4.23638
G1 X122.676 Y98.672 E4.32258
G1 X123.646 Y98.848 E4.44062
G1 X124.293 Y99.013 E4.52057
G1 X125.234 Y99.33 E4.63946
G1 X125.878 Y99.602 E4.72317
G1 X126.749 Y100.046 E4.84023
G1 X127.331 Y100.399 E4.92173
G1 X128.14 Y100.973 E5.0405
G1 X128.681 Y101.423 E5.12476
G1 X129.386 Y102.099 E5.24171
G1 X129.853 Y102.619 E5.3254
G1 X130.45 Y103.389 E5.44206
G1 X130.83 Y103.961 E5.52428
G1 X131.311 Y104.816 E5.64175
G1 X131.618 Y105.466 E5.72782
G1 X131.956 Y106.346 E5.84069
G1 X132.166 Y107.044 E5.92797
G1 X132.372 Y107.966 E6.04109
G1 X132.479 Y108.687 E6.12837
G1 X132.549 Y109.647 E6.24362
G1 X132.549 Y110.353 E6.32815
G1 X132.479 Y111.313 E6.4434
G1 X132.374 Y112.022 E6.52922
G1 X132.166 Y112.956 E6.6438
G1 X131.956 Y113.654 E6.73107
G1 X131.618 Y114.534 E6.84395
G1 X131.311 Y115.184 E6.93002
G1 X130.83 Y116.039 E7.04748
G1 X130.45 Y116.611 E7.12971
G1 X129.853 Y117.381 E7.24637
G1 X129.386 Y117.901 E7.33006
G1 X128.681 Y118.577 E7.44701
G1 X128.141 Y119.026 E7.53109
G1 X127.331 Y119.601 E7.65003
G1 X126.749 Y119.954 E7.73154
G1 X125.88 Y120.397 E7.84833
G1 X125.234 Y120.67 E7.9323
G1 X124.293 Y120.987 E8.05119
G1 X123.646 Y121.152 E8.13114
G1 X122.676 Y121.328 E8.24918
G1 X121.96 Y121.403 E8.33538
G1 X121.004 Y121.434 E8.44991
G1 X120.287 Y121.405 E8.53583
G1 X119.336 Y121.296 E8.65045
G1 X118.644 Y121.165 E8.73478
G1 X117.713 Y120.917 E8.85014
G1 X117.041 Y120.683 E8.93534
G1 X116.149 Y120.299 E9.05162
G1 X115.509 Y119.964 E9.13812
G1 X114.704 Y119.467 E9.2514
G1 X114.117 Y119.039 E9.33838
G1 X112.958 Y118.056 E9.52035
G1 X112.776 Y117.939 E9.54625
G1 X112.607 Y117.854 E9.5689
G1 X112.392 Y117.781 E9.59609
G1 X112.187 Y117.743 E9.62106
G1 X111.818 Y117.719 E9.66533
G1 X105.518 Y117.719 E10.41967
G1 X105.097 Y117.746 E10.47018
G1 X104.918 Y117.791 E10.49228
G1 X104.742 Y117.85 E10.51451
G1 X104.551 Y117.941 E10.53984
G1 X104.368 Y118.063 E10.56618
G1 X103.217 Y119.041 E10.74703
G1 X102.637 Y119.464 E10.83298
G1 X101.815 Y119.971 E10.94862
G1 X101.181 Y120.301 E11.0342
G1 X100.271 Y120.692 E11.15279
G1 X99.62 Y120.916 E11.23523
G1 X98.663 Y121.169 E11.35375
G1 X97.98 Y121.298 E11.43698
G1 X97.016 Y121.407 E11.55314
G1 X96.303 Y121.435 E11.63858
G1 X95.338 Y121.401 E11.75419
G1 X94.627 Y121.323 E11.83984
G1 X93.672 Y121.148 E11.95609
G1 X92.995 Y120.971 E12.03988
G1 X92.051 Y120.65 E12.15926
G1 X91.416 Y120.38 E12.24188
G1 X90.55 Y119.933 E12.35857
G1 X89.905 Y119.535 E12.44932
G1 X89.763 Y119.429 E12.47054
G1 X89.128 Y118.871 E12.57176
G1 X88.989 Y118.724 E12.59598
G1 X88.483 Y118.092 E12.69292
G1 X88.383 Y117.943 E12.71441
G1 X87.975 Y117.2 E12.8159
G1 X87.902 Y117.034 E12.83762
G1 X87.638 Y116.266 E12.93486
G1 X87.595 Y116.092 E12.95632
G1 X87.463 Y115.253 E13.05801
G1 X87.45 Y115.066 E13.08046
G1 X87.463 Y114.252 E13.17793
G1 X87.481 Y114.071 E13.19971
G1 X87.635 Y113.262 E13.29832
G1 X87.685 Y113.085 E13.32034
G1 X87.982 Y112.295 E13.4214
G1 X88.064 Y112.124 E13.4441
G1 X88.477 Y111.427 E13.54111
G1 X88.585 Y111.278 E13.56315
G1 X89.672 Y110 E13.76403
G1 X88.585 Y108.722 E13.96492
G1 X88.477 Y108.573 E13.98696
G1 X88.064 Y107.876 E14.08396
G1 X87.982 Y107.705 E14.10667
G1 X87.685 Y106.915 E14.20773
G1 X87.635 Y106.738 E14.22975
G1 X87.481 Y105.929 E14.32836
G1 X87.463 Y105.748 E14.35014
G1 X87.45 Y104.934 E14.44761
G1 X87.463 Y104.747 E14.47006
G1 X87.595 Y103.908 E14.57175
G1 X87.638 Y103.734 E14.59321
G1 X87.902 Y102.966 E14.69045
G1 X87.975 Y102.8 E14.71217
G1 X88.383 Y102.057 E14.81366
G1 X88.483 Y101.908 E14.83515
G1 X88.989 Y101.276 E14.93209
G1 X89.128 Y101.129 E14.95631
G0 F2400 X90 Y100.406
G1 F1350 X90 Y119.593 E17.25369
G0 F2400 X93.6 Y121.129
G1 F1350 X93.6 Y98.87 E19.91891
G0 F2400 X97.2 Y98.614
G1 F1350 X97.2 Y121.387 E22.64567
G0 F2400 X100.8 Y120.465
G1 F1350 X100.8 Y99.536 E25.15163
G0 F2400 X104.4 Y101.959
G1 F1350 X104.4 Y118.042 E27.07735
G0 F2400 X108 Y117.719
G1 F1350 X108 Y102.281 E28.92585
G0 F2400 X111.6 Y102.281
G1 F1350 X111.6 Y117.719 E30.77434
G0 F2400 X115.2 Y119.773
G1 F1350 X115.2 Y100.226 E33.11483
G0 F2400 X118.8 Y98.805
M104 S190
G1 F1350 X118.8 Y121.194 E35.79561
G0 F2400 X122.4 Y121.357
G1 F1350 X122.4 Y98.644 E38.51518
G0 F2400 X126 Y99.665
G1 F1350 X126 Y120.336 E40.99026
G0 F2400 X129.6 Y117.663
G1 F1350 X129.6 Y102.338 E42.82522
G0 F2400 X105.167 Y101.797
G0 X89.494 Y100.807
;TIME_ELAPSED:21.441696
;LAYER:-8
G0 X89.494 Y100.807 Z0.51
;TYPE:SUPPORT
G1 F1350 X89.762 Y100.57 E42.84307
G1 X89.904 Y100.464 E42.85191
G1 X90.313 Y100.212 E42.87587
G1 X107.818 Y117.718 E44.11098
G1 X109.233 Y117.718 E44.18158
G1 X91.23 Y99.715 E45.45178
G1 X91.415 Y99.619 E45.46218
G1 X92.05 Y99.349 E45.49661
G1 X92.22 Y99.291 E45.50557
G1 X110.647 Y117.718 E46.80569
G1 X111.818 Y117.718 E46.86412
G1 X112.077 Y117.734 E46.87706
G1 X93.293 Y98.95 E48.20237
G1 X93.672 Y98.851 E48.22192
G1 X94.463 Y98.706 E48.26204
G1 X115.952 Y120.195 E49.7782
G1 X116.148 Y120.297 E49.78923
G1 X117.041 Y120.682 E49.83774
G1 X117.712 Y120.915 E49.87318
G1 X118.223 Y121.051 E49.89956
G1 X95.755 Y98.584 E51.48476
G1 X96.302 Y98.564 E51.51207
G1 X97.015 Y98.592 E51.54767
G1 X97.199 Y98.613 E51.55691
G1 X119.951 Y121.365 E53.16219
G1 X120.287 Y121.404 E53.17906
G1 X121.003 Y121.433 E53.21481
G1 X121.42 Y121.42 E53.23563
G1 X98.89 Y98.89 E54.82524
G1 X99.619 Y99.083 E54.86286
G1 X100.269 Y99.308 E54.89718
G1 X101.063 Y99.649 E54.94029
G1 X122.731 Y121.316 E56.46905
G1 X123.645 Y121.152 E56.51538
G1 X123.911 Y121.083 E56.52909
G1 X105.078 Y102.249 E57.85789
G1 X105.096 Y102.254 E57.85883
G1 X105.517 Y102.281 E57.87987
G1 X106.524 Y102.281 E57.93011
G1 X124.993 Y120.75 E59.2332
G1 X125.233 Y120.669 E59.24584
G1 X125.879 Y120.396 E59.28083
G1 X125.994 Y120.337 E59.28727
G1 X107.938 Y102.281 E60.56122
G1 X109.352 Y102.281 E60.63177
G1 X126.92 Y119.849 E61.87129
G1 X127.33 Y119.601 E61.89519
G1 X127.772 Y119.286 E61.92227
G1 X110.766 Y102.281 E63.1221
G1 X111.816 Y102.28 E63.17448
G1 X112.158 Y102.258 E63.19158
G1 X128.568 Y118.668 E64.3494
G1 X128.679 Y118.576 E64.35659
G1 X129.298 Y117.984 E64.39932
G1 X113.12 Y101.806 E65.54077
G1 X113.885 Y101.157 E65.59082
G1 X129.964 Y117.236 E66.72528
G1 X130.449 Y116.611 E66.76474
G1 X130.57 Y116.428 E66.77569
G1 X114.687 Y100.544 E67.89636
G1 X114.703 Y100.532 E67.89735
G1 X115.508 Y100.035 E67.94455
G1 X115.563 Y100.007 E67.94763
G1 X131.105 Y115.549 E69.0442
G1 X131.31 Y115.184 E69.06509
G1 X131.581 Y114.61 E69.09676
G1 X116.514 Y99.543 E70.15982
G1 X117.04 Y99.317 E70.18838
G1 X117.531 Y99.146 E70.21432
G1 X131.975 Y113.59 E71.23342
G1 X132.165 Y112.956 E71.26644
G1 X132.273 Y112.474 E71.29108
G1 X118.635 Y98.836 E72.25332
G1 X118.643 Y98.834 E72.25373
G1 X119.335 Y98.703 E72.28887
G1 X119.857 Y98.644 E72.31508
G1 X132.481 Y111.268 E73.20577
G1 X132.547 Y110.353 E73.25153
G1 X132.548 Y109.921 E73.27309
G1 X121.2 Y98.572 E74.07379
G1 X121.959 Y98.596 E74.11167
G1 X122.675 Y98.671 E74.14759
G1 X122.722 Y98.68 E74.14998
G1 X132.435 Y108.393 E74.83528
G1 X132.371 Y107.966 E74.85682
G1 X132.165 Y107.044 E74.90395
G1 X132.021 Y106.565 E74.92891
G1 X124.558 Y99.103 E75.45543
G1 X125.232 Y99.33 E75.49091
G1 X125.877 Y99.602 E75.52583
G1 X126.748 Y100.046 E75.57461
G1 X127.175 Y100.305 E75.59952
G1 X130.827 Y103.957 E75.85719
G0 F2400 X106.404 Y117.718
G1 F1350 X89.494 Y100.807 E77.05032
G0 F2400 X88.792 Y101.52
G1 F1350 X105.032 Y117.76 E78.19614
G1 X105.096 Y117.745 E78.19942
G1 X105.518 Y117.718 E78.22051
G1 X106.404 Y117.718 E78.26472
G0 F2400 X104.125 Y118.267
G1 F1350 X103.361 Y118.917 E78.31476
G1 X87.775 Y103.332 E79.4144
G1 X87.638 Y103.733 E79.43554
G1 X87.594 Y103.907 E79.4445
G1 X87.505 Y104.475 E79.47318
G1 X102.547 Y119.518 E80.53451
G1 X101.814 Y119.97 E80.57747
G1 X101.663 Y120.048 E80.58595
G1 X87.474 Y105.858 E81.5871
G1 X87.481 Y105.928 E81.59061
G1 X87.635 Y106.737 E81.6317
G1 X87.684 Y106.913 E81.64081
G1 X87.981 Y107.704 E81.68296
G1 X88.051 Y107.85 E81.69104
G1 X100.705 Y120.504 E82.58385
G1 X100.271 Y120.691 E82.60743
G1 X99.68 Y120.894 E82.6386
G1 X89.264 Y110.477 E83.37354
G1 X88.614 Y111.242 E83.42362
G1 X98.56 Y121.187 E84.12533
G1 X97.979 Y121.297 E84.15483
G1 X97.329 Y121.37 E84.18747
G1 X88.07 Y112.111 E84.84074
G1 X88.064 Y112.123 E84.84141
G1 X87.982 Y112.294 E84.85087
G1 X87.684 Y113.084 E84.89299
G1 X87.672 Y113.127 E84.89522
G1 X95.966 Y121.422 E85.48044
G1 X95.337 Y121.4 E85.51184
G1 X94.627 Y121.321 E85.54748
G1 X94.412 Y121.282 E85.55839
G1 X87.462 Y114.332 E86.04875
G1 X87.45 Y115.065 E86.08532
G1 X87.462 Y115.252 E86.09467
G1 X87.554 Y115.838 E86.12426
G1 X92.527 Y120.811 E86.47513
G1 X92.051 Y120.649 E86.50022
G1 X91.416 Y120.379 E86.53465
G1 X90.549 Y119.931 E86.58333
G1 X89.905 Y119.534 E86.62108
G1 X89.762 Y119.428 E86.62996
G1 X89.492 Y119.19 E86.64791
G1 X88.846 Y118.545 E86.69346
G0 F2400 X104.125 Y118.267
G1 F1350 X88.216 Y102.358 E87.81592
G1 X88.383 Y102.056 E87.83314
G1 X88.483 Y101.906 E87.84213
G1 X88.792 Y101.52 E87.8668
G0 F2400 X89.2 Y100.8
;TIME_ELAPSED:62.899940
;LAYER:-7
G0 X89.2 Y100.8 Z0.61
G1 F1800 X89.63 Y100.421 E87.87633
G1 X89.659 Y100.4 E87.87693
G1 X102.789 Y100.4 E88.09528
G1 X102.74 Y100.365 E88.09628
G1 X102.149 Y100 E88.10784
G1 X90.279 Y100 E88.30524
G1 X90.447 Y99.896 E88.30852
G1 X91.021 Y99.6 E88.31926
G1 X101.426 Y99.6 E88.4923
G1 X101.272 Y99.52 E88.49518
G1 X100.527 Y99.2 E88.50867
G1 X91.894 Y99.2 E88.65223
G1 X91.992 Y99.158 E88.65401
G1 X92.926 Y98.84 E88.67042
G0 F2400 X92.926 Y98.841
G1 F1800 X93.084 Y98.8 E88.67313
G1 X99.333 Y98.8 E88.77705
G1 X98.718 Y98.638 E88.78763
G1 X98.011 Y98.505 E88.79959
G1 X97.082 Y98.4 E88.81514
G1 X95.324 Y98.4 E88.84437
G0 F2400 X92.926 Y98.84
G1 F1800 X92.926 Y98.841 E88.84439
G0 F2400 X89.2 Y100.8
G1 F1800 X103.338 Y100.8 E89.07951
G1 X103.354 Y100.812 E89.07984
G1 X103.81 Y101.2 E89.0898
G1 X88.794 Y101.2 E89.33951
G1 X88.474 Y101.6 E89.34803
G1 X104.281 Y101.6 E89.6109
G1 X104.488 Y101.777 E89.61543
G1 X104.65 Y101.884 E89.61866
G1 X104.818 Y101.965 E89.62176
G1 X104.923 Y102 E89.6236
G1 X88.186 Y102 E89.90194
G1 X87.966 Y102.4 E89.90953
G1 X129.926 Y102.4 E90.60733
G1 X130.009 Y102.493 E90.6094
G1 X130.248 Y102.8 E90.61587
G1 X87.757 Y102.8 E91.3225
G1 X87.717 Y102.89 E91.32414
G1 X87.611 Y103.2 E91.32959
G1 X130.558 Y103.2 E92.0438
G1 X130.606 Y103.263 E92.04512
G1 X130.831 Y103.6 E92.05186
G1 X87.473 Y103.6 E92.7729
G1 X87.448 Y103.672 E92.77417
G1 X87.4 Y103.863 E92.77745
G1 X87.379 Y104 E92.77975
G1 X131.083 Y104 E93.50655
G1 X131.309 Y104.4 E93.51419
G1 X87.316 Y104.4 E94.2458
G1 X87.264 Y104.725 E94.25127
G1 X87.26 Y104.8 E94.25252
G1 X131.526 Y104.8 E94.98867
G1 X131.714 Y105.2 E94.99602
G1 X87.254 Y105.2 E95.73539
G1 X87.26 Y105.6 E95.74204
G1 X131.883 Y105.6 E96.48413
G1 X132.037 Y106 E96.49125
G1 X87.29 Y106 E97.2354
G1 X87.366 Y106.4 E97.24217
G1 X132.182 Y106.4 E97.98746
G1 X132.303 Y106.8 E97.99441
G1 X87.445 Y106.8 E98.7404
G1 X87.497 Y106.983 E98.74357
G1 X87.578 Y107.2 E98.74742
G1 X132.406 Y107.2 E99.49291
G1 X132.496 Y107.6 E99.49973
G1 X87.729 Y107.6 E100.24421
G1 X87.8 Y107.788 E100.24755
G1 X87.883 Y107.963 E100.25077
G1 X87.904 Y108 E100.25148
G1 X132.58 Y108 E100.99445
G1 X132.64 Y108.4 E101.00117
G1 X88.142 Y108.4 E101.74118
G1 X88.305 Y108.674 E101.74648
G1 X88.395 Y108.8 E101.74905
G1 X132.689 Y108.8 E102.48567
G1 X132.718 Y109.2 E102.49233
G1 X88.729 Y109.2 E103.22388
G1 X89.069 Y109.6 E103.23261
G1 X132.747 Y109.6 E103.95897
G1 X132.749 Y109.631 E103.95949
G1 X132.749 Y110 E103.96563
G1 X89.41 Y110 E104.68636
G1 X89.07 Y110.4 E104.69509
G1 X132.746 Y110.4 E105.42142
G1 X132.717 Y110.8 E105.42809
G1 X88.729 Y110.8 E106.15962
G1 X88.434 Y111.146 E106.16718
G1 X88.396 Y111.2 E106.16827
G1 X132.688 Y111.2 E106.90485
G1 X132.679 Y111.331 E106.90704
G1 X132.639 Y111.6 E106.91156
G1 X88.143 Y111.6 E107.65153
G1 X87.905 Y112 E107.65927
G1 X132.58 Y112 E108.40222
G1 X132.573 Y112.049 E108.40304
G1 X132.494 Y112.4 E108.40903
G1 X87.73 Y112.4 E109.15345
G1 X87.579 Y112.8 E109.16057
G1 X132.405 Y112.8 E109.90602
G1 X132.358 Y113.013 E109.90965
G1 X132.301 Y113.2 E109.9129
G1 X87.446 Y113.2 E110.65884
G1 X87.438 Y113.227 E110.65931
G1 X87.367 Y113.6 E110.66563
G1 X132.18 Y113.6 E111.41087
G1 X132.149 Y113.705 E111.41269
G1 X132.035 Y114 E111.41795
G1 X87.291 Y114 E112.16205
G1 X87.284 Y114.033 E112.16261
G1 X87.263 Y114.24 E112.16607
G1 X87.261 Y114.4 E112.16873
G1 X131.882 Y114.4 E112.91078
G1 X131.797 Y114.623 E112.91475
G1 X131.713 Y114.8 E112.91801
G1 X87.255 Y114.8 E113.65735
G1 X87.25 Y115.062 E113.6617
G1 X87.259 Y115.2 E113.664
G1 X131.525 Y115.2 E114.40015
G1 X131.486 Y115.283 E114.40167
G1 X131.307 Y115.6 E114.40773
G1 X87.315 Y115.6 E115.13932
G1 X87.378 Y116 E115.14605
G1 X131.081 Y116 E115.87284
G1 X131.009 Y116.129 E115.87529
G1 X130.828 Y116.4 E115.88071
G1 X87.473 Y116.4 E116.60171
G1 X87.61 Y116.8 E116.60874
G1 X130.555 Y116.8 E117.32292
G1 X130.245 Y117.2 E117.33134
G1 X87.756 Y117.2 E118.03793
G1 X87.797 Y117.292 E118.0396
G1 X87.965 Y117.6 E118.04544
G1 X129.923 Y117.6 E118.7432
G1 X129.564 Y118 E118.75214
G1 X112.415 Y118 E119.03733
G1 X112.529 Y118.039 E119.03933
G1 X112.677 Y118.113 E119.04209
G1 X112.839 Y118.217 E119.04529
G1 X113.054 Y118.4 E119.04998
G1 X129.154 Y118.4 E119.31773
G1 X128.814 Y118.727 E119.32557
G1 X128.726 Y118.8 E119.32747
G1 X113.525 Y118.8 E119.58027
G1 X113.985 Y119.191 E119.59031
G1 X113.997 Y119.2 E119.59056
G1 X128.24 Y119.2 E119.82742
G1 X127.676 Y119.6 E119.83892
G1 X114.546 Y119.6 E120.05727
G1 X114.593 Y119.634 E120.05824
G1 X115.184 Y120 E120.0698
G1 X127.056 Y120 E120.26723
G1 X126.842 Y120.13 E120.27139
G1 X126.311 Y120.4 E120.2813
G1 X115.908 Y120.4 E120.4543
G1 X116.051 Y120.474 E120.45698
G1 X116.804 Y120.8 E120.47062
G1 X125.436 Y120.8 E120.61417
G1 X125.313 Y120.852 E120.6164
G1 X124.354 Y121.175 E120.63322
G1 X124.256 Y121.2 E120.63491
G1 X117.999 Y121.2 E120.73896
G1 X118.596 Y121.359 E120.74923
G1 X119.304 Y121.492 E120.76121
G1 X120.247 Y121.6 E120.777
G1 X121.991 Y121.6 E120.806
G0 F2400 X112.135 Y118.202
G0 X104.923 Y118
G1 F1800 X88.185 Y118 E121.08436
G1 X88.205 Y118.036 E121.08504
G1 X88.326 Y118.215 E121.08863
G1 X88.473 Y118.4 E121.09256
G1 X104.28 Y118.4 E121.35544
G1 X103.809 Y118.8 E121.36571
G1 X88.793 Y118.8 E121.61543
G1 X88.839 Y118.858 E121.61666
G1 X88.986 Y119.013 E121.62021
